/* XPM */
static char *b8baa70e7a5b4d05907109a1fadd40a6JLWkwLLaLVA3IMew[] = {
/* columns rows colors chars-per-pixel */
"421 293 256 2 ",
"   c None",
".  c #181213",
"X  c #38150C",
"o  c #281817",
"O  c #351413",
"+  c #3C1514",
"@  c #3C1A14",
"#  c #3C1B1B",
"$  c #371819",
"%  c #2E100C",
"&  c #3A251A",
"*  c #312716",
"=  c #1A1A27",
"-  c #191A36",
";  c #271B28",
":  c #391C24",
">  c #281C39",
",  c #361D39",
"<  c #1B2439",
"1  c #1C222A",
"2  c #292629",
"3  c #3A2727",
"4  c #3A342A",
"5  c #292738",
"6  c #372739",
"7  c #393738",
"8  c #2C3237",
"9  c #1F221E",
"0  c #46180C",
"q  c #421513",
"w  c #431B14",
"e  c #4B1C13",
"r  c #431C1B",
"t  c #4A1B18",
"y  c #541B12",
"u  c #48260D",
"i  c #43231B",
"p  c #4B241B",
"a  c #492718",
"s  c #552918",
"d  c #4A341A",
"f  c #5C341C",
"g  c #59371A",
"h  c #582A0C",
"j  c #6B3C14",
"k  c #633C1C",
"l  c #6B3D1B",
"z  c #643717",
"x  c #6D3914",
"c  c #441E25",
"v  c #432423",
"b  c #442B24",
"n  c #4B2C24",
"m  c #442C2B",
"M  c #492929",
"N  c #542B25",
"B  c #4C3225",
"V  c #45332B",
"C  c #4B342C",
"Z  c #4D3A2C",
"A  c #463625",
"S  c #533324",
"D  c #5C3B24",
"F  c #53352B",
"G  c #543B2C",
"H  c #5B3C2C",
"J  c #593625",
"K  c #452A37",
"L  c #4B3532",
"P  c #4C3A33",
"I  c #463838",
"U  c #533C33",
"Y  c #5B3D33",
"T  c #553938",
"R  c #532C34",
"E  c #633C23",
"W  c #633C2B",
"Q  c #683B26",
"!  c #633D33",
"~  c #713929",
"^  c #601C15",
"/  c #3C423C",
"(  c #6C431C",
")  c #69441A",
"_  c #73441B",
"`  c #744A1C",
"'  c #7A4C1C",
"]  c #754515",
"[  c #7B551C",
"{  c #6E4E19",
"}  c #5C432C",
"|  c #584428",
" . c #494339",
".. c #5C4334",
"X. c #54433B",
"o. c #5B443B",
"O. c #594837",
"+. c #544C32",
"@. c #644324",
"#. c #6B4423",
"$. c #6D4A24",
"%. c #63432B",
"&. c #6C4B2C",
"*. c #68472B",
"=. c #744B23",
"-. c #7A4D23",
";. c #734C2B",
":. c #754627",
">. c #6B532A",
",. c #7B5324",
"<. c #74532C",
"1. c #7B542B",
"2. c #7C5B2C",
"3. c #775726",
"4. c #634434",
"5. c #644B34",
"6. c #6B4B34",
"7. c #644B3B",
"8. c #6C4C3B",
"9. c #674437",
"0. c #764B37",
"q. c #6C5334",
"w. c #6C533C",
"e. c #67563A",
"r. c #735433",
"t. c #7C5C33",
"y. c #73533C",
"u. c #785939",
"i. c #7A6538",
"p. c #7A6631",
"a. c #5B431C",
"s. c #1A1B48",
"d. c #1A1D55",
"f. c #291C47",
"g. c #331D46",
"h. c #291E54",
"j. c #1B2748",
"k. c #1B2657",
"l. c #1C3257",
"z. c #282748",
"x. c #372748",
"c. c #2A3448",
"v. c #393747",
"b. c #282857",
"n. c #372956",
"m. c #293558",
"M. c #383758",
"N. c #1B2866",
"B. c #1C336F",
"V. c #272A65",
"C. c #293768",
"Z. c #373867",
"A. c #283976",
"S. c #363B76",
"D. c #332C67",
"F. c #1F1F61",
"G. c #442B47",
"H. c #473847",
"J. c #553B47",
"K. c #442B56",
"L. c #463957",
"P. c #543B56",
"I. c #463A66",
"U. c #483B6F",
"Y. c #623E48",
"T. c #3C4347",
"R. c #3A4358",
"E. c #30465A",
"W. c #394568",
"Q. c #2A4479",
"!. c #384778",
"~. c #344C72",
"^. c #1E4377",
"/. c #484748",
"(. c #584847",
"). c #59534A",
"_. c #484657",
"`. c #564856",
"'. c #595557",
"]. c #4B5256",
"[. c #664B46",
"{. c #695647",
"}. c #7C5B44",
"|. c #765945",
" X c #654B55",
".X c #665856",
"XX c #755A54",
"oX c #754D44",
"OX c #796448",
"+X c #6A6358",
"@X c #776755",
"#X c #716B4B",
"$X c #474768",
"%X c #564967",
"&X c #4A5368",
"*X c #585668",
"=X c #474877",
"-X c #564B77",
";X c #495578",
":X c #575877",
">X c #655866",
",X c #645877",
"<X c #6A5169",
"1X c #596276",
"2X c #686467",
"3X c #666477",
"4X c #736A6A",
"5X c #596359",
"6X c #82591C",
"7X c #835A28",
"8X c #834B37",
"9X c #845938",
"0X c #84502E",
"qX c #856329",
"wX c #836637",
"eX c #857339",
"rX c #87621F",
"tX c #815D44",
"yX c #845A47",
"uX c #8D5D4B",
"iX c #846447",
"pX c #93684F",
"aX c #A67256",
"sX c #906F68",
"dX c #2C3D82",
"fX c #1E3983",
"gX c #2A4887",
"hX c #374986",
"jX c #395489",
"kX c #2A5698",
"lX c #385897",
"zX c #2E4E90",
"xX c #3B639A",
"cX c #356394",
"vX c #325CA4",
"bX c #3966A7",
"nX c #376DB2",
"mX c #1E498A",
"MX c #474B85",
"NX c #475788",
"BX c #565987",
"VX c #475A96",
"CX c #545790",
"ZX c #645B88",
"AX c #576488",
"SX c #486499",
"DX c #566698",
"FX c #4C658E",
"GX c #65678D",
"HX c #4769A7",
"JX c #556AA4",
"KX c #4972B1",
"LX c #4D62A3",
"PX c #3D76C2",
"IX c #5582BC",
"UX c #83799C",
/* pixels */
"                                                                                                                                                                                                                                                                                                                                                                                                                                                                                                                                                                                                                                                                                                                                                                                                                                                                          ",
"                                                                                                                                                                                                                                                                                                                                                                                                                                                                                                                                                                                                                                                                                                                                                                                                                                                                          ",
"                                                                                                                                                                                                                                                                                                                                                                                                                                                                                                                                                                                                                                                                                                                                                                                                                                                                          ",
"                                                                                                                                                                                                                                                                                                                                                                                                                                                                                                                                                                                                                                                                                                                                                                                                                                                                          ",
"                                                                                                                                                                                                                                                                                                                                                                                                                                                                                                                                                                                                                                                                                                                                                                                                                                                                          ",
"                                                                                                                                                                                        c.m.5                                                                                                                                                                                                                                                                                                                                                                                                                                                                                                                                                                                                                                                                             ",
"                                                                                                                                                                                      j.Q.!.C.1                                                                                                                                                                                                                                                                                                                                                                                                                                                                                                                                                                                                                                                                           ",
"                                                                                                                                                                                    . C.hXzXhXm.                                                                                                                                                                                                                                                                                                                                                                                                                                                                                                                                                                                                                                                                          ",
"                                                                                                                                                                                    - Q.zXlXlX~.                                                                                                                                                                                                                                                                                                                                                                                                                                                                                                                                                                                                                                                                          ",
"                                                                                                                                                          m.C.m.                    z.hXlXlXlXhXc.                                                                                                                                                                                                                                                                                                                                                                                                                                                                                                                                                                                                                                                                        ",
"                                                                                                                                                        m.Q.jXQ.c.                . m.hXlXlXlXjXm.                                              3 5                                                                                                                                                                                                                                                                                                                                                                                                                                                                                                                                                                                                                       ",
"                                                                                                                                                        Q.lXlXlXE.                = C.hXlXlXlXhXW.2                                           6 M.W.m.                                                                                                                                                                                                                                                                                                                                                                                                                                                                                                                                                                                                                    ",
"                                                                                                                                                      m.hXlXlXlX~.2               = Q.zXlXlXlXjX~.c.                                        2 M.jXVX~.c.                                                                                                                                                                                                                                                                                                                                                                                                                                                                                                                                                                                                                  ",
"                                                                                                                                                      m.jXlXlXlX!.c.              - Q.zXzXzXzXjX!.m.                                        c.!.VXVXNXR.2                                     z.c.z.                                                                                                                                                                                                                                                                                                                                                                                                                                                                                                                                                                      ",
"                                                                                                                                                      m.jXlXlXlXjXW.=             5 ~.hXzXhXhXjXhXZ.                                      ; Q.lXbXHXjXR.*                                 x.Z.!.jXW.5                                                                                                                                                                                                                                                                                                                                                                                                                                                                                                                                                                     ",
"                                                                                                                    m.Q.Q.m.                        - m.jXlXjXjXjX~.5             5 Q.hXhXhXhXhXhXW.5                                     m.zXbXbXbXlXR.9                             H._.MXlXlXVX!.8                                                                                                                                                                                                                                                                                                                                                                                                                                                                                                                                                                     ",
"                                                                                                                - C.Q.zXlXjXE.                      m.Q.hXjXzXjXjX~.c.            5 ~.hXhXA.A.S.!.W.c.                                  j.Q.lXbXbXbXlXR.9                           ; L.MXVXxXbXSX!.8                                                                                                                                                                                                                                                                                                                                                                                                                                                                                                                                                                     ",
"                                                                                                                m.Q.hXzXlXlXjXE.                  l.Q.hXgXhXhXhXjX!.m.          . 5 W.!.!.A.C.V.Z.W.M.2                               = A.zXbXbXbXbXjXR.o                           M.hXVXxXxXbXxX~.5                                                                                                                                                                                                                                                                                                                                                                                                                                                                                                                                                                     ",
"                                                                                                              j.C.hXhXhXjXlXjX;X8               < Q.lXlXjXQ.gXgXhX!.m.2           - W.!.A.V.b.b.b.Z.R.v.5                             m.hXlXlXbXbXbXjXR..                         m.jXVXxXxXxXHXlXW.                                                                                                                                                                                                                                                                                                                                                                                                                                                                                                                                                                      ",
"                                                                                                              m.S.S.A.A.gXjXjX;XT.            - C.lXbXbXjXQ.A.Q.gX!.W.5           = Z.!.C.b.f.> f.M.W.W.W.M.5                       - Q.zXlXlXlXbXxXjXM.o                       c.!.VXVXxXxXxXbXjXM.                      3 I 4 3                                                                                                                                                                                                                                                                                                                                                                                                                                                                                                                                         ",
"                                                                                                            - m.S.A.V.B.A.gX!.R.2 .         = m.zXvXbXbXlXhXQ.A.A.Q.W.c.        . = Z.S.C.b.> > f.C.!.!.MX!.M.2                   = m.hXlXlXlXlXxXxXjXv.4                     z.W.hXlXlXlXxXxXlXjXv.                    2 v.$X$XM.                                                                                                                                                                                                                                                                                                                                                                                                                                                                                                                                        ",
"                                                                                                            z.C.C.V.N.N.B.A.!.R.o = < 1 = = j.Q.lXbXbXbXlXlXjXgXA.A.W.c.        . = m.Z.b.> = - N.jXjXjXjX!.!.W.;                 z.!.jXlXlXlXlXlXlX~.7 &                   5 W.hXjXjXlXlXlXxXVX!.8                   ; M.=XjXjX!.v.                                                                                                                                                                                                                                                                                                                                                                                                                                                                                                                                      ",
"                                                                                                            z.C.V.N.N.N.N.A.Q.R.; - z.5 < < m.zXvXbXbXbXbXlXlXlXQ.C.C.m.2     . . = M.M.z.; - N.zXbXbXlXjXjXjXjXW.z.            = m.!.hXhXhXzXzXlXlXW.4 o                 5 Z.MXjXjXhXjXlXlXxXlXW.2                 = Z.MXNXjXlXjXW.                                                                                                                                                                                                                                                                                                                                                                                                                                                                                                                                      ",
"                                                                                                            z.m.V.k.F.N.N.N.A.W.5 b.m.z.5 z.A.lXbXbXbXbXbXxXbXbXlXA.A.W.c.. = - . = c.M.5 - d.zXbXbXbXxXlXlXjXjX!.W.M.        . z.!.!.!.A.A.gXzXlXjXR.* %               = M.=XMXjXhXhXhXzXlXlXjXR.                = M.MXVXlXlXjXNXW.                                                                                                                                                                                                                                                                                                                                                                                                                                                                                                                                      ",
"                                                                                                          = m.m.b.k.F.F.F.N.C.W.m.C.C.c.5 z.Q.lXbXbXbXbXbXbXnXnXbXgXA.~.M.< C.W.8 o v.v.5 s.A.vXbXnXnXbXlXjXhXhXhXhX~.8       = m.!.S.A.C.A.A.hXjX!.v.o .               c.!.MXhXdXA.dXgXhXlXlX!.v.                c.!.NXVXjXjXVXNXW.5                                                                                                                                                                                                                                                                                                                                                                                                                                                                                                                                     ",
"                                                                                                          1 m.m.k.k.F.d.d.N.C.Q.W.W.m.c.5 b.gXlXbXbXbXbXbXbXnXnXnXlXQ.!.~.C.gXjXR.o 6 v.5 b.lXbXbXnXbXbXlXQ.A.Q.gXhX!.v.    . 5 Z.S.V.V.V.V.C.Q.hX=X7 % .             5 W.!.hXS.A.A.A.dXhXjXjX~.2               5 W.hXjXjXhXjXVXjXW.5                                                                                                                                                                                                                                                                                                                                                                                                                                                                                                                                     ",
"                                                                                                        . 5 m.m.k.d.d.d.d.k.A.Q.~.W.M.c.z.m.jXlXlXkXkXbXbXbXnXPXnXbXhX!.~.hXlXlXW.2 2 5 z.Q.lXbXbXbXbXbXlXA.N.B.A.Q.~.M.o . ; M.Z.C.b.b.b.b.b.C.!.R.3 % .           = c.W.!.S.A.B.A.A.dXhXjXNX_.o             ; W.jXjXjXhXhXhXVXNXW.                                                                                                                                                                                                                                                                                                                                                                                                                                                                                                                                      ",
"                                                                                                        = 8 M.m.b.d.d.d.d.k.C.Q.W.W.m.z.z.C.jXlXkXzXzXkXbXbXnXPXnXnXlXgXhXjXxXcXW.5 2 5 m.jXxXbXbXbXbXxXVXA.k.N.B.Q.Q.M.o . 5 Z.Z.m.z.z.> > z.m.M.v.o % . .         5 Z.~.!.A.V.N.B.A.gXjXjXNXv.o             c.!.jXjXhXhXhXhXNXjXM.                                                                                                                                                                                                                                                                                                                                                                                                                                                                                                                                      ",
"                                                                                          j.j.<         ; c.M.b.k.d.d.s.s.k.C.W.W.M.c.5 z.Q.jXlXzXgXgXkXxXbXnXnXnXnXbXhXhXjXxXcXW.8 2 5 W.lXxXbXvXbXbXxXVX~.k.N.N.A.~.M.o ; v.Z.m.z.c.5 ; ; > x.v.7 o o % o 9     = c.Z.W.C.V.V.N.N.A.hXjXVX;XZ.M.5         5 W.!.hXhXhXdXhXhXhX!.M.                                                                                                                                                                                                                                                                                                                                                                                                                                                                                                                                      ",
"                                                                                        j.Q.gXQ.C.< . . = c.M.b.d.s.s.s.d.k.C.W.E.c.c.5 z.!.zXzXgXA.fXzXlXbXbXnXnXnXbXlX!.jXxXjXM.8 2 z.!.lXlXlXzXlXlXSXVX~.m.k.B.Q.~.v.o ; v.M.c.z.5 ; ; ; ; 2 6 6 6 v.; ; 5 ; = z.M.Z.Z.V.V.V.V.V.A.hXjXVXVXVXjXm.        M.=X!.!.!.S.S.dXhXMXW.c.                                                                                                                                                                                                                                                                                                                                                                                                                                                                                                                                      ",
"                                                          j.m.m.1                       l.zXvXvXlX~.c.9 = c.M.m.k.s.s.s.d.k.C.W.M.z.c.5 s.!.jXhXA.A.A.gXlXbXbXnXnXnXnXxX!.jXlX~.v.8 ; M.NXlXlXhXgXzXlXlXNX;Xb.k.V.Q.W.6 o 2 M.R.c.5 ; o o ; 2 5 c.!.jXMXZ.z.8 ; 5 M.W.Z.V.b.V.V.N.V.A.hXjXVXHXKXSXE.      5 Z.=X!.Z.D.C.S.hXhX=XW.2         o 2 x.c.                                                                                                                                                                                                                                                                                                                                                                                                                                                                                                                      ",
"                                                          C.zXjXE.2                   . l.kXbXbXvXlX~.c.5 m.M.m.b.s.s.s.d.b.C.W.M.C.Q.m.k.!.hXgXA.B.B.gXlXxXxXnXnXnXnXxXNX;XjXW.c.2 ; Z.NXjXhXdXdXhXlXVXNX&XM.k.V.C.v.2 o x.!.;XW.5 ; o o ; 2 m.jXHXHXHXVX!.m.- v.$XW.Z.b.b.V.V.N.V.S.jXjXFXKXKXxXM.    = M.$X=XS.D.V.D.Z.!.MX=XR.;       o 6 =XNXNXW.                                                                                                                                                                                                                                                                                                                                                                                                                                                                                                                    ",
"                                                        < Q.kXkXjXE.9                 - k.kXbXbXvXvXjXE.c.M.M.m.b.j.s.s.k.b.C.W.~.lXlXW.C.jXhX!.A.B.B.dXzXlXxXHXbXbXbXxXNX;X~.M.8 2 5 !.NXjXgXA.A.dXhXNXNX'.].c.m.M.7 ; ; W.VXVXNX8 o o o ; c.jXHXHXKXHXHXSXNXR.].].W.m.b.b.V.V.V.D.!.=X!.NXHXKXjXc.    5 $XW.Z.Z.b.b.V.S.!.jX!.v..     . c.;XVXHXHXVX_.                                                                                                                                                                                                                                                                                                                                                                                                                                                                                                                  ",
"                                                        j.Q.kXkXkX~.c.                C.Q.kXvXbXvXvXkXE.c.M.R.c.z.z.s.z.z.z.M.W.jXbXxX~.W.MXhXA.V.B.B.A.hXlXVXVXlXlXbXSXNX&X_.8 2 2 c.;XNXhXA.B.B.A.hXNX;X'.).v.v.v.6 ; x.jXbXHXSXM.o $ o 5 !.SXHXKXKXKXHXHXHXAX*X].R.m.m.b.b.b.b.Z.!.!.jXjXxXHX;X2 . . M.$XW.Z.b.b.b.D.S.!.!.=Xv..   . 5 =XVXHXHXHXHX;X2                                                                                                                                                                                                                                                                                                                                                                                                                                                                                                                 ",
"                                                        j.Q.zXkXkXzXm.9             j.Q.kXkXkXvXbXvXzXE.c.v.R.v.7 z.z.z.z.c.v.&XFXbXbX~.~.MX!.S.N.N.B.A.hXVXVXVXlXjXlXSXNX&X .2 2 2 M.;XMX!.C.V.V.A.!.MX;X'.w. . .I 3 3 Z.lXHXHXHX=X; $ 2 W.VXHXHXKXKXKXHXHXKXSX1X'.L.c.m.m.b.b.C.Z.!.NXSXSXSXFXW.; . 5 $X$XZ.b.z.b.b.D.S.!.;X&X7 o . = $XVXSXHXHXHXHXNX7                                                                                                                                                                                                                                                                                                                                                                                                                                                                                                                 ",
"                                                        j.Q.gXzXzXgXQ.c.            l.mXvXvXkXkXvXkXgXE.z.v././.7 8 5 5 8 7 /.].FXHXHX~.~.MX!.C.N.N.B.A.hXNXNXNXhXhXhXNXNX&XI o o 5 $X;X!.S.V.V.V.V.S.NX;X{.q.O.+.| & 6 !.HXHXHXHXNX3 # x.NXxXHXbXnXKXKXHXHXKXHX1X)./.v.v.c.c.m.M.W.NXHXHXHXHXNXv.. = _.$X$XM.z.z.z.b.M.Z.=X;X_.7 2 = M.NXSXHXHXHXHXHXNXv.                    6 v.M.                                                                                                                                                                                                                                                                                                                                                                                                                                                                                      ",
"                                                        < Q.gXgXgXQ.Q.E.2           j.gXvXbXkXkXkXkXgXm.5 v./. . .7 8 7 7 7 /.].1XSXSX~.~.;X!.D.b.V.V.B.S.jXNXNX!.S.!.jXNX&XI o ; z.;X;XW.C.b.V.V.V.S.;X*X[.>.q.5.D a I NXHXKXHXHXNX7 3 $XNXSXHXbXbXHXHXHXHXKXHXAX]././.I v.v.v._.;XSXKXnXHXSX;X8 . 8 '.&X_.v.x.z.z.z.n.Z.=X&X_.7 5 c.;XVXSXSXHXHXHXSXBXv.                3 H.=XNXNX~.                                                                                                                                                                                                                                                                                                                                                                                                                                                                                    ",
"                                                        - C.Q.Q.A.A.Q.Q.c.          < ^.kXvXcXkXkXzXQ.m.5 8 /. . .V 4 I I P  .).1XSXSX~.;X;X$Xn.b.F.V.V.S.MXNX;XZ.Z.S.!.;X:X/.o ; v.:X;X$XM.b.b.V.D.W.;X*X[.&.>.&.g a L.NXHXKXHXHX;Xx.x.;XNXVXlXlXbXbXHXHXHXKXKXDX*X(.+.X. ././.&XFXHXKXKXKXSX$X; . /.'.]./.v.6 x.x.x.M.$X&X$X/.7 7 &XNXVXVXVXVXHXHXSXBXL.              3 v.;XSXHXHXNXM.                                                                                                                                                                                                                                                                                                                                                                                                                                                                                  ",
"                                                        = m.A.A.B.B.A.A.m.2           l.Q.zXkXkXzXgXQ.m.= 8  .+.+.A A  .| | +.{.+XAXFX~.;X;X$Xn.z.h.b.V.Z.;X;X-XZ.D.D.W.;X*X(.$ ; _.*X%XI.n.b.b.V.C.=X-X'.7.6.6.*.g n _.NXHXHXHXSX=Xv.$XNXNXjXhXzXlXbXHXHXHXKXKXDX*X7.+.+.+.e.).:XSXKXKXKXHXSX_.. 3 .X.X(.H.7 6 6 6 x.L.$X&X].H.7 L.;XBXNXNXVXVXVXVXDXFX;Xv.          3 v.;XSXHXKXHXVXW.                                                                                                                                                                                                                                                                                                                                                                                                                                                                                  ",
"                                                        = b.C.V.N.N.N.C.C.c..         j.Q.Q.gXjXgXQ.Q.m.= 2 +.+.+.| Z | | | *.q.@X1XNXW.&X:X$Xv.z.z.f.b.Z.;X:X*XL.n.n.M.$X*X(.& 2 '.*X%XL.x.z.b.b.Z.$X*X'.7.5.6.%.a m $XNXHXbXxXNXW.M.;XNXjXhXdXzXlXbXHXHXHXHXHXDX1X7.5.5.e.e.'.AXSXHXKXKXHXSXv.. (.{.{.(.I V I 6 6 I _.'.'.`.I H.%X;XNXMXMXhXjXVXVXSXFXFX;Xv.        I ;XFXHXKXKXKXSXW.                                                                                                                                                                                                                                                                                                                                                                                                                                                                                  ",
"                                                          j.m.b.k.k.k.k.V.m.2         j.Q.lXlXjXhXQ.Q.m.= 2 +.>.>.| | %.| @.$.2.}.2X;XR.*X*X].v.x.z.z.x.R.&X*X*X_.v.x.v._.'.(.3 I +X.X'.H.x.x.x.n.M.%X*X.X5.%.5.%.a K $XVXSXxXlX!.M.=XNXjXhXA.A.gXzXlXSXSXSXHXSXDX1Xe.&.>.>.w.>XAXSXHXKXHXHXFXx.2 {.w.e.O. . .P P P  .).'.'./.I _.:X;X=X=XS.S.!.NXVXVXFXJXSX$X      V _.NXSXHXHXKXHXSXW.                                                                                                                                                                                                                                                                                                                                                                                                                                                                                  ",
"                                                          < z.z.s.s.s.d.k.m.c.        j.zXbXbXbXlXjXQ.m.= o | >.{ ) ) $.) ) =.3.t.+X&Xv.'.>X'.H.7 7 v.v._.'.+X.X(.I I I (.{.e.d 7.+X.X(.H.6 6 x.v.H.'..X{.5.} 4.4.p G.=XNXVXjXhXW.M.;XNX!.S.V.A.gXzXlXSXSXSXSXSXDX1X7.$.) $.[.*XNXSXSXHXHXHXNX5  .i.r.>.+.+.O.+.X.....e.{.{. ./.].:X:X=XZ.D.V.S.hXNXVXFXKXKX;X      /.;XVXVXHXHXHXHXNXR.                                                                                                                                                                                                                                                                                                                                                                                                                                                                                  ",
"                                                          = z.z.s.s.s.s.k.k.m.<       j.zXbXnXbXbXlXjXW.2 o | $.{ ) ) ) ) { ,.,.2.|.(.I .X+X)./.I I I /.)..X+X+X{.X. .O.5.w.>.g r.OX|.7.U V I I I (.{.|.|.W J H J v L.=XMX!.!.W.n.$X;X;X!.D.V.A.A.hXlXSXFXNXNXVXAX:X7.( j E (.%X;XNXNXSXSXSX;X2 O.p.<.>.*.} +.+.} 5.>.u.i.{. ./.*X*X-XI.n.b.b.Z.!.NXCXFXHXKXNX6 o I &XNXNXVXVXSXHXSX;X7                                                                                                                                                                                                                                                                                                                                                                                                                                                                                   ",
"                                                            z.z.s.s.s.s.d.k.k.z.      j.gXbXnXbXbXxXlX;Xv.o d { ` ) ) ) ) ` [ [ ,.u.(.V {.#X{.o.P X.X.O.e.OXOXOXw.%.} 5.>.t.$.) i.i.u.q.} G U G Y 7.|.OXw.J S N n 3 M.=X!.S.C.n.6 &X;X=XZ.b.V.V.A.hXVXVXNX!.!.NXBX*X..z h J T _.$X$X=XNXVXNX&X8 e.<.<.>.$.@.*.*.$.$.<.p.i.e. .(.*X*X%XL.n.x.b.D.Z.NXBXFXHXKXFXv.3 _.;XNXMX!.jXNXVXVXW.                                                                                                                                                                                                                                                                                                                                                                                                                                                                                    ",
"                                                            5 z.s.s.s.s.s.d.k.z.1       Q.xXbXbXbXlXlXNX;Xv.A { ` ) ) { { ` ' ' ,.u.4.n u.i.w.q.} } } 5.r.p.wXwXt.>.>.<.3.3.{ { wXwX2.<.&.} } } %.q.u.i.*.a a w r 3 H.M.M.b.b.5 v.*X*X$XM.b.V.V.S.!.NXNX=XZ.=X;X:X*XG h s N L H.H.v.Z.!.NXNXR.V r.3.=.=.) ) #.#.#.>.2.p.i.7.X.(..X*X_.M.x.g.x.n.Z.;XAXFXHXKXFXM.7 $X;X=XS.S.!.MXVXNXR.                                                                                                                                                                                                                                                                                                                                                                                                                                                                                    ",
"                                                            = j.j.s.s.s.s.s.k.j.<       m.lXbXvXlXkXjXjXNX&X(.$.] ) ) ` ` ` [ ' -.1.%.d t.p.t.r.*.*.&.>.2.wXwXwXqX2.` ` [ 6X] [ qXqXqX3.$.#.$.>.<.2.t.wXf 0 0 + + v K 6 6 z.5 2 /.'.*X_.x.z.b.V.Z.=X;X:X$XM.I.$X&X(.B e p L I /._./.R.W.;X;XT.+.t.3.3.{ ) ( ( ) { 3.3.p.u.O.P )..X.XP.G.x.6 x.n.L.:X1XAXJXHXNXR.&X&X=XZ.n.n.Z.=XNX;Xv.                                                                                                                                                                                                                                                                                                                                                                                                                                                                                    ",
"                                                            = z.z.s.s.s.s.s.s.j.<       m.hXlXkXkXzXzXjXjX;X&X7.` ) ) ` ' ` ' ' ` :.$.g 2.qX2.3.$.=.3.3.2.qXqXqXqX7X` ' [ [ ] 3.qXqXrX[ ) =.3.3.3.2.qX2.s X + X O r 3 3 ; ; ; 2 )..X'./.6 x.b.n.Z.&X:X*XM.x.M._./.P p i L /./././././._.$XR.I e.2.3.` ) j ) l ) ( =.3.t.y.U Z {..X XJ.K 6 6 6 G._.*X3X1XSXSX;X&X*X&XZ.n.z.b.n.$X;X$X8                                                                                                                                                                                                                                                                                                                                                                                                                                                                                     ",
"                                                              5 z.j.s.s.s.s.< < =       j.~.zXzXzXgXgXgX!.=X;X'.5.( ) ] ` ` ` _ _ -.=.g 2.qX3.3.` ,.,.3.qXqXqXqXqXqX' ' ' ] ] rXqXrXrX' ` [ [ [ 3.7X7X,.e 0 X X O r # : > z.z.v.{.{.)./.6 6 x.M._.*X*X`.7 6 v.H.P L V I /./.H.H.H.H.H._.R.R.I w.r.;.( z z z z z j ` 3.t.6.Z A {.XX{.J.K 3 6 K G.`.>X2X1XFXNX&X*X*X_.v.z.z.z.M.$X&XR.                                                                                                                                                                                                                                                                                                                                                                                                                                                                                      ",
"                                                              = z.z.j.s.< < < 1 =       1 E.Q.gXgXfXA.A.Q.!.=X&X).#.j ( _ _ ( j _ :.;.g 3.qX6X[ ' ' [ 6XrXqXqXqXqX7X' ] ' ] ] qXqX7X[ ] { [ [ 6XrXrXqX( 0 q X X + # : M.!.NXNX:X*X'.).J.K K G.H.`..X.X(.7 7 V V L J././.J.I I H.H._._.W.W.W._.).y.&.k h h h h z z _ 1.2.$.d d |.OX{.o.L V K K T [.+X2X:X;X&X'.*X'.L.6 5 5 x.M.$X$Xv.                                                                                                                                                                                                                                                                                                                                                                                                                                                                                      ",
"                                                                < z.z.j.< 5 2 2 9       o c.~.Q.gXA.A.A.A.S.!.&X*X7.k l l j j j j #.;.z [ qX6X[ ] ] 6X6XrXrXqXqXqX7X' ] ] j _ qXqX6X' ] ] [ [ [ 6XrX7Xf 0 X X X O : M.NXVXSXSXSXNX:X'.X.C Z T (.{.{.#XO.V V m b  .(./.H.I I I H._.R.W.!.!.!.!.$X).4.z h h h h h z _ <.1.$.g f u.u.w.4.} G U U o.w.#X@X*X$X_.5X+X).H.6 5 6 x.L._./.2                                                                                                                                                                                                           o.o.o.o.(.    4                                                                                                                                                                                                                                                             ",
"                                                                = 8 c.5 < 2 2 2 * o     o 5 W.!.A.A.B.B.C.C.S.$X].'.4.k k l l l z l :.j [ rX6X6X] ] [ 6XrXqXqXqXqX7X` j j z _ qXqX[ ] j _ [ [ ,.7X7X1.u q X X X @ 6 =XNXNXlXlXlXVXNX:X'.G } } q.e.i.i.| G d d X.).`.H.I K K I _.R.Z.!.!.hXhXhX=X$XY s p h h h h z ( <.r.$.g #.wXt.<.*.%.%.} %.&.r.i.#X/./.).#X{.(.I 4 6 6 I `.].I                                                                                                                                                                                                           o.[.o.H J 7.(.(./.I P P (.(.P P V                                                                                                                                                                                                                                             ",
"                                                                  2 8 8 2 2 * * * * o % o 2 R.W.Q.A.N.N.V.V.C.W._.'.{.%.k k k k z z l j [ qXrX6X] ] [ 6X6XqXqXqX7X1._ z z h ;.wXqX,.) j _ ,.,.,.7X9X:.e q + + X # L.NX=XS.gXgXhXjXNXNX*XX.D $.<.t.p.<.@.D s P ).'./.I K 6 6 H._.M.Z.S.dXhXhXhXjX=XJ.p y y y h s f *.{..X X(.{.i.2.3.$.$.$.*.&.<.2.i.|.I  .{.OX|.O.P P V I X.).).4                                                 5 m.E.W.W.c.                                                                                                                                              [.[.(.F s 7.{..X.X.X.X.X.X).(.(.X.I                                                                                                                                                                                                                                           ",
"                                                                  . 2 4 4 4 4 * * * % o * * v.W.!.S.V.k.V.b.V.M._.'..X5.g f k E f f k z ` qX7X6X' [ [ [ ,.7XwXwX<.;.( h h h r.wX7X,.j j _ -.1.2.9X9Xs w q + + + : $XNX!.A.A.fXdXhXjX;X&X(.G D $.2.2.$.) g d ).'.(.I K 3 3 v.L.M.Z.Z.A.dXhXzXhXhX!.H.p e y p p s F `.:XBXNXNX>X|.2.3.;.) =.$.3.3.2.i.{.L 5.i.i.u.5.} } | } e.e.O.&               8 M.v.                      z.E.~.NXVXSXHXHXVXW.                                                                                                                                      O.(.[.[.[.(.X.o.{.{.8.{..X.X[.7.[.[.[.[.).I                                                                                                                                                                                                                                         ",
"                                                                    o 4 d d d & & * * * * @ 4 _.W.S.C.b.b.b.b.M._.'..X|.g s s f f s g g { qXqX7X' -.,.,.-.7XwXwXg %.k h y a y.wX9X=.l l l $.1.t.wXr.e r r + + O : $XNXhXA.B.A.A.A.!.$X_./.P U 7.y.r.) z s O.{.).(.m 3 : 6 L.L.M.Z.Z.A.A.dXhXhX!.$XH.a e y e p L _.&XNXVXVXVXBX.Xt.3.=._ =.=.3.3.2.wX8.G t.wXwX2.>.>.>.&.>.q.q.S %           5 v.R.$X$Xc.                c.W.!.NXVXHXHXHXKXKXHXjXc.                                                                                                                                    7.[.[.9.{.{.{.{.{.Y s %.XX{.Y J {.{.[.[.{.X.V                                                                                                                                                                                                                                       ",
"                                                                    . * d d d u & * * * * @ & L.$XZ.D.b.b.b.b.n.L.`..X|.@.u s s s u s g #.qXqX-.` -.-.-.=.1.wX9Xp J f p 0 u w.OXt.$.z k E @.&.u.tX*.w v r # O + : _.NXMXA.A.A.A.C.Z.v.v._.$X&X;X*X*Xo.s D w.{.(.P m : : H._.R.M.Z.D.D.A.A.S.!.W._.I w 0 e M H._.~.jXlXVXHXHXSX>Xu.3.` _ =.=.` ,.7XwX$.$.wXqXqX2.=.=.<.<.3.3.>.& .       8 T._.&X;X;X;X$X5           c.R.W.;XNXVXVXHXHXHXKXKXHXjXc.                                                                                                                                        V p y.XXXXXX.Xo.N *.XX.XT Y {.{.[.{.{.8.[.I                                                                                                                                                                                                                                     ",
"                                                                    . . & d d u u & * * & @ & I _.W.M.b.z.z.x.x.H.(.{.}.r.s u p e e a s @.9X9X-._ :.:.;.1.t.iXu.0 p p e 0 i w.y.6.@.f E W %.6.y.|.N & 3 & # @ + O L.;XMX!.A.A.V.b.z.x.R.;XNXNXNXNXNX*X(.e.u.w.o.B v # 3 /._.R.M.M.M.D.C.Z.Z.W.$X_.b 0 q m /._.W.!.hXjXlXxXLXVX>Xu.<.( ( ` ` ` 3.wXwX@.2.wXqX7X,.=.3.3.<.3.3.g % . o 3 /.].:X;XBXBXCXFXNX;Xc.. . 8 M.$X=X=X;XNXNXlXHXHXHXKXKXHX~.                                                                                                                                            U |.XX@XXXXXXX{.XX@XXX.X.X.X[.[.oX|.oXXXXX{.(.T                                                                                                                                                                                                                               ",
"                                                                  . . . * d d u u u u u & u @ & /._._.v.z.6 x.v.H.X.e.i.i.k u e e e e a J u.9X1.#.#.;.;.;.r.iXy.0 w p e w i 7.8.%.J s f W %.%.w.9.# v 3 # # w + O 6 *X;X!.C.V.V.z.> v.&XNXVXVXVXSXFXFX*X{.u.q.} p r # I _._.M.M.M.M.M.Z.Z.Z._._.(.r + 3 /._.W.!.Q.hXhXhXlXVXNX.Xu.<.( ( =.=.,.2.wXt.;.wXwXqX,.-.=.,.,.3.3.) d & 3 /.'.*X:X:XBXNXVXSXSXSXSXNX$X_._.$X$X=XW.Z.S.hXjXVXHXHXHXHXcXm.                                                                                                                                            o.[.|.XXXXXXXXXX}.}.XXXX{.{.[.8.oX|.XXXX@X@X{.[.T G U P                                                                                                                                                                                                                       ",
"                                                                  T.T.2 . * u u u d d u u u @ @ I /./.H.7 6 6 I  .O.e.p.wX=.u 0 e e w w S u.u.r.#.@.@.@.*.8.OX0.0 q w w w i ..4.J s p s s J H 5.S @ v & @ w w + X $ ].:X=XZ.M.n.z.5 $X;XNXVXHXbXHXHXSX:X+Xu.>.D a w i (.(._.M.M.M.M.M.M.M._._.].P O & /._.R.Z.Q.!.A.A.hXhXMX-X.Xr.;.#.#.#.:.-.2.wXr.2.wX9X7X-.=.=.=.<.<.#.g S X.).'.*X*X;X;XMXNXVXSXHXHXSXFXAX:X%X$XL.M.n.D.Z.S.hXlXHXHXHXSX~.                                                                                                                                                  %.8.|.|.[.F J y.XX7.%.{.{.[.oX|.@XXXiXXX9.7.o.X.(.(.T X.O.L b B                                                                                                                                                                                                           ",
"                                                                  ].5X5X/. .d & u d d u u u @ X &  .(./.I I V L X.5.q.p.qXqXh 0 e w w w b w.u.u.Q E E E %.6.|.8.0 + w w w p F S s e e e p s N H p @ i i w w w q + O I *X*XL.M.v.6 v.&X;XNXVXHXbXbXHXSXAX*X|.>.g p e n (.(./.L.v.x.n.M.M.M._._.'.n $ I _.R.Z.Z.A.A.A.A.S.hX=X*X{.r.;.#.#.$.$.;.1.t.>.u.i.t.,._ _ =.3.<.#.g g 7.{..X'.*X&X=X=XhXNXVXSXHXHXFXFXAX:X_.M.x.x.b.b.b.S.hXNXVXSXNX~.                                                                                                                                                        %.w.[.R N oXXXY J oX.X{.{.XX@XsXXX@X.X{.{.[.[.(.o...o.(.T o.(.P                             2 2 4 4                                                                                                                                                                   ",
"                                                                  7 5X2X2X2X5X+.d u u u @ @ X % $ A O.(.o.X.G G } >.3.p.qXqXz 0 q q q + & 7.|.8.W f f J J W 8.9.w + w w w i p a e e 0 0 e p p N q w a w w w w q q X 3 .X.X(.H.H.6 _.&X;XNXNXlXlXbXSXFXBX*X{.$.g u u G (.(./.H.v.x.M.M.M.L._.'.(.i C )._.R.Z.Z.S.A.S.S.S.=X=X'.{.6.%.E Q Q #.:.r.r.&.u.t.1.#.( ( ( =.#.k g >.OX#X.X'._.$X$XS.!.hXNXVXSXSXVXFXAX:Xv.6 x.z.z.z.D.S.MXNXNXNXW.2                           c.m.W.C.m.                                                                                                                    s W [.{.XXiX@X{.{.XX.X[.[.|.XXXXT 9.@X.X{.(.Y o.o.Y 7.(...7.(.P p                       I I 2 4 4 7 2                                                                                                                                                                 ",
"                                                                  . T.5X2X4X4X+X#X5.d u @ X % o % & O.e.e.5.} | @.>.3.qXqXqX-.0 0 q + + @ Y {.4.s s s s p J 4.! w q q w w i p e 0 0 0 0 0 q e e q w w 0 w w w w q X @ {.{.{.X.L V _.&X;XMXjXjXlXlXVXNXBX:X.X$.h u u } {.(.(.I I v.H.H.H.H./.).X.i o.)._._.Z.Z.Z.A.S.S.!.=X$X{.e.*.W E E E E E *.&.*.u.1.$.k k ( ) ( k g &.u.i.#X.X`._.I.Z.S.S.hXMXVXSXFXFXDXAX_.6 6 , > z.x.D.U.=X;X;XR.2                         m.~.NXSXHXxXjXm.                                                                                                                  s 8.8.|.pXXX}.@X@X@X{.[.7.{.[.|.[.[.XX(.S O.X.(.(.(.(.T n H X.P L U I                   /./.7 4 7 / 2 9                                                                                                                                                               ",
"                                                                    8 5X2X4X4X4X#X#Xi.>.d X % % % % S >.3.>.>.) ) { 3.3.qXqX7Xh q q + + + F [.4.s s p e p N J J t q q w w t t e 0 0 0 0 0 0 e 0 q q w w w q w w q q X H |.w.5.G L `.&X&X=X!.hXhXjXNXNX;X:X.X%.h u s &.w.7.O.O.I H.H.H./.(.(.{.G G ).)._._.Z.Z.S.D.S.!.=X$X(.o.5.H s s s s f f E @.%.6.&.E z k k ) z f #.t.p.i.|.(._.L.L.Z.Z.S.S.MXNXVXFXFXAX*XI 4 3 , 6 x.x.M.I.$X$XM.5                     z.W.;XVXSXHXbXbXnXxXW.                                                                                                                  4.[.p W @X! Q iXXX@XXX{.[.{.{.XXXXXX.XI p 5..X(.(.(.(.X.T T T  .T T P                   ).).I  . . .4 4                                                                                                                                                               ",
"                                                                    9 ].5X4X4X@X#X#X#Xi.>.d X % % % u >.3.[ 3.` ) { [ rXrXqX7Xz 0 0 q q + v o.Y J s e e e p n N p q q q w t e 0 0 0 0 0 0 q 0 0 0 0 w w w w w w w 0 X a y.u.r.%.U '.%X&X=X!.!.!.!.=X;X;X*X.XH u u f ;.r.q.5.5...U X.X.o.o.{.w.D 5.{.).`._._.Z.Z.Z.=X=X&X(.M H H s s p s s s s f f E %.E f f g g g h k r.t.p.t.w.(.J.H.L.L.I.Z.=X=XBXBXAX1X'.(.U V 3 3 6 x.v.L._.&X;X;X;X~.W.m.z.<     2 c.R.~.NXVXSXHXKXnXnXnXbX~.                                                                                                                  } 7.Y oXsXXXXXsXoX|.XXXX{.XXXX|.{.4.|..X[.{.[.o.o.o.o.o.o.                              (./.7  ./././.7 9               2 8 2 2                                                                                                                                       ",
"                                                                      / +X4X4X@X#X#X#Xp.p.p.a.X % % % g { [ [ [ { ) [ rXrX7XqX#.0 0 q q q @ U J p e 0 e e w e N n r w w w e e 0 0 0 0 0 0 q w q q w w r r r r r w q X 0 r.r.<.@.H '.*X%X$XW.W.!.W.=X=X:X*X.XH s u z ;.1.1.<.>.*.%.*.5.5.w.y.6.%.q.e.{.).`._.L.L.$X$X&X'.X.w J N s e e e y e p s s J J f f f g s s s ;.t.2.t.t.w.o.J.H.H.L.L.I.$X-X:X:X>X.Xq.&.%.} G L I H._.&X:XBXFXFXSXSXSXSXNX!.Z.M.$X=X;XNXVXVXHXHXHXnXnXnXcXm.                                                                                                                    7.[.oXiXsXsXsX@X@XXXXXXXXX{.9.|.[.XXXX{.{.(.Y 7.o.U H                                 /./.7  .).)./.T.2           2 7 7 v.T.v.8 2                                                                                                                                   ",
"                                            - < < = =                 . ).+X@X@X#X#X#XeXeXeXeX>.& % % u { [ [ [ ' { ` [ 3.7XqX1.0 0 0 0 q + n N e 0 0 0 0 0 e n v p r w w e 0 0 0 0 0 0 0 q w r r m V I I I m M r w @ X E 1.;.( %..X'.%X$X$XZ.Z.W.=X=X:X*X.X..s u k <.3.3.3.3.$.<.;.;.r.r.u.*.>.u.q.{.{.)._._._._.].).{.S w N s p e 0 0 e e p p n C N N s s s s a %.t.2.2.2.2.q.7.T I H.H.L.`.%X*X>X.Xw.1.3.$.$.&.} ..(.'.*X:X:XBXVXFXSXHXHXKXHXJXFX;X;X;X=X=XjXlXlXHXHXKXKXHX!.=                                                                                         4 3                         4.o.H ;.pXsXsXsX@XXXXXXX@X@X@X@XXX@X.XY %.[.[.[.(.                                      H.I  . . . . . .7       2 7 /.T.T././.v.8 2                                                                                                                                 ",
"                                      < l.l.C.C.m.m.c.c.< .           . 7 #X#X#X#X#X#XeXeXeXeXeXr.d X X a.' ' ' ' ] ) ` ,.2.wXwXs X 0 0 q + r p w 0 0 0 0 0 w p p p i i a e 0 0 0 0 0 0 q q r 3 I _._._._.].'.`.(.V w 0 s 1.1.( *.{..X`._.L.L.I.$X$X%X*X>X+X} u u l 3.,.,.,.` ` ,.<.;.1.r.r.$.<.r.r.r.w.{.).).)..X{.{.8.p e s e 0 0 e w p n U X.(.].(.(.T C a p S y.t.2.3.3.<.<.5...X.T (.`.'..X.X.Xu.3.,.,.3.3.3.&.|..X>X*X:X;XNXNXVXSXHXKXKXKXHXDXNX=XW.Z.Z.S.hXlXHXHXHXHXjXc.                                                                                                                        G H 6.iXpXsXsX@X@X@XXX@X@XsXXX9.|..XT Y {.[.7.                                        I 7 4 4  . ./. .8     9 7 /./././././.T.v.8 ;                                                                                                                               ",
"                                    < m.Q.Q.Q.Q.C.C.m.m.z.1 .         = 7 ).#X#X#XeXiXeXeXeXeXeXeXi.q.d d ) { ' ' ` ) ( ,.<.t.iXD X 0 0 q + q t w q 0 0 0 0 e p p i i i a w 0 0 0 0 0 0 q # 3 H._.$X$XW.=X=X&X&X*X'.P @ w ;.t.( &.|..X'.`.H.L._._.$X%X'..X#X} 0 u @.1.2.,.' ' ' ,.-.-.1.r.<.$.1.1.2.2.u.q.e.|.|.|.|.w.f 0 e p e 0 0 w n Y (.).].].&X*X*X*X'.J.M ..y.u.2.3.,.3.<.>.5.%.5.{.{.{.{.|.u.<.,.,.[ ,.,.3.i.OX.X.X%X$X$X=XMXNXVXHXHXKXKXKXSXNXZ.b.z.b.Z.gXlXbXHXHXSX~.=                                                                                               * & &                       b D |.pXsX@XXX{.|.XX{.XXXX{.o.{.{.[.[.                                                7 7 4  . ./.7 4   9 4 /.]._././././.T.T.7 2                                                                                                                               ",
"                                    m.Q.Q.Q.Q.C.C.l.k.j.j.1 9         = c._.#X#XeXeXiXeXeXeXeXeXeXeXeXi.>.$.) { ) ` k ) $.;.r.}.8.+ q 0 q + + t w w 0 0 0 0 0 p p i i i a w 0 0 0 0 0 q q 3 H._.$X~.!.!.!.!.=X;X&X*X'. .@ E 9X) >.}.|..X(.J.H._._.`.'..X+XOXD 0 u :.2.7X7X' ' ' ' -.,.1.t.*.&.1.1.2.2.2.<.3.t.t.u.u.6.e 0 0 e 0 0 0 S ..(.(.`.&X$X&X&X;X;X;X:X'.).w.r.1.3.,.,.3.<.>.&.r.r.u.OX}.r.=.=.=.=.,.,.,.wXOXOX.X`.P.L.M.Z.!.MXVXSXJXKXKXKXDX=Xz.f.f.z.C.!.lXxXHXHXHX~.                                                                                                  & 3 *                         } w.XX{.O.B | |                                                                   7 8 4 4  .7 4 2 o 4  ./.]._././././././.T.7 2                                                                                                                             ",
"                                  . c.Q.Q.Q.Q.B.N.k.j.j.< = 9         = m.W.].#XeXeXeXeXeXp.eXeXeXeXeXeXi.p.t.{ ) ) k g @.*.6.y.y.p + q q + + t r q 0 0 0 0 0 p N n p i i a w 0 0 0 0 q r I _.W.!.!.!.!.hX!.!.=X&X&X*X+XB a r.) >.i.OX{.[.(.(.(.(.).{.OXOXOX@.0 u ;.2.7X7X[ ' [ ' ,.,.1.r.@.;.1.1.7X7X3.2.2.2.t.t.u.f 0 0 0 e 0 0 a } O.).'.].$X=X=X=X;XMXNXBX:X*X{.y.r.=.=.-.,.,.=.<.t.t.i.u.;.&.#.( #.` -.,.qXwXi.|.[.J.G.x.n.M.Z.=XNXFXHXJXJXJXBXx.> > f.z.Z.!.lXSXHXKXKX~.                                                                                                    *                                                               C U 7.7.o.                                      2 4 4 4 4 2 o *  ./.].]./././././.T.T.T.T.7 2 o                                                                                                                         ",
"                                  . < m.Q.Q.Q.C.N.k.j.j.< = o         9 c.E.E.).i.eXeXeXeXp.eXeXeXeXeXeXeXeXeXwX3.a.g g g D %.5.8.N + q q q + w r q 0 0 0 0 0 p F F n p p p e 0 0 0 0 q v _.$X!.!.hXgXgXgXhX!.!.;X&X*X+X[.i @.k $.t.i.i.w.7.[.[.{.{.OXi.wXwX*.e u ;.t.7X1.' [ [ ,.,.3.r.*.D r.r.1.1.,.,.2.2.3.r.r.;.u 0 0 0 0 0 0 D O.O.)._.$X$XW.!.!.hXNXVXVXNX:X.XoX6.&.=.:.` ` ;.2.t.u.r.*.@.#.@.k ( ( ` 7XwXwXu.8.Y R G.G.x.n.Z.=XNXFXDXDXDXBXv.; ; > > z.Z.!.VXSXKXIXKX~.                                                                                                                                                                V  .o.[.[.7.7.O.                                      2 2 2 2 9 * I /.].].]._././././.T.T./././.7 7 4 6 3 2 2                                                                                                               ",
"                                    . z.C.Q.Q.C.N.k.j.< 1 9 o         . 5 m.m.T.e.i.eXeXeXeXeXp.p.p.eXeXeXeXeXeXeXr.g s a d S H ! N + q q q q + r w 0 0 0 0 0 t F F n n p a p 0 0 0 0 # K _.~.!.hXhXhXhXhXgX!.!.=X;X*X.X+XG a g $.2.p.p.t.r.w.w.u.u.p.wXwXwX;.0 e ;.t.1.1.=.-.,.,.1.r.y.H H r.r.1.=.=.=.,.3.3.t.t.D 0 0 0 0 0 0 a %.5.).)._.$X$XS.S.hXhXjXVXVXVXBX*X[.9.*.$.#.( #.;.t.u.r.@.@.E E k k ( ` 1.qXqXqXt.6.Y R K G.G.K.L.-X:XBXAXAX*XH.3 ; ; > z.M.!.NXFXSXKXPXHXc.                                                                                                                                                              I (.)..X.X.X{.{.{.).                                    o * 9 9 * 4 /.].].].]._._._._./.T.T./././.H.H.H.I I I I 4 2                                                                                                           ",
"                                      . j.C.^.C.N.k.j.j.1 9 o         . o 5 m.c. .i.eXeXeXp.p.p.p.p.p.p.eXeXeXi.i.iXu.| a i a S F n r q q q q q r t q 0 0 0 e t M F n n n p p e 0 0 w # H.W.!.jXzXzXzXzXhXgX!.!.;X;X*X'.+Xq.u u $.2.qXqXwXu.<.<.p.p.qXqXqXwX;.0 e 0.u.1.<.=.;.;.<.1.r.w.S H 8.r.;.;.$.#.=.3.2.t.8.s 0 0 0 e 0 0 g *.5.).)._.$XW.!.S.hXjXlXlXVXVXBX*X(.W W E k E *.;.u.r.E J f f f k z ) <.qXqXqX7X1.*.J F R K I J.`.*X,X3X2X.Xo.C m 3 3 6 v.$X;X;X;XNXSXHX!.1                                                                                                                                                              .).'..X.X.X.X.X{.{.{.{.                                    * * * 4 /.].].].].]._.T.T.T.T.T.T./././././././.I  . .I I 2                                                                                                         ",
"                                          < m.C.C.l.k.j.1 9 .           % o 8 c.8 +.OXeXeXeXeXeXp.p.i.p.p.i.i.i.i.OXOXi.q.D a a i i v q q q w q w t e 0 0 e e t v F n n n n p e e e w v /.=XjXjXlXlXlXzXhXhX!.!.=X&X*X.X+X|.g u $.7XqXqXqX2.3.2.t.qXqXqXqXwX;.0 e 6.u.r.;.@.#.;.;.&.8.6.d d D &.*.E f g #.&.;.0.W e e 0 e e 0 e D *.5.).(._.$X$X!.hXhXlXlXVXVXVXCX:XT H J s f E *.6.6.J f J J f f f g #.t.qXqXqX2.<.#.D J J Y (.[..X.X+X#X|.q.4.G F C I I ].*X&X&XM.E.~.jXW.=       9 c.~.jX~.                                                                                                                                           .)..X.X.X.X.X.X.X.X{.{.{.U S                                 * *  .).'.'.].].].].]._.T.T.T.T.T.T.T./././././. . .I  .I 4 2                                                                                                       ",
"                                            1 m.m.C.m.m.5 2 *         % % % 2 8 c.4 e.eXeXeXeXeXp.p.i.p.p.i.i.i.i.OXOXOXi.OXy.B @ # v r q q w w w i t 0 0 e e e p F B B n n N p p p p m _.;XjXlXlXbXbXlXjXhX!.=X=X&X*X.X#XOXq.s @.7XqXqXqX2.` 2.qXqXqXqXqXwX;.e u %.y.q.9.D D E E W W J a p a s s s a s J D H ! N w e 0 e e 0 s W *.5.O.(.].$X$X=XhXjXlXlXVXVXVXFX&XL F N s J W 4.5.J s s f f s f g f <.t.7X7X7X2.3.$.@.%.9.8.{.|.OXOXi.p.2.&.*.%.} O.O.{.'.'.].8 ; 5 M.W.M.=     = M.jXbXKXbXQ.                                                                                                                                      4 )..X.X.X.X.X.X.X.X.X.X.X.X{.7.X.Z                           o 4 /.'.'.'.'.'.].].].].]._././.T.T.T.T.T./././././.I I I I I 3                                                                                                       ",
"                                              . 1 c.m.m.8 4 * * * % X X X % % o 8 8 4 e.i.eXeXeXeXp.i.i.i.i.i.i.e.e.{.OXi.i.OX@X7.i r v w w w w i n p e 0 e e e t F F B B B B B n p n m _.;XNXlXxXbXbXlXjXjX=X=X&X*X'..XOXOXi.g f 9XqXqXqX3.` ,.7XqX2.qXwXwX<.u a H 5.4.} G S J J S s u w w w w w r i M C C n F p q e e e 0 0 s %.*.6.e.(.(.].$X=X=XMXjXVXVXVXBXAXH.M N p p J H ! J s p s s s s f g @.r.t.2.2.,.,.` { $.<.r.u.OXOXOXt.2.3.=.=.;.&.>.q.|.#X.X).3 o ; 5 M.W.M.= o 9 v.!.xXnXnXnXbXC.                                                                                                                                  4 ).'..X.X.X.X.X.X.X.X.X.X.X.X.X.X).o.P                       * I ).'.'.'.'.].'.].].].].]./././.T./.]././././.H. . .I I I I I 7 2                                                                                                     ",
"                                                . . < c.8 8 4 & * & & & & X % % o 2 4 | i.eXeXeXeXeXi.OXOXOXOX{.e.e.e.e.e.e.w.OX@X|.U v i r r i n n n p e e p e p F F B B B B B N n b m /.;XNXVXSXHXlXlXNXMX;X&X&X*X'.+XOXi.wX@.g t.wXqX7X2.` ,.2.2.2.9XwXiX*.u a G ....G B F S s p e e w + + r L /./.`._././.I r q w e e 0 0 a %.&.&.q.7.(.'.`.&X&X=X=XNXNXBX1X`.M p p p N J Y J s p p p p s s S H 5.r.r.3.3.,.` ` ` 3.3.2.i.i.i.t.2.3.=.,.3.,.3.2.t.i.OX7.3 o ; v.;XFXFXNXM.5 v.!.jXxXbXnXKXbX!.                                                                                                                                4 ).5X.X.X'.'.'.'.'..X.X.X.X.X.X.X.X.X).(. .4               . 4  .'.'.'.'.'.].].].].].].]././.T.T.T././././././.I  .I I I I I I I 3                                                                                                     ",
"                                                . = j.c.c.c.7 4 d d d g d u & X % o 3 & | i.eXeXeXeXi.i.e.e.#X#X{.{.{.{.{.e.e.e.w.|.{.Y n b v v b n n n p p p p n C C F B B B B B n n n I &X;XNXVXVXVXNXNX;X&X&X*X'..X#XOXwXeX1.s r.wXwX2.7X3.3.2.3.2.t.i.OX} u n C F G S n p p p w 0 w @ i L (.'.].&X&X&X&X&X%XH.: w w 0 0 0 u D *.;.;.q.7.).).'.&X&X&X&X:X*XJ.M t t t p N F F s y y p p p s S H H 5.q.r.1.3.` ) ` ,.2.2.p.i.i.t.t.,.` ` ,.3.,.2.t.i.i.w.b o 2 _.AXSXHXHXHXDX;X=X!.jXjXlXbXHXxX~.<                                                                                                                             I ).+X+X'.'.'.'.'.'.'..X.X.X.X.X.X.X.X.X.X.X).(./.4 3 o o 4 4 (.).'.'.'.'.'.].].].].].]././././.T.T.T.T./././.T./. . . . .I I I I I 3                                                                                                     ",
"                                                . j.C.Q.Q.W.m.c.7 A g | @.g d a X % % * d >.i.eXeXeXi.i.e.e.{.{.{.e.e.{.{.{.{.e.7.7.o.o.U C M v v b n B n p p n B C C F C B B C Z G B n C /.&X;XNXNXNX;X;X&X*X*X'..X{.OXi.wXeXwXs *.iXiXwXt.2.1.2.t.r.u.OXOXD a B C B n i i i w w + @ w B (.).`.$X&X=X;XNX;X;X;X:X/.n p w e e 0 s f k E #.*.7.).).).'.'.(.J.M c t t t p N F G N y y y y p s S H G H 5.6.q.;.#.( ( =.3.2.t.t.i.t.r.;.$.$.=.3.3.2.2.qXp.r.S & 4 '.1XFXSXKXKXHXJXDXNX!.!.!.hXlXxXjX~.5                                                                                                                           ].'.2X+X'.'.'.'.'.'.'.'.'.'.'.'.'.).)..X.X'..X'.'.'.'.).).'.'..X.X'.'.'.].].].]./.].].]././.T.T.T.T.T.T.T././.T.T.T. . .I  .I I I I I 2                                                                                                     ",
"                                                . l.Q.Q.Q.A.C.m.c.8 4 | | | D b 3 & @ O $ d q.p.p.i.i.i.i.e.e.e.e.e.7.7.[.7.7.7.7.o.O.U C v b M n b m b C n n B C Z C C B V I (..X{.[.G n V /.'.*X:X*X*X'.'.'.'..X{.OXi.wXwXiXiXg g OXiXiXu.r.r.r.y.y.y.|.{.S n B B n i w w w w + X @ G (.(.`.%X&X=XMXjXjXjXNXNX:X*XI i a u e 0 e p s f J H 4.5.7.{.{.o.F v t t t t t p F Y N p e y y p s S H H S G } %.%.@.f g ( ;.<.t.u.u.u.r.&.) ) $.;.<.<.2.2.2.t.%.a i ).1XAXFXHXKXKXKXKXKXNXC.b.C.Z.!.jX!.M.;                                                                                                                        .'.'.+X+X'.'.'.'.'.'.'.'.'.).'.'.'.'.).).).).'.'.'.).'.'.'.'.'.'.'.'.).).).).].]./././././././.T.T.T.T.T.T.T.T.T.T.T.T./ I  .I I I I I I 3                                                                                                     ",
"                                                . l.Q.Q.C.C.l.j.< 2 4 d a.a.| Z I 7 V b & & S q.i.i.i.OXi.e.O.+.O.O.O.O.O.O.O.O.O.O.O.O.Y F v # M M n n n n B B C C C C V I `.*X'..X.X(.C b Z (.).'.'.'..X.X.X{.{.i.i.i.wXwXiXiXD d w.}.OXu.q.q.w.y.|.|.{.{.B S F n p r w w q + X @ G [.).`.].%X=X=XjXjXlXlXlXVXVX:X`.n a p p w i L T (.(.(.(.(.[.[.7.F p t t t t t p N F F p e e e e p S S G S d J H H E D g f @.&.r.r.q.q.q.*.E g ) $.;.1.1.t.t.t.<.g a O.>X:XAXFXSXHXKXKXKXHXSXC.b.b.n.Z.Z.v.5 o o ; = =                                                                                                              .'.'.'.'.'.'.'.'.'.'.).).).).).).).'.).).).).).).).).).).).).'.'.'.).).).).).].].]././././.T.T./.T.T.T.T.T.T.T.T.T.T.T.T./ / I I I I I I I 4                                                                                                     ",
"                                              . . j.C.C.m.j.j.< 1 9 * d g g g D G I 7 4 4 i & } i.OXOXOXOXe.O.O.+.O.O.+...O.........X.X...Y T M r i M C B n n B B C C C V H.:X:X:X*X+X{...B B ..e.e.{.{.{.{.{.|.u.i.p.wXwXwXiXiX%.d ..oX|.|.w.5.6.w.oX{.[.o.F B S n i w w q q + X S 7.[.(.'.%X$X=X!.hXzXlXlXxXbXSXNX*XL a i n L (./.`._._._.$X$X%X`.J.L v r r r r t M n N N p e e p p B B S S s s J J J J s f D %.%.5.5.%.%.@.E f f k #.&.<.r.t.t.t.$.d B .X>X:XNXNXVXHXHXHXHXSXFXZ.z.z.z.x.x.8 2 2 7 R.W.W.W.C.m.                                                                                                    7 ).'.'.'.'.'.'.).'.).).).'.).).).).).).).).).).).).).).).).).).).).].).).).].].].]./././././.T.T.T.T.T.T.T.T.T.T.T././.T.T./ 7 I I I I I I I 4 o                                                                                                   ",
"                          < j.j.j.j.< < - = = = = < j.j.< 1 9 9 9 * * u u u d d d B V 4 4 b a a | u.OXOXOXw.O.O.+.+.+.+.....X.X.X.X.U U U T P T F i r p N N F B A C C Z V _.AXDXFX1X2X{.X.F B } q.q.q.y.u.u.t.r.t.2.wXwXwXwXiXiX%.d G 7.8.w.8.H H 4.4.4.o...F S S n i w w q 0 X a %.7.).'.`.$X$X=X!.hXzXlXbXbXbXHXVX*XP B G X.(.`._.L.L.M.M.Z.W.=X=X%X`.).(.`.`./.H.I P C p e y p p N S B S s p s J J s s s s J H H } } D J f g E E E %.6.q.y.u.t.1.k s 5.+X'.*X;XMXjXVXVXSXSXFXFXM.5 > 2 6 6 7 v._.&X;XNXSXSXbXxXW.                                                                                                  /.'.'.'.'.).).).).).].).).).).).)./.)././.(.(.(.(.).).).).).).).).).].).).).).].].]./././././.T.T.T.T.T.T.T.T.T.T.T./.T.T.T./ 7 I I I I 7 I I 4 *                                                                                                   ",
"                      l.B.^.^.^.Q.A.A.C.C.C.C.C.m.m.c.8 8 4 4 & d d d d g g h s a i i i & & & & & d } } } O.O.+.| | | G ......U U U U U U U L P U F i e e p N F C Z Z Z L $XJXJXJXAX.X(.Y G L o.7.q.u.t.t.t.2.2.3.2.wXwXwXiXiX}.H S F o.7.8.9.H J H H F U Y G F F n r w q 0 0 0 %.e.[.).`._.$X$X!.!.hXzXlXlXHXHXHXBX*XP U (.(.]._.L.M.M.M.Z.S.S.!.MXNX:X:X*X*X:X:X:X:X*X`.I M p p N S d s a u p N N s s p a s S H G H H J f s f J E %.%.5.e.y.u.t.$.g g w.+X.X].$X=X!.MXNXNXBXAX1Xv.; : 3 7 /.].&X;X;XNXVXHXHXKXHXjXc.                                                                                              I ).'.'.).].].].].).).).].].).)././././././././.(.(.(.(.(.).(.(.(.(./.].].].].]././././././././.T.T.T.T.T.T.T.T.v.v.T./.T.T.T.7 7 I 7 7 7 7 I I 7 3                                                                                                   ",
"                    j.^.gXzXgXgXQ.Q.A.C.B.N.N.l.m.m.c.8 4 & & u d d d s h s u u 0 0 @ @ @ @ @ $ @ O O O O & Z | G Z Z Z U U U G G G F G G U C P Z Y G a w e p n U U U U L _.JXIXJX3X(.o.Y U /.'.).w.u.t.t.t.2.2.2.qXwXwXiXiXOXw.G S F Y 7.7.4.J N J J N F Y G J F S p w 0 0 0 g q.w.[.).`.`.$X$X=X!.hXjXlXlXVXVXCX:X'.X.(.).(._.L.M.M.M.n.D.A.A.hXjXVXVXBX:X:XNXNXBXBXBXBX:X*XJ.M N p p p u e p s s a p p p s S F B H J s s s s s J } 4.5.e.y.u.6.k h a.i.OX.X`._.I.Z.=X=X;X:X1X*X6 : 3 I ).'.%X$X=X!.jXlXbXbXKXKXcXm.                      5                                                                     3 /.).].].].].).).).).].].]./.(.)././././././././././.(.(.(.(.(./.(././././.]././././././././././.T.T.T.T.T.T.T.T.v.v.T.T.T.T.T.7 7 7 7 7 7 7 7 I 7 4                                                                                                   ",
"                      ^.gXzXgXgXgXA.A.N.N.k.k.k.j.j.5 2 * * & u u u u u u u e 0 0 X X X O O O O % o o : $ & & B ..U G G G G G G Z G G C C C C Z P U T F p e p n Y U U Z C H.DXIXGX'.X.Y U L :XGX*X{.u.i.i.wXwXwX9XwXwXiXiXOX|.o.G G J H ! ! Y N N N N N S Y H J S S p e 0 0 s @.q.w.{.).`.`._.$X$X!.!.jXjXNXNXNX:X*X).).).)./.L.M.M.n.b.V.V.A.dXhXlXVXVXBXNX;XNXNXNXNXVXVXCXAX:X`.R p i w w w p s p u u p p N B p S N s s s s s f J } } H 5.w.6.E g h $.i.OX{.(.H.v.L.$X$X&X*X2X'.3 3 X..X.X'._.I.Z.S.hXjXbXbXKXKXxXE.              5 W.jXlXlXjXm.                                                                I /.).].).).).)././.(.].]././././././././././././.(.(./.(././.(././././././././././././././././.T.T.T.T.T.T.T.T.v.v.v.T.T.T.T.T./ / 7 7 7 7 7 7 7 4 4                                                                                                   ",
"                      l.Q.gXgXgXgXA.B.N.k.d.s.s.s.< 2 2 * * u u u u u u u e 0 0 0 0 X X X O O ; z.C.M.v.7 b i & Z U G G G G G Z Z Z Z Z C C Z Z U U T U Y F n n U U U U P I *XGX2XX.X.U U H.AXDX3X{.|.OXOXiXiXwXi.wXiXOXOX|.{...G G J F ! ! J N N N N N N Y Y H S S s e 0 0 E &.>.q.{.).(.`._._.$X$X=X=X;X;X;X:X*X'.{.[.(.(./.H.M.M.b.b.b.V.A.A.gXzXlXVXVXNX!.!.MXMXNXVXVXVXDXDXAX*XL B B S S d a u w w a p n b n N s p p p s N J H J f J %.%.D f s s <.i.i.w.(.J.I H.P.`.'..X+XX.b 5.OX+X'._.M.n.n.Z.!.zXlXHXHXHXcXE.          c.~.jXbXnXnXnXbXQ.                                                    8 8 2 . o 4 /./.].].).].]././././.]./././././././././././././././././././././././././././././././././.T.T.T.T.T.T.T.T.v.v.7 7 7 7 T.T.T.T.T./ 7 7 7 7 7 7 7 7 7 3                                                                                                   ",
"                        l.^.gXgXA.B.B.N.k.s.s.s.- - 1 2 * * & u u u u u u u e 0 0 0 + X X O f.hXxXlX!.M.7 b i @ & Z Z Z Z Z Z Z Z Z Z Z Z C C F G U U T U Y Y U U U U U U T (.(.O.....U T J.AXGX2X| O.|.OXiXOXOXOXOXOXOX|.{.7...G H H H Y ! J N N N N N N Y Y H J S s e 0 g $.<.r.q.w.(.(.`._._.$X$X$X$X&X&X*X'.).{.{.[.(.(.H.v.v.n.b.b.V.V.A.A.dXjXVXVXNX=X!.!.hXhXjXVXVXSXHXJXDXDX*X[.8.8.q.q.5.+.| d a i b i N N p p p p N J H J f f J W D s u u s 1.t.r.q...U P J.(.).{.#X#XZ e.i.OX{.(.H.v.n.n.D.!.jXlXSXHXSXNXm.      5 W.jXbXnXnXnXnXnXlXm.                                                7 _._.].]././././.].].].].].].]./././././././././././././././././././././././././././././././././././././.T.T.T.T.T.T.T.T.v.v.7 7 7 7 T.T.T.T.T.T.7 7 7 7 7 7 7 7 7 3                                                                                                   ",
"                          j.C.Q.A.B.B.N.k.k.s.s.- - < 2 * * u u u u u u 0 0 0 0 0 0 + X O > hXKXKXSX!.M.7 V & & & 4 Z Z Z Z Z Z Z Z C Z U F F F F U U T T T Y o.o.X.X.......O.X...........X..X.Xo.G G 5.|.OXOXOXOX|.|.{.{.[.o...Y G Y H Y ! ! N N N N N N Y Y H J f s u s $.<.1.2.r.e.[.(./.`._.`.`._.].'.'.'.{.e.w.w.7.o.X.H.v.v.x.n.n.D.D.D.C.S.hXNXNX;X!.!.!.hXhXhXVXVXHXJXJXJXDXAX.Xy.r.r.r.q.e.w.{.7.O.V b n p p p p p J H S s s s g f s a u u s @.&.&.} } G U T (.[.{.#Xe.q.i.p.w.e.X.I v.x.M.Z.!.jXjXVXFXFX~.; . = c.~.jXxXnXnXnXnXKXbX~.                                                v._.].].].].].].].'.].'.'.].].].]././././././././././././././././././././././././././././././././././././.T.v.7 7 T.T.T.v.v.v.7 7 7 7 7 / T.T.T.T.T./ 7 7 7 7 7 7 7 7 3                                                                                                   ",
"                              l.C.C.B.B.k.k.d.s.s.s.< 2 * & d u u u u u 0 0 0 0 0 0 + O O 5 jXKXHXNXW.v.4 3 & & @ & A Z Z Z C C C Z C P U U U F G G U Y Y Y Y o.O.o.O...o.7.7.7.7.7.7.4.4.o.o.o...Y G G 5.|.{.{.oX[.[.7.7.o.o...........Y ! ! H N N N N F ! Y H D g f u f ;.1.3.3.<.<.q.(.(.(.(.'.'.'.).'..X{.5.>.q.q.6.O.X.I H.v.v.M.M.M.Z.Z.Z.I.$X=X;X=X!.!.!.hXhXMXVXVXHXJXJXJXJXAX2Xw.<.2.2.<.q.w.{.{..X.XX.M t t t p S G S p p a s s a u 0 s } &.r.u.w.{..X.X).'.'.{.{.|.e.u.u.r.>.5.O.I G.v.v.M.$X;XNXNXNX~.c.; 6 M.W.!.jXlXbXnXnXnXbXhX                                                8 _.&X*X&X&X].].].].].].].].].].].]./././././././././././././././././././././././././././././././././././.T.7 7 7 7 7 v.T.v.v.v.7 7 7 7 7 7 / T.T.T.T.7 7 7 7 7 7 7 7 7 3                                                                                                   ",
"                                  j.l.l.l.k.k.j.j.j.< 2 * & d u u u u u u u a u 0 w @ @ # : 6 v.v.6 3 3 @ @ @ @ @ @ & Z Z C C C C C L U U U U U G G U U Y Y o.o.o.o.(.(.[.[.[.[.7.7.7.9.9.4.4.4.....Y H H 7.7.7.7.4.4.! o.o.7.4...........Y 4.! J J N N ! 9.! J D g g g *.1.3.2.2.3.3.r.w.7.(.).).).).{.{.{.q.&.<.r.r.q.5.O.X.J.H.H.G.L.L.L.L._._.%X*X*X&X=X=X=XMXMXNXVXVXDXJXJXJXDXAX>Xq.<.<.r.u.w.e.{.).'..X.X).L r i n Z B n a p u a a u a %.r.u.u.i.OX#X+X+X+X2X1X1X>X>X.X{.u.r.>.>.5...P I H.H._.&X:X:X;XW.R.M.v.M.Z.W.S.!.jXbXnXnXxX~.                                                  T.&X*X*X&X]._._.].].].].].].].].].]././././././././././././././././././././././. . ./././././././.T./.T.T.7 7 7 8 8 7 v.E.R.M.v.7 7 7 7 7 / / T.T./ / 7 7 7 7 7 7 7 7 4 2                                                                                                   ",
"                                      < j.b.b.k.k.k.z.8 4 d d d g g g g g f g f s a i & & & $ $ $ # # & & @ @ @ @ @ @ B Z C C C C C U U U U U U U U U U Y ..o.o.o.o.[.[.[.{.{.{.{.[.[.7.9.7.4.4.4.4...H H ..9.9.9.4.! ! Y o.7.9.4.4.....o...4.4.! W J J ! 9.! D J J g } r.1.2.2.2.2.2.2.r.w.w.[.{.{.{.{.|.u.r.<.1.<.1.<.>.5.O.o.(.H.H.H.L._._.).'..X.X.X*X*X-X:X:X:X:XBXBXAXDXDXDXAX3X{.>.<.<.<.r.w.[.).(.'.'.'.'.'.H.m V V i n a p u u u a 8.u.u.t.p.i.OX+X.X'.*X*X:X:X:X1X:X*X{.q.>.>.5.O...X.(.(.'.'.*X&X_._._._.L.M.M.M.C.S.hXlXxXjXW.                                                  8 ].&X&X].].]._._.].].].].].].].].].].]./././././././././././. ./. ./././././. .I I  ././././.T.T.T./.T.7 7 7 4 8 4 8 7 E.jXjX!.m.c.v.7 7 7 7 T.T./ / 7 7 7 7 7 7 7 7 7 4 2                                                                                                   ",
"                                              - < j.z.8 4 4 d d d g g g g g D D g a a @ @ @ O O O O @ @ @ # & # @ + X @ C C C C C Z Z C Z Z U U U U Y X.....o.o.o.[.[.[.[.[.{.{.{.{.[.[.7.9.9.9.9.4.4.4.H H 4.9.9.9.4.! ! 4.7.7.7.4.4.o.o.o.4.4.4.W W W 4.9.%.H J D D 5.u.t.2.7X2.2.2.2.2.2.u.y.w.|.}.OXu.r.1.<.<.=.3.<.<.>.6.e.o.(.(.(.(.).).{.OXOXOXXX.X>X*X*X:X*X*X*X*X,X3X3X2X.X{.q.&.<.<.<.q.7.(.(././._._.%X*X*X].I v b B a a p u u %.y.u.t.t.2.r.{.).'.`.$X%X;X;XNXBXAXAX1X.X5.5.%.5.5.e.{.{..X+X'./.).].]._.v.c.z.z.b.D.!.jXjXE.                                                    T.].&X&X&X]._._._.]._././././.].].].].]././././././. ./. . . . . . . ././  .7 7 7 7 I H.T.T.T.T.v.7 7 7 7 7 8 2 8 8 8 R.cXbXbXlXC.c.c.8 8 7 7 T.T./ 7 7 7 7 7 7 7 7 7 7 4 2                                                                                                   ",
"                                                                    * & * & d d a a 0 @ @ X X O % O O @ i i # + + + + X v C C C Z Z A C Z Z U U U T Y Y ....o.7.7.7.[.[.[.[.[.{.{.{.oX[.8.9.9.9.9.4.4.4.4.! W 4.9.9.9.9.! ! 8.8.7.5.4.4.....4.9.9.4.%.4.6.9.%.H J D D y.u.t.2.7X7X7X7X7X7X2.2.2.2.t.t.u.r.1.1.=.3.-.=.3.=.=.<.q.5.7.[.[.[.{.u.i.wXwXOXOX@XXX.X.X`.(.J.L P (.{.{.w.y.r.<.=.<.<.q.q.O.(./.H.H.L._.$X$X&X*X_.m v B p a a a G 6.r.r.2.2.r.e.).(._.L.$X$XW.!.MXNXBXFXFXAX*X7.6.>.<.r.i.OXOX{.O.e.{.)./.H.v.5 z.z.z.m.W.!.W.z.                                                  2 T.].&X&X&X&X].].]._._././././././._.].]./././././. . ./  . ././.T. .7 7 7 7 7 7 7 7 7 7 T.;X;X~.v.7 7 7 7 4 8 2 2 8 T.cXbXnXnXvXQ.c.8 8 8 8 v.T.T./ 7 7 7 7 7 4 7 4 7 4 2 9                                                                                                   ",
"                                                                            * & d d u @ X X X % % $ & i # @ @ + 0 q q + @ n Z C C C C C Z G G U Y Y U Y ....7.7.7.7.7.[.[.[.[.[.oXoXoXoX8.8.8.9.9.9.9.4.4.! 4.4.9.9.9.4.! 9.oX8.8.8.9.9.5.5.5.9.5.5.5.5.5.5.4.} D D } y.i.i.wX7X7X7X7X7X7X7X2.2.2.2.t.1.;.1.-.-.-.-.` -.,.3.<.<.>.q.w.{.y.u.wXwXwXwXiXOXoXY L m M M M M n o.[.w.y.r.1.1.<.<.<.q.5.o./.H.v.M.M.M.Z.$X=X&X*XH.v i i i i n 4.q.r.1.3.2.r.e.(./.H.M.M.Z.S.Q.hXNXVXSXSXSXAX>XoXr.r.u.i.|.q.5.q.w.q.O.I I 6 5 5 z.z.m.W.~.m.                                                  2 7 R.&X&X&X&X&X&X].].]._._./././././._./././././.T.7 7 7 7 7 / / /.v.v.7 7 7 7 7 7 7 7 7 /.;XSXHXlXW.v.7 4 3 2 2 2 2 T.;XxXnXnXnXbXQ.c.5 8 8 8 E.W.R.v.7 7 7 7 4 7 4 8 4 2 2 o                                                                                                   ",
"                                                                              o & d a i @ X % o 3 C i w @ + + + q q q q + # Z Z C Z Z Z C G G U Y Y ......4.7.7.7.7.[.[.[.[.[.[.oXoXoXoX8.8.8.8.8.9.9.9.9.4.4.4.9.8.8.8.8.oXoX{.oXw.8.8.6.5.5.5.5.5.5.5.5.5.%.%.W D } |.OXi.wXwX7X2.7X7X7X2.2.2.7X9Xr.E ;.1.-.-.,.' ' -.,.,.3.3.<.1.r.y.u.wXwXwXwXOXu.4.S n v M M b M M n Y 7.w.u.t.1.<.<.<.<.q.7.(.H.v.v.M.n.n.M.Z.$X=X;X:X_.H.3 & n G 5.q.r.1.<.1.>.5.X.H.H.M.M.Z.Z.S.hXjXVXSXHXHXSXAX>Xw.w.w.O.} 5.q.q.>.*.} G P 7 6 6 5 z.M.W.R.z.=                                           5 c.E.E.E.;XNXNX;X&X&X].].].]._._._./.T.T.T./././././.T.7 7 7 7 7 7 7 v.v.v.v.7 7 7 7 7 7 7 7 T.;XHXHXnXbXQ.c.8 2 2 2 2 8 7 ].NXxXnXnXnXbXQ.c.2 2 8 W.jXlXW.v.7 8 8 7 8 8 4 2 2 2 o                                                                                                     ",
"                                                                              . . * i @ X % $ P X.n w @ + + + 0 q q q w w @ m U C C Z Z Z G U Y Y Y Y ..4.7.7.7.7.7.[.[.[.oXoXoX8.oXoXoXy.8.8.8.8.8.9.9.9.9.9.9.9.8.8.8.oX{.{.|.|.oXoX8.8.6.6.5.5.5.7.9.5.5.4.%.%.H 5.|.OXOXwXwXwX2.7X7X2.2.2.wXwXu.%.E ;.1.,.' ' [ [ [ ,.[ ,.,.2.t.u.}.OXiXiXOXOX|.8.Y F n M M M M C C n G 5.w.u.t.t.3.<.<.2.q.{.(.H.v.v.n.n.n.n.Z.Z.=X=X;XAXAX6 v L ..7.w.r.2.3.<.>.5.o./.H.M.M.D.Z.S.!.hXlXVXHXHXHXDXAX'.o.A b ..5.&.$.$.%.} G P m 6 6 x.v.v.R.v.7 8 2                         5 z.c.m.E.W.W.!.jXjXxXSXSXSXSXFX;X&X].].].].]._.]._._.T.T.T.T././.T.T.7 7 7 7 7 7 7 T.R.W.W.v.v.7 7 4 7 8 7 T.;XSXKXnXnXbX!.c.8 2 2 2 8 7 W.;XFXxXnXnXnXbXQ.5 1 2 E.~.jXxXhXM.v.8 8 8 8 2 2 2 9 o                                                                                                       ",
"                                                                              o & @ X % % 3 {.{.H a w w @ + + + q w w w i i i C Z Z Z Z G G U G Y Y Y 4.4.7.7.7.7.7.[.[.[.oXoXoXoXy.|.y.y.y.y.y.0.0.8.8.9.9.9.9.9.8.8.8.w.oXoX{.|.|.oXw.w.8.8.6.6.9.9.9.8.6.6.4.%.H 4.|.OXOXOXi.i.t.i.wXt.9XwXwXwX0.H %.&.;.;.=.-.7X' -.,.,.,.1.t.r.|.|.|.OXOXOXOX|.[.o.Y F N N M M F F B J 4.6.y.t.wX2.1.1.r.u.{.(.H.L.M.n.n.n.D.D.Z.S.=X=X;X:X6 V T o.7.w.u.r.1.<.>.e.O.(.H.L.M.Z.Z.S.!.hXlXLXHXKXHXHXDX*XI V O.5.5.*.@.) @.E H B b 3 7 6 7 7 7 7 7 4 2 2 2 2 2 2 2 2 2 2 8 v.R.W.W.~.!.jXjXlXxXbXbXnXKXKXHXHXxX!.W.]._._._.]._._._._./././.T.T.T.v.7 7 7 7 7 7 v.W.;XSXSXlXW.v.7 7 4 7 7 T.;XSXKXnXnXnXbX!.c.8 2 2 8 T.;XSXHXbXbXbXnXbXvXA.5 2 T.~.lXlXxXjXC.c.8 8 2 2 2 9 o .                                                                                                         ",
"                                                                        o * u u 0 X % & O.@XOXw.H d a w w @ @ @ @ @ # i b i & d U Z Z Z G G U U Y Y Y 4.7.7.7.7.7.7.[.oXoXoX|.|.|.|.|.}.}.y.y.y.y.0.0.8.8.9.9.8.8.0.0.8.y.y.oXoXoXoXy.y.w.w.8.8.8.8.8.8.8.8.6.*.%.H ..|.OXOXOXi.u.t.u.wXwXi.wXiXy.H H %.6.r.;.-.-.7X,.-.-.-.0X1.r.u.|.|.|.|.OXOX+X|.XX[.[.4.Y R N N F F F F ..5.6.u.wXt.2.1.t.u.{.{./._.L.M.M.D.D.C.S.S.!.;X-X/.3 P T Y 7.w.q.q.&.>.>.q.e.(.(.H.L.M.Z.S.!.jXVXHXHXKXHXHXDX*XI | O...} | D k f f d a a b V L I I I H.v.7 8 8 2 3 4 Z  ././._.R.W.W.W.!.!.!.jXjXxXbXbXnXnXKXKXKXKXHXNXW.]._._._._._.T.R._././.T.T.v.v.7 7 7 7 7 7 R.;XxXHXKXKXHX!.c.7 7 7 7 T.&XFXHXnXnXnXbXlXZ.8 8 c.W.~.;XSXnXnXnXnXnXbXbXlXA.z.E.cXnXnXbXxXjXW.c.5 2 2 9 . . .                                                                                                           ",
"                                                                  . 9 * & u u 0 X % i w.OXOX}.5.H S a a w w w w w # 3 b V b i & C U Z Z G G U U U Y Y ..4.7.7.7.8.8.[.oX|.oX|.|.}.}.}.}.}.}.y.y.|.y.0.0.0.8.8.8.8.0.0.0.8.8.y.y.oXoXoXy.w.w.8.8.8.8.w.8.8.6.6.5.%.H ..{.OXOXOX}.u.y.u.u.i.OXOX|.%.J J 4.8.r.r.;.-.1.,.-.-.1.1.u.u.|.|.|.OX|.OXOX+X|.XXXX{.{.[.4.Y F U U U L U ..7.6.y.u.t.t.u.u.|.{.'.`._.L.Z.Z.S.S.A.S.hX=X:X/.V P L L U o.} %.%.$.&.q.e.{.)./._._.$X$X=XNXVXSXJXHXHXHXFX$XV Z G S S d g s u u g D %.5.e.{..X.X'.*X*X&X_./.7  .O.e.e.).].].R.R.M.Z.Z.Z.!.!.jXlXbXnXnXnXnXnXKXKXHXVXW.R._._._._._._./././.T.T.T.v.7 7 7 7 4 7 W.FXHXnXKXKXnXHXQ.c.7 7 7 T.].;XSXbXnXnXbXlX!.W.W.;XSXxXSXSXbXnXnXnXnXnXbXbXlXQ.~.xXnXnXnXbXlXjXW.8 2 = 9 .                                                                                                                 ",
"                                                            < < 5 2 2 & u X X X X D i.i.i.u.y.5.D d p e p w w r # v m V V b i & b U G G G U U U U Y Y ..4.7.7.7.8.8.[.oX|.|.|.}.}.}.}.}.}.}.}.}.}.}.oXy.0.0.0.0.0.0.0.0.0.0.y.y.y.oX|.y.w.w.8.8.8.8.8.8.8.8.6.5.%.H } 7.{.{.|.|.w.y.y.y.u.u.u.6.D S S Y 8.u.r.1.1.1.;.;.;.r.u.u.|.|.OXOXOXOXOXOXOX@X@X@X@XXXXX{.{.7.o.o.o.O.O.O.O.7.w.w.y.y.|.|.{.{..X'._._.Z.S.S.S.S.hXhXMX;X/.L P L C C G G H %.*.q.y.w.w.{.).`.`.`.%X;X;XBXFXDXDXDXDX1X(.P Z S d d a u a f @.q.r.t.i.OX#X.X'.*X*X&X;X;X;X:X*X.X{.e.).)./.v.v.x.n.m.b.C.!.jXlXbXnXnXnXnXnXnXKXHXSXW.R.T.T./././././././.T.v.v.7 7 7 4 4 / &XSXHXKXnXKXnXnXbXC.8 8 8 v.R.;XFXxXbXbXbXlXhX!.jXSXHXnXnXnXbXbXnXnXnXnXbXbXkXlXcXxXnXnXnXnXxXjX!.W.8 1 .                     < l.m.C.C.j.                                                                                    ",
"                                                      j.l.m.m.c.z.5 o X X X X u ) qXwXwX2.r.r.*.D f a p w w r i v m V V V m b i i B ..G U G G U Y Y Y ....4.7.7.8.8.oXoXoX|.}.}.}.yX}.}.}.}.yX}.}.}.}.oXy.y.0.y.0.0.0.0.0.0.0.y.y.y.y.|.y.y.y.y.y.w.8.8.0.8.8.6.9.W H ..7.7.w.w.w.w.8.6.y.y.8.W J S S H 4.8.u.y.y.0.6.*.0.y.u.|.OXOXOXOXOXOXOXOX@X@X@X@X@X@X@X|.|.|.{.{.{.{.{.{.{.7.8.7.7.{..X*X,X>X.X'.'.].$X=X!.hXhXjXVXVX:X_.I P L n n C U ..4.4.6.6.4.H U T T (.(.'.'.*X:X:XAXAXAX3X+X{.|.w.w.q.e.O.Z } 6.u.r.t.p.i.|.{.'.`.$X$X=X;XNXNXVXAX1X>X).(. . .I 7 c.z.b.b.C.S.hXlXbXnXnXnXnXnXbXbXSXVXW.R.T.T.T././.T.T.T./.T.v.7 7 7 7 4 v.;XFXHXKXnXnXnXnXnXzXc.8 v.W.NXSXSXxXxXxXlXjX~.jXxXbXnXnXnXnXnXbXvXxXbXbXbXbXlXlXlXxXnXnXnXnXbXzXQ.Q.m.< =         9 c.l.m.m.E.~.jXcXbXvXkXgXl.= .                                                                               ",
"                                                      l.C.Q.m.z.5 = . % % % u { qXqXqX2.3.<.$.@.D g d s a i i m C m V V V V m b i i U U G G G Y Y Y Y ......7.9.8.[.oXoX|.|.}.}.yXyXyX}.}.yXyX}.}.}.}.}.}.y.y.y.0.0.y.y.0.0.0.0.y.y.y.y.|.|.oXy.y.y.0.0.y.0.0.8.6.%.W Y Y 4.4.4.4.4.6.8.w.8.%.W H J N S J H 4.6.8.9.%.H 4.8.oX|.OXOXOXOXOX@X@X@X@X@X@X@X@X@X@XOX|.|.{.{.{.{.{.{.7.7.7.o.o.(.'.:XDXGX3X.X'.].].$X=XMXVXVXVXVX;X/.P T L C C P U U G J N p p i n m m v v v M V I (.'.>X+X+XOXi.u.i.i.i.#X#X+X.X{.y.2.3.t.q.e.(./.L.M.Z.!.!.jXVXSXSXSXFX*X).+. .I 7 x.z.b.n.Z.!.jXVXbXbXbXbXbXbXxXxXxXjXR.T.T.T.T.T.T.T.T.T.T.T.v.7 7 7 8 T.&XcXxXbXbXnXnXnXnXbX~.v.~.FXHXKXKXnXnXlXjX!.~.~.xXbXnXnXnXnXnXbXvXzXzXkXkXlXlXjXjXjXcXbXbXcXkXgXQ.Q.Q.m.- .       2 c.E.E.~.jXcXbXbXnXnXnXnXkXC.< 8 E.E.~.Q.C.                                                                    ",
"                                                      l.C.C.m.5 = . . . % u { rXqX7X7X3.,.=.$.@.E %.D G F F U L m V V V V b b b b & B ..G G G H H Y Y Y ....9.9.8.[.oX|.|.|.}.}.yXyXyXyX}.}.}.}.}.}.}.yX}.}.|.y.y.y.y.y.y.0.0.0.0.y.y.y.|.|.|.y.y.y.0.y.0.0.0.8.6.9.4.! Y Y Y 4.4.4.6.8.6.6.*.%.W J N N S S S J H S S J H 4.|.|.OXOXOXOX@X@X@X@X@X@X@X@XOX|.|.|.|.|.{.|.{.{.{.{.7.7.4.4.o.o.).:XJXJX:X).(.(.`.&X=XNXVXVXVXVX;X/.P C F U P  .P Z B n t t t v n v b v r w w @ & C O.{.|.u.u.t.u.i.i.{.+X+X+X2X2X.X|.r.q.e.O.I v.x.n.Z.S.!.hXlXSXHXHXHXFX*X(. . .v.v.x.n.M.Z.!.NXVXxXxXSXSXlXjXjXlXcX~.R.T.T.T.T.T.T.T.T.T.T.v.7 7 8 8 T.&XjXcXxXxXbXbXnXnXbXxX!.jXbXnXnXnXnXnXnXzXS.E.~.cXbXnXnXnXnXnXnXbXkXA.A.gXzXkXlXjXjXjXcXcXjXQ.Q.m.m.m.m.l.- = . . 2 c.E.~.~.cXcXbXbXnXnXnXnXvXkXQ.~.jXcXcXbXbXkXC.                                                                  ",
"                                                        j.j.1 = . . . . d { 6X6X6X6X[ [ ,.=.$.#.@.@.G ..7.[.P m 3 V V V V b b b b b i G ..G G H H H Y ..4.7.9.8.8.[.oXoX|.|.}.}.yXyXyXyX}.}.}.}.}.}.yXyX}.}.}.y.y.y.y.y.y.0.0.0.0.y.y.y.y.u.y.y.y.y.y.y.r.0.0.8.8.6.9.! ! H H W W 4.5.8.6.6.*.*.W J N N N N J N N n n S H 8.|.OXOXOX@X@X@X@X@X@X@XOXOX|.|.w.8.8.e.w.w.w.w.w.7.7.7.7.o.Y ..o.(.'.AXJX1X(.(.).).`.*XBXVXVXVXBX*XP B n n B P P Z C B p p p v M v b M r w @ w v F ..7.|.y.u.r.u.r.e.{.{.'.'.*X*X1X1X2X+X{.7.X.I x.x.n.m.C.S.hXlXHXHXKXKXSX1X).X./.v.v.M.M.W.!.!.NXNXNXNXjXQ.Z.S.!.jXjX~.R.T.v.T.T.T.T.T.v.v.v.v.7 7 8 7 ].;XjXjXjXjXcXxXbXbXHXxXxXbXnXnXnXnXnXnXvXA.c.W.cXxXbXbXnXnXnXnXbXbXgXV.V.A.gXzXjXQ.~.hX~.~.E.m.m.z.< c.E.E.m.m.m.c.c.m.~.jXcXcXcXvXbXbXbXnXbXvXcXcXcXvXbXnXnXvXkXC.                                                                  ",
"                                                                  . . d { [ [ [ [ 6X[ [ [ =.$.$.#.@.%.|.|...V m V V V V b b b b b b i b ....H H H H H ..4.7.7.8.8.[.oXoX|.|.|.}.}.}.}.tXyXyXtX}.}.}.}.yX}.}.}.}.}.}.y.y.y.0.0.0.0.y.y.y.y.y.y.y.y.y.y.y.0.0.0.0.0.8.6.9.9.4.! *.9.8.8.0.6.6.6.*.%.W F N n N N N N n N F 7.|.}.OXOX@X@X@X@X@X@X@XOXOX|.oX9.4.} } ..O.e.w.e.e.e.5.4...Y Y Y ..o.).'.1X'.(.(.(.(.(.`.*XBXBXBX:X/.L n n p n b B B A B p a p M L m n M r w w n C Y 7.w.y.y.r.r.r.q.e.(.(._._.$X&X:X:X1X2X+X). .I 6 x.x.b.Z.!.hXlXHXHXKXKXHXDX'.(././._._.$X;X~.~.;X;X;X~.C.b.b.b.Z.!.jX~.v.T.v.v.v.v.v.v.7 7 7 7 7 8 8 T.$X~.!.A.C.Q.!.lXxXSXSXxXxXbXnXnXnXnXnXnXzXb.R.jXcXxXxXbXbXnXnXbXbXlXA.b.b.C.Q.gX!.Q.!.~.C.z.c.c.c.c.c.~.jXlXlXlXjX~.E.~.~.zXkXkXkXkXcXvXvXvXvXvXvXcXbXbXnXnXnXvXzXb.                                                                  ",
"                                                                  . 4 >.3.3.3.[ [ [ [ [ [ ` =.=.;.r.i.OX..b V V V V V V b b V V m b b b G ..} } H H H Y 4.4.7.7.8.[.oXoX|.|.|.|.}.}.}.yXtXyXyXtX}.}.}.}.}.}.}.}.}.}.yXy.y.y.0.0.y.0.0.0.0.0.0.0.8.y.y.0.0.0.0.0.0.0.0.6.6.6.9.6.0.y.y.0.6.;.&.*.*.%.H S N N N N N J Y 8.|.|.OXOX@X@X@X@X@X@X@XOXOX|.oX9...Y o.7.|.|.{.|.w.w.q.5.} H G G G } o.7.{..X).O.O.O.o.X.P /.'.*X%X/.I L U U Y ....} G C C n p n L P C C b w w M B C Y ..w.q.r.<.<.q.q.O./.H.L.L.$X$X=XBXBX1X1X'.(.I K x.x.M.S.!.jXlXHXKXKXKXHXAX'.).).].].&X&X&X&X_.R.].~.Z.m.z.z.b.M.!.!.E.v.v.v.v.v.v.7 7 8 8 8 8 8 8 7 R.W.~.~.!.jXjXxXbXbXxXxXxXxXbXnXnXnXnXnXbXB.m.;XlXlXlXkXkXlXbXbXbXlXhXN.z.b.m.A.Q.Q.W.W.Q.k.> 2 5 c.~.jXcXbXbXbXbXbXlX!.~.gXQ.Q.Q.Q.gXkXcXcXkXkXkXcXcXvXvXvXnXvXkXC.                                                                    ",
"                                                                  4 +.>.3.3.3.3.[ [ [ [ [ [ ,.3.t.wXOX} d V V V V b b V m V V b d d d B F ......} ....4.o.7.7.7.8.8.oX|.|.|.|.|.|.}.}.}.}.tXtXtXyX}.}.yX}.yXtXtX}.yX}.}.yXy.y.y.y.0.0.0.0.*.W ! ! 9.6.0.0.0.0.y.0.;.;.;.6.6.6.y.y.y.y.0.;.;.&.*.*.*.%.H F F N J ! 9.oX|.|.}.OXOX@X@X@X@X@X@X@XOXOX|.8.4.Y o.7.|.|.}.}.u.i.u.u.r.5.H G G H } %.5.e.e.e.7.O.O...U U L I H.H.I L T o.7.7.7.e.e.e.O.} B B C L L L C b & b C n C G O.6.q.>.<.>.>.5.O.I H.M.M.Z.S.=XMXBXAXAX1X.X(.(.H.L.L.$X;XNXVXHXHXKXKXJXAX+X{.{.'.'.].]._.v.7 T.&XW.M.z.z.5 c.M.W.W.v.v.v.v.v.7 7 7 8 8 8 8 8 v.R.&X;XNXSXSXHXHXnXnXnXnXnXHXxXlXlXbXHXnXnXnXzXb.~.jXjXhXQ.Q.gXzXlXlXlXlXA.d.z.z.m.W.~.W.W.E.m.< = 2 R.~.cXxXbXbXbXvXbXbXlXgXQ.Q.B.N.V.C.Q.gXjXlXkXkXkXzXkXkXvXvXvXkXQ.j.                                                                    ",
"                                                                4 +.e.e.>.>.>.>.[ [ [ [ [ 6X7XqXwXwX} b b V V V V V V b V V b b & i B F B ..7.o...........4.7.9.8.8.y.|.|.|.|.|.|.}.}.}.}.}.yXtXyXyXyXyXyXyXtXtX}.}.yXyXyXy.y.y.y.y.0.0.W J N N N N J W 9.6.0.0.0.;.6.;.6.6.;.0.r.0.0.;.;.;.:.*.:.*.*.4.! H H ! 8.oX|.|.}.OXOXOXOX@X@X@X@X@X@XOXOX|.7.....o.w.|.OXi.i.p.p.i.i.i.u.q.} %.q.q.r.u.u.u.w.e.e...| P U P I I I I P X.7.w.e.e.w.e.e.w.e.O.U Z P I I I m b n n n Z Z G 4.6.&.&.>.q.5.O./.L.M.Z.Z.S.!.MXNXFXFXAX3X.X{.).`._.%X;XNXFXSXHXHXJXDX3X+X{.{.)././.T.v.7  .].].R.v.x.6 6 x.M.$XR.7 7 v.7 7 7 8 8 8 8 7 T._.;X;XNXNXSXSXHXnXnXnXnXnXPXnXKXbXhXhXlXSXHXbXlXC.R.~.jXgXA.A.A.A.!.jXjXjXhXb.z.z.c.M.W.W.W.M.v.c.- 5 W.jXcXxXbXbXbXbXvXvXlXjXQ.Q.B.k.k.k.b.C.!.hXjXzXgXQ.Q.Q.zXkXkXkXgXm.                                                                      ",
"                                                              8 /.).).+.+.| | ) { 3.[ 6X6XrXqXwXwX} d V V V V V V V b m V V b & i B F S G O.7.7.o.....o.o.5.5.8.8.8.y.|.|.|.|.}.}.}.}.}.}.}.yXtXyXyXyXyXyXyXyXtXtXyXyXyXyXyX9Xy.y.0.0.! J N N t p p N N J H ! 9.9.*.*.*.&.*.:.&.;.;.;.:.:.&.:.&.6.6.6.6.9.8.8.oX|.|.|.}.}.OXOXOXOXOX@X@X@X@X@XOXOX|.5.....7.|.u.i.i.t.qXwXwXwXi.i.i.i.u.u.t.t.t.i.i.OXOX#X#X{.(.P V V I V L U O.e.e.w.w.q.w.w.w.{.{.).X.(.].$XI V C n n C L C C G } %.*.&.*.O.O./.L.M.Z.S.S.hXMXVXFXDXDXAX2X{.{.).'.*X*X:X1XAXFXAXAX3X+X.X'.(. ./ / T.7 I /.).)./.7 6 6 6 v._._.v.8 7 v.v.7 8 4 8 8 T.].&X;X;XjXjXjXVXSXbXnXnXnXnXnXnXnXKXlXA.S.jXcXSXxXhXM.;XjX!.A.C.V.V.D.S.!.jXjX!.b.z.5 v.R._.$XR.7 7 8 c.~.jXlXlXxXbXbXbXbXvXlXjX~.W.m.k.k.j.z.b.C.Q.!.hXQ.B.B.B.B.Q.gXzXgXC.                                                                        ",
"                                                            5 R.]./. .I P Z | | >.3.qXrXqXqXqXwX| d 3 4 4 V V V V V V V V V b & b F F S G O.7.7.o.o.o.4.4.5.5.6.8.w.w.y.|.|.|.|.}.}.}.}.}.}.yXtX}.yXyXyXyXyXtXtX}.yXyXyXtX9X9Xu.y.0.6.W N p t t t t t p p p N N S J W *.;.;.=.$.$.$.$.:.;.;.0.8.oXoXoX[.[.[.[.[.{.oX|.|.}.OXOX@XOXiX@X@X@X@XOXOXOX|.7...o.e.w.u.t.t.qXqXwXwXwXwXwXwXi.i.i.i.t.i.i.i.OX#X+X+X+X+X'.I V m V P O.O.e.q.q.q.q.w.w.{.{.{..X.X'.*X:XH.v b M m m V C C G H } %.*.&.5.O.(._.L.Z.S.!.hXNXVXSXJXDXDX3X{.7.O.X.(.).].'.'.*X2X*X*XAXFX$XH.I 7 7 I 7 I O.7. .I V 4 4 V I /.T.v./ T.T._._.v.7 7 /.&X&X&X=X!.!.!.!.jXlXxXbXnXnXnXnXnXnXbXA.V.C.!.jXNXNXW.].;X~.Q.C.V.b.b.b.Z.=X;X=XR.v.8 7 I /.].].v.7 4 T.~.jXlXkXkXkXvXbXvXbXlXlX;XW.m.c.j.j.z.z.z.M.W.~.Q.B.k.k.k.m.Q.Q.Q.C.<                                                                         ",
"                                                          < M.R.M.v.v.7 I P +.+.>.p.qXqXqXqX2.| A 4 4 4 4 4 V V V V V V V b i & B F S S G O.O.7.5.o.4.4.5.5.5.5.8.w.y.|.|.|.|.|.}.}.}.}.}.yXyXtXtXtXtXtX}.yXtXtXtXyXyXtXtX9X9Xy.y.0.6.W N t t t e e t t t t t p p S W *.;.:.-.-.=.:.:.;.r.y.oX[.[.[. X`.`.P.P.`.(.[. X{.XXOXOX@X@X@X@X@X@X@XOXOXOX|.8.....e.u.t.t.2.qXqXqXwXwXwXwXwXi.i.i.i.i.i.i.OX#X+X+X>X2X2X2X.X/.V L U O.e.q.q.q.q.u.q.e.e.{..X.X.X'.'.*XI v i i i b b V C C ..o.5.6.6.w.[.(.`._.$XW.!.MXVXSXJXJXJXDX:X3 i & b V P /.(.).'.1XAXFXSXNXT.7 I 4 4 4 V V +. .A 4 & & & 3 I 7 v.7 7 7 v.v.v.v./.'.'.]._.W.Z.M.n.n.Z.!.jXlXbXbXnXnXnXbXlXC.b.b.m.W.=X;XW.T.].&XW.m.b.b.b.b.b.Z.=X;X&XH.I 4  . .+.)./.4 V /.;XjXjXzXgXzXzXkXvXkXlXjXNX&XT.c.5 5 5 5 5 c.R.W.~.C.k.j.j.j.m.C.Q.C.z.                                                                          ",
"                                                          m.Z.m.b.c.c.c.7 7  .+.>.p.qXqXqX3.) A 4 4 4 4 4 4 4 V V V V V V b i i B F F G H } ..4.4.4.4.5.5.5.5.8.8.w.y.|.|.|.|.|.}.}.}.}.}.yXtXtXtXtXtXtXtX}.yXyXyXtX}.}.tXtXyXyXy.y.6.W N p t e e t e p t e w p S W *.$.` ' ' ' ' -.-.1.r.oX[.[.J.J.J.J.J.P.P.P.P.P.`. X.XXX@X@X@XiXOX@X@XOXOXOX}.|.oX4.4.e.u.t.2.qXqXwXp.p.p.i.OXOXOXOXOXOXi.i.OX#X+X.X*X*X:X:X1X2X*XH.P X.7.e.q.>.q.q.q.e.e.7.).).).'.'.'.'.(.Z Z G } } G C b C C Z G H } 5.{.{.'.'.%X=XNXNXVXSXHXJXJXDXAXH.B b d b 3 4 6 v._.&X;X;X;XT.7 7 4 4 4 4 A Z +.+.O.5.5.e.{.).'.'.&X&X&X_.R.v.v./.{.{.).]./.v.z.z.z.z.x.M.W.;XjXcXxXxXxX!.b.z.z.c.x.M._._.H././.T.c.z.s.s.h.b.n.I.$X%X'. . . .+.+.+.O.P V /.W.!.hXQ.A.A.Q.gXzXkXlXjXNX*X). .7 2 2 2 2 8 v.R.W.E.c.< < j.j.m.C.C.z.                                                                            ",
"                                                        m.C.C.m.b.b.z.c.c.v. .+.e.p.p.p.3.g I &X;XR./ 4 4 4 4 V V V V V V d & d F G J J H H } ....5.5.5.5.7.8.8.8.w.y.|.|.|.|.|.}.}.}.}.}.}.iXiXtXtXtXtXtXtXtXtXtXtXtX}.tXtX}.}.u.u.0.W N t t e e t p p p p N J W *.=.' ' ' ' 6X' -.-.;.r.oX[.(.J.H.G.G.K.K.K.K.K.K.P.P.%X>X.XXX@XOXOXOXOXOXOXOXOX}.|.7.4.w.u.t.2.qXqXwXi.i.i.OX#X#X@X@X@X@XOXOX#X.X.X*X*X:X;X:X:X1X1X].I X.{.w.q.>.r.r.w.w.O.(.(./._._.].'.*X.X.X{.w.w.e.e.5.} B i @ @ @ @ i a Z X.'.*X*X:XBXFXDXJXJXJXJXGX@XOXy.y.q...P 4 2 7 R.R.R.v.4 4 4 4 4  .O.7.|.OXi.i.i.OX#X@X+X+X*X:X:X;X:X:X;X&X*X'.).). .7 8 5 5 z.z.n.M.&X;X;XNXjXjX~.m.z.< 5 5 6 7 v.L./._.].W.~.!.!.S.C.n.M.$X%X'.O.+.| | +.} O.+. .).&X~.~.S.C.C.C.A.Q.hXjXhXMX*X{.+. .4 4 4 3 4 7 /._._.T.8 5 < 5 z.m.E.m.1                                                                             ",
"                                                      l.C.C.V.V.k.k.b.z.z.v./.(.e.i.p.>.g d M.SXHXFX_.I V 4 4 V V V V V V & & b G G H G H } } } } 4.4.4.4.5.7.8.w.w.y.|.|.|.|.|.}.}.}.}.}.}.tXiXiXtXyXyXtXtXtXtXtXtXtXtX}.}.}.}.}.u.0.*.N p t e e t p s s s D %.@.$.` [ [ ' ' ' ' ' =.;.0.8.o.J.H.G.G.G.G.x.x.x.n.n.K.I.%X-X,X>X@X@XOXOXOXOXOXOX}.}.|.|.5.q.u.t.t.wXwXwXi.OXOX{.+X+X+X+X@X@X@X@X+X.X*X*X-X;X;XNXBXBX1X*X/.o.{.w.q.r.r.q.e.e.(.(./._._._._.%X*X*X.X.Xw.q.q.q.r.u.e.G B C G } ..} B & 3 (.'.2X1XAXDXJXJXJXJX3X@XwXwXwXwXOXOX#X). ./.I I P Z Z Z  .O.O.7.w.y.u.t.p.i.i.OX{.'.'.*X*X;X;X;X;XNXBXNXAX:X_./././.].&X:X;X;X;XNXNXFXFXSXSXFXVXjX~.b.z.v._.;X;XNXFXSXSXHXHXKXHXHXSXNX&X*X.XO.} } | } | | } ).5X&X~.C.b.b.V.V.C.A.Q.hX!.:X.Xq.+.Z A A A A  . ./.]././ 4 2 2 8 c.m.m.j.=                                                                             ",
"                                                    j.C.A.C.N.N.k.N.k.b.b.c./.).{.i.q.g d a 3 $XNX;X_.I V 4 3 4 V V b V V & & A G G G H H } } } } } 4.4.4.5.5.8.8.oX|.|.|.|.|.|.}.}.}.}.}.}.iXiXiXiXiXiXyXiXiXtXtXyXtXtXtX}.tXtXtX9Xu.0.J p t e t e p s J J %.&.$._ ' 6X' 6X' ' ' -.:.&.6.9.T T K G.G.G.x.x.g.g.g.n.n.D.U.-XBX,X>XXXXXXXOXOXOXOX}.}.}.|.w.6.r.t.2.p.wXi.OX{.{..X.X.X.X>X2X2X4X4X+X.X*X:X;X=X=XNXNXBXAX1X(.X.{.w.q.r.r.q.e.[.(./.L.L.M.L.L.$X%X*X'..X{.q.q.r.i.i.i.w.O...7.|.OXOXOXOX5.A Z ).2XAXDXJXJXJXGX4XOXwXwXwXwXi.OXOX@X+X.X{.{.w.u.i.i.OX#X#X{.{.e.q.<.<.t.u.e.7./.H.L.L.M.Z.$X=XNXNXFXDXDXAX1X2X2X*X:X;X;X;XNXNXNXFXSXSXSXSXHXHXHXSXVXNXNXNXcXxXxXbXHXKXnXKXKXnXKXKXSX:X[.} D D D D g | {.5X]._.M.m.b.b.b.b.V.C.Q.!.-X.Xe.*.| D S S S | O.O.).O. .A 4 4 4 7 T.c.c.< = = 2 < < <                                                                   ",
"                                                  j.C.A.A.N.N.N.N.N.N.N.V.M._.).e.q.>.%.g d a & I H.I 3 3 & & 3 V V V b b & & Z | Z G G G } } } } } ..4.4.5.5.8.w.oX|.|.|.|.|.|.}.}.iXtX}.}.iXiXiXiXiXiXiXiXiXiXtXyXtXtXtXtXtXtXtXtX9Xu.*.N p t e e s N J D %.*.$._ ' ' ' ' ' ' ' =.=.&.9.4.T T K K G.x.x.g.g.h.h.h.n.D.U.MXCXBX,X.X[.[.oX|.OX}.}.}.}.}.|.w.q.u.t.2.i.i.{..X.X'.*X*X*X*X*X3X3X4X2X*X*X-X;X=XNXNXNXNXBXAX'. .o.{.w.r.q.q.e.(.(._.L.M.M.M.M.I.$X%X*X'..Xw.r.r.t.i.i.i.i.w.w.u.i.i.i.i.OXOX5. .).2X3XGXGXGX3XOXwXqXt.p.i.OXOX@X@X+X+X@X@X}.p.p.i.i.OX@X+X+X+X+X{.e.q.5.O. .I x.x.x.x.n.M.Z.=XNXFXDXDXDXDXAX1X&X&X=X=X=X=X;XNXNXVXSXSXHXHXKXKXKXHXHXSXlXjXlXxXbXKXKXnXnXnXKXKXKXHXNX(.D S S S d D e.#X'.].T.m.c.z.z.b.b.m.Z.~.=X.X{.5.%.} D g | | 5.e.e.+.+. .A 4 4 4 / / v.c.8 8 c.m.m.m.m.m.                                                                ",
"                                                j.C.A.A.B.N.N.N.N.N.N.C.S.$X].O.5.>.&.$.@.g d a i & & & & & & & 4 V V b b & & Z Z Z Z G G H H } ....4.4.4.4.5.8.w.y.|.|.|.|.|.}.}.}.iXtXtXtXtXiXiXyXiXiXiXiXiXiXiXiXyXtXtXtXtXtXtXtX9X9X0.W s e t t s J D %.&.&.$.( ] ' ' ' ' ' ' -.=.&.9.! J.J.K K 6 x.x.g.h.h.h.h.h.D.U.MXCXCXBX>XY.! ! [.XXOXOXOX}.}.|.y.q.r.r.t.i.i.{.'.'.%X%X$X&X-X:X:X3X3X3X*X:X;X;XMXNXjXVXVXCXAX*X/.X.7.w.y.r.q.e.(.(.H.L.M.n.n.n.M.Z.$X%X*X>X{.r.r.q.u.u.i.i.OXu.u.i.i.wXwXwXwXOX|.7.{.+X2X3X2X#Xp.2.2.t.u.w.{.{..X.X+X2X2X2X@XOXp.p.i.OX+X+X+X2X>X2X>X.X).X.I 6 6 6 x.x.x.n.D.U.=XNXDXSXHXJXJXDX;XW.Z.D.n.Z.Z.!.!.jXVXSXHXKXKXKXKXKXKXHXxXjXjXlXbXbXKXKXKXPXPXKXKXKX;XI B i i a d *.e.{.)./.v.c.z.z.z.z.z.M.W.W.*X{.5.} | D D D | *.>.>.5.+.| A A A Z  . ./ / c.c.c.m.m.m.E.E.m.c.                                                              ",
"                                                B.A.fXB.B.N.N.N.N.N.C.S.W._.X.| g g k g g s a a i i & @ @ @ & & 3 V V V b & & A | G S F S G H } ....4.4.4.5.5.8.w.w.|.|.|.|.}.}.}.OXiXtX}.}.iXiXiXiXiXiXiXiXiXiXiXiXyXtXtXtXtXtXtXtXtXtX}.y.W s p p N J } %.6.<.$.#.` ' ' ] ' ' ' -.:.;.9.! T J.K 6 6 x.x.g.h.h.h.h.h.D.S.MXCXCXBX XR R J 9.XXOXOXOXOX}.|.|.y.q.<.r.i.|..X'.'.%X$X$X=X=X;X;X:X1X1X1X*X:XNXNXVXlXVXVXVXCX:X/.I X.7.w.w.q.e.).(.L.L.M.n.n.n.n.Z.I.$X%X>X.Xe.q.e.e.{.{.#XOXOXu.t.p.wXwXwXwXwXOXOXw.e.w.y.y.t.2.3.2.>.q.O.(.(.`.`.'.*X2X3X2X2X|.w.w.{. X.X>X*X*X*X:X1X*X*X/.6 6 x.x.x.x.n.n.Z.=XNXDXJXHXKXKXHXSXS.b.n.n.n.n.Z.S.!.NXSXHXKXKXKXKXKXKXKXHXjXhXjXVXHXKXKXKXKXKXKXKXVXM.H.H.H.v.H./.).).(./.I 7 v.c.z.z.z.c.M.W.$X.X7.} | D g g D %.>.>.>.| | A A A A Z  . ./ 8 8 8 8 c.c.c.m.m.m.c.=                                                             ",
"                                              l.Q.gXA.B.B.N.B.B.N.A.S.W.$X/.A u u h h h u u 0 0 0 @ w w @ @ & & 3 V V V 4 & & A G G Z S S G G H } } } %.4.4.6.8.8.w.|.|.|.}.}.}.OXOXOXiX}.}.iXiXiXiXiXiXiXiXiXiXiXiXiXyXyXyXyXtXtXtXtXtXtXyX0.W N N N H 4.6.*.;.=.:.` ' ' ] ] ' ' ,.-.;.6.9.o.J.I 6 6 x.x.z.h.h.h.h.n.D.U.MXBXBX,XJ.N N F 4.XXOXOXOXOX|.|.|.|.y.q.q.u.|.{.'.%X$X$XW.!.!.=X;X;XBX1X1X*X:XNXNXVXxXHXHXSXFX1X/.P P G ..7.5.5.7.)./.L.M.n.n.n.n.D.Z.I.%X*X>X).O.O.(.{.{.#XOXOXu.t.2.2.wXwXwXwXwXwXOXw.q.r.1.3.3.<.>.5...X.I H.H._._.%X*X:X1X1X2X).(.(.J.`.`.%X%X:X:X:X:X:X:XL.x.6 x.x.x.n.Z.U.MXNXDXJXJXKXKXKXHXNXV.n.n.n.n.Z.U.=XCXSXJXHXKXKXKXKXKXKXHXhX!.NXVXHXHXKXKXKXHXHXSXNX;X;XNXNXFXFXFXFXNXNX;X$XM.v.v.c.c.v.v.R._._.(...G B d d g } *.>.>.+.A A A A A A A A 4 4 2 2 2 5 5 5 8 z.c.c.5 =                                                             ",
"                                            j.A.gXgXfXB.B.B.B.B.A.Q.W.$X/. .| g h u u u u 0 0 0 @ @ @ @ @ @ # & b 3 V 4 4 4 & b Z G G G G H H H } } H %.4.4.6.6.8.w.|.|.|.|.}.}.OXOXOXOXOXOXiXiXiXiXiXiXiXiXiXiXiXiXiXiXiXyXtXtXtXtXtXyXtXtXyX}.*.J J W 4.6.6.;.;.-.-.' ' ' ' ' ,.,.,.1.0.9.7.T I G.G.x.x.x.n.n.n.n.K.I.U.-X:X,XJ.N N N Y 7.XXXXOXXX}.|.|.|.|.w.q.6.w.{..X'.%X$X=X!.!.!.!.MXMXBXAX1X*X*X;XVXVXHXHXHXHXDX:X(.T U U G G G G ..(.(._.L.M.n.n.D.D.Z.I.$X*X*X).(./.(.(.)..X@X@XOXu.t.2.2.t.p.i.i.OXOXOXu.r.1.3.3.<.>.5.O.P H.G.H.L.L._.%X:X:X1X1X:X_.H.G.H.L.L.I.$X;XBXBXAXAX:X$XH.K.K.K.I.$X=XNXCXDXJXJXKXKXKXKXSXZ.x.x.n.M.I.=XBXCXDXDXJXJXHXHXHXHXHXhXS.U.NXFXDXJXHXJXHXSXFXNXNXNXNXNXNXSXSXSXHXHXHXHXSXSXjXZ.M.v././._._./.P C B d d d D } } } +.Z A d d d a a d 4 * 2 2 2 1 1 1 < 5 5 z.8 5 2 9                                                           ",
"                                            B.gXzXgXfXB.B.B.B.A.Q.!.R.T.7 A d g g s s u u u u i i i i r @ @ @ # & 3 3 b b b 3 & C Z G G G H } H H H H %.%.4.5.6.8.w.y.|.|.|.}.OXOXOXOXOXOXiXiXiXiXiXiXiXiXiXiXiXiXiXiXiXyXiXiXiXtXtXtXtXtX}.tX}.|.0.4.! 4.6.y.r.1.1.-.-.' ' ' ' ,.7X7X1.r.0.8.[.J.J.P.L.K.M.n.n.K.I.I.%X%X%X`.R c M N N Y [.XXXX}.|.|.|.|.|.|.y.w.5.6.{..X'.*X$X=X!.!.!.hX!.jXNXBXAX&X_.:XCXHXKXKXHXHXDX:XJ.L U F Z C B n B ..(.`.L.M.D.D.D.D.Z.U.=X:X:X'./.H.H.J.(.{..X+X@XOXu.r.r.r.u.u.OXOXOXOXOXu.t.3.3.<.>.5.X.I G.v.x.n.M.M.$X=X:XBXAXAX*Xv.x.x.n.n.M.I.=X=XNXCXDXAXAX*X_.%X%X-X-XBXBXDXDXJXJXJXKXKXJXDX$Xn.x.L.L.$X-XBXBXDXDXDXDXSXSXSXNXZ.D.I.=X:XAXDXDXAXFXFXNXNXjX!.!.jXNXNXVXSXHXHXHXKXKXbXbXbXlX=X_./.]./.7 4 m b i i d B S G } | V V & & & & & & & 4 4 4 7 7 T.E.R.E.E.E.E.m.c.c.8 2 9                                                       ",
"                                          k.gXzXzXfXfXfXfXdXQ.!.W._.I 4 & d d g ) @.%.D J s a i w w @ @ @ @ @ @ # & 3 b b b b & V Z G G G G H H H } H } } 4.5.5.8.w.y.|.|.|.}.}.}.OXOXOXOXOXiXiXiXiXiXiXiXiXiXiXiXiXiXiXiXiXiXtXtXiXtXtXtXtX}.}.tX}.|.oX0.8.y.u.u.u.t.1.1.,.,.,.1.7X7X9Xu.u.y.[.[.[.(.`.`._._.`.`.`.`. X XJ.M c v N N N R 7.|.|.|.|.|.{.|.{.oXw.7.4...7.{.'.*X$X=X!.S.S.hXhX!.NXCXAX*XI *XAXHXKXKXKXJXDX`.L C C V m m m b b n X.`._.I.I.Z.D.D.S.U.=X:X:X`.H.H.H.H.J.(. X.X+X@Xw.q.q.q.e.{.{.{.@X@XOXOXt.1.3.3.<.5.X.I G.v.x.n.n.M.Z.W.=XNXBXBXBX$Xn.x.n.n.n.Z.Z.=XNXFXDXDXDXAX*X*X*X*X:X:XBXAXDXDXDXJXJXJXDX:X_.H.L.`.%X*X,X,XZXAXAXAXAXAX;X&XM.L._.%X*X3X3X3X3X1X:X;X=X!.Z.Z.Z.S.!.jXVXSXHXHXKXKXKXKXnXHXbXNX'.)./.7 3 $ # @ & & i B B A C b 3 & & & & d S | +.O.).).].].R.W.~.~.~.~.~.~.~.~.W.E.m.c.5                                                   ",
"                                          B.kXkXzXmXgXgXgXhX!.~./.G a.a.$.>.1.t.t.r.&.@.f a w w @ @ + + @ + + + # & 3 b b b b b b A Z G G G G G } } } } } 4.5.5.8.w.w.|.|.|.}.|.}.}.OX}.OXOXOXiXiXiXiXiXiXiXiXiXiXiXiXiXiXiXiXiXiXiXtXtXtXtXtXtXtXiXtX}.}.|.y.|.}.tXtX9Xt.t.t.t.t.t.t.r.r.u.u.y.|.{.{.{. X X.X.X.X{.[.7.Y F M M N F N F R o.[.{.oXoX{.{.oXoXw.7.7.....Y [..X*X&X=X!.!.dXgXgXhXjXVXFX:X6 I :XDXJXKXJXJX:XH.L M v v v v v v b v m (.`.$XU.U.U.S.U.MXBXBX:X_.H.H.G.G.H.P.`..X.X+X#Xe.e.o.(.(.(. X.X+X@X@XOX2.2.3.2.q.O.I H.H.v.n.n.n.Z.Z.=XNXNXBXAXBXZ.n.n.n.D.Z.Z.W.;XVXDXDXDXDX3X>X.X.X>X*X1X3XAXAXAX3X1X1X*X]./.'.`.*X>X>X>X>X2X2X2X*X'.]./.H.H._.'.>X>X2X4X+X+X'._.W.M.M.b.b.b.D.Z.!.jXSXHXHXKXKXKXKXKXHXHX:X.X).7 ; o $ @ $ $ @ & & & & & & & & i A | 5.e.e.e.e.).).].].R.W.~.W.~.~.~.~.jXjXhXhXgX~.W.m.5                                               ",
"                                        k.gXkXkXkXzXzXzXhXhX~.].e.<.3.3.2.7X7X2.1.;.E g a 0 0 0 + + + + @ @ + + @ # & b i b b b i b B G G G G G H } } } ..} 5.5.5.8.w.y.|.|.|.}.}.}.}.}.}.}.OXOXiXiXiXiXiXiXiXiXiXiXiXiXiXiXiXtXtXiXtXtXiXiXtXiXiXiXiXtXtX}.}.}.}.}.OX}.u.u.u.r.r.r.r.r.u.u.y.y.|.}.OXOX@X@XXXXX|.oX8.4.! F F F F U U T T (.[.[.7.7.[.{.[.7.7.7.o...Y U T ).'.*X=X=XhXgXhXhXhXjXVXFXBXv.3 _.AXJXJXJXAX_.V m v 3 3 v 3 v v M b v C (.%X$X$X=XMXCXCXCXCX:X%XP.H.G.x.G.L._.%X>X2X+X{.(.(././.`.`.'..X2X+X@Xu.t.2.2.y.{.(.J.H.L.M.n.n.Z.Z.=XMXNXCXAXAX=Xn.n.M.Z.Z.Z.=XNXCXDXJXJXDXGX4X@X@X@X+X2X>X`.(.).{.{.w.{.{..X.X.X.X.X+X@X@X@X@X@X+X2X2X*X*X*X*X*X>X.X.X|.{.)./.v.n.n.b.b.b.b.D.Z.S.MXVXSXHXHXHXHXHXHXSXBX'.e.+.2 o o $ $ $ $ $ $ $ & * * & d Z +.+.5.5.5.5.7.O.).)./.R.E.E.E.Z.C.C.Q.Q.!.hXjXlXlXkXkXzXQ.m.                                            ",
"                                        A.kXvXvXkXkXzXjXjXW.].e.3.3.[ [ ,.3.3.,.=.l z s e 0 0 0 + + + + + + @ @ @ @ & i i i i i i i G ..} H G G G H } ....4.4.5.5.8.w.w.y.|.|.|.|.}.}.OX}.}.}.OX}.}.iXiXiXiXiXiXiXiXiXiXiXiXiXtXtXtXtXiXiXtXiXiXiXiXiXiXiXtX}.}.}.}.}.}.}.u.u.r.r.u.u.u.u.}.u.|.}.OXOXOXOXOXOX}.|.y.8.9.! F U o.X.X.X.X.Y (.[.(.o.7.7.7.7.7.7.7.o.o.Y U C P ).*X;X=XhXhXhXzXjXVXVXDXBXH.6 I *XAXAXAX`.V m v v 3 3 : : : : v M b n P (.`.%X-XBXCXDXDXCX3X*X`.H.x.x.x.M.L.%X*X,X2X.X(./.H.H.L.P.`.'.>X2X2X+Xy.t.i.i.|.{.(.`.L.L.Z.Z.Z.Z.U.=XCXCXDXAXBXI.I.I.Z.U.=XMXCXDXJXJXJXJXDX3X@XOX@X@X4X4X2X2X>X{.|.u.i.#XOX@X@XOXOXOXiXiX@X@X@X4X2X3X1X:X:X1XAX1X1X:X*X'./.H.v.v.c.x.n.n.n.D.I.=XNXVXSXSXSXSXSXSXNX$XI G Z 2 o o o o o o o o o o o * & 4 V Z | | | | | | +.+. ./ v.v.c.c.c.m.m.m.C.C.Q.hXjXlXlXvXvXkXkXgXl.                                          ",
"                                      k.zXvXvXvXvXlXjXjXW.].e.>.3.[ [ ' ' ` ` ` ( z f s y e 0 0 0 + + + @ @ @ @ @ & & & & & i i & i ..+...H G G G H H } } ..4.5.5.8.8.w.w.|.|.|.|.|.}.}.}.}.}.}.}.}.tXiXiXiXiXiXiXiXiXiXiXiXiXtXtXiXtXtXtXtXiXiXtXiXiXiXiXiXtXtXiXtXtX}.}.}.u.u.u.}.OXOXOXOXOXOXiXiX@XOXOXOXOX}.|.y.6.9.4...(.{.{.{.(.(.X.(.[.(.o.7.[.7.7.o.o.o.O.o.T T P V I '.-X=XMXhXhXlXlXVXVXDXBXL.V L (..X>X.X(.X.m 3 : r r # # : v v v b B ..O. X>X:XBXGXDXDXAX3X.X`.P.G.x.n.n.M.I.$X*X2X.X`./.H.H.L.L.L.`.*X>X2X>XT J %.w.OX|.{. X`._.I.U.U.U.U.MXCXCXDXDXDX;X%X%X$X-XMXCXCXDXJXJXJXJXJXGX@XOX@X+X2X2X3X3X3X3X2X+X|.OXOXiXiXwXwXeXeXiXOXOX+X+X>X*X:X:X:XBXBXBXAXFXFXFX:X_.M.v.x.x.n.n.n.L.$X;XBXAXFXFXFXAXAX1X$X_._./.R.M.c.5 2 2 4 7 v.v.R.R.R.R.R.R.T.H.7 V Z Z Z Z A 4 4 4 8 8 5 5 z.z.b.b.b.C.C.!.jXlXlXvXvXvXvXkXgXl.                                        ",
"                                      B.kXvXvXbXvXlXjX~./.+.+.>.{ { ` ` ] ] { ` ( z f s h e 0 0 w q + @ @ @ @ @ @ @ & & & @ & & & b | G G Z G G G G G } } } 4.4.5.7.8.8.w.w.y.|.|.y.u.u.}.}.}.}.|.}.}.}.tXiXiXiXiXiX9X9X9XiXiXiXiXiXiXtXtXtXiXiXiXiXiXiXiXiXiXOXiXiX}.}.}.}.u.u.y.OXiXOXOXi.OXiXiXiX@XOXOXOXOX}.|.y.6.4.4.[.{..X+X+X.X{.{.{.[.(.(.[.[.(.(.o.o.O.o.X.X.T U P V /.&X;XMXMXlXlXxXLXLXDXBXH.P o.[.{.{.{.{.w.8.G v # # r # r r v M B G 4.5.7. X>X,XZXZXZX3X.XXX.X`.L.n.n.n.L.L.$X-X:X>X`._.L.L.M.M.L.$X%X*X:X3X`.V C B H 8.XX.X.X%X%X$X=X=X=XMXCXCXDXDXDXAX:X:X:X:XBXCXDXDXJXJXJXJXJXGX.X{..X.X'.*X*X:X:XAXAX1X2X@X@XiXwXwXwXwXwXwXOX{.{.'.`._._.$X$X;X;XBXBXFXDXSXSXFXNXW.M.x.n.M.L.$X*X:X1XAXAX3X3X1X1X1X1X1X;X;XBXFXFXNXNX;X;X&X;X~.~.!.jXjXjXjXNXNX~.~.W.R.R._.R.R.v.v.8 8 5 5 5 z.z.j.b.b.C.Q.jXlXkXvXvXvXvXvXkXA.<                                       ",
"                                    j.gXvXvXbXbXlXjX~.R./  .| | ) { ` ` ' ] ` ` _ l k z s u e 0 w w @ @ # @ @ O O O @ @ @ @ @ & & Z G Z Z Z Z Z G G G H H ....o.4.7.7.8.8.8.w.y.y.y.y.y.|.|.|.|.|.|.}.}.tX}.iXtXtX9X9X9XtXtXiXiXiXiXiXiXtXtXiXiXiXtXiXtXiXiXOXiXiXtX}.}.}.}.u.u.u.iXiXwXwXwXi.iXiXiX@XOXOXOXOX}.|.y.6.4.7.{.+X+X+X+X+X+X.X{.{.(.(.(.(.(.(.o.o.O.X.o.X.X.T U P I /.&XNXNXVXLXHXHXHXDXBX_.o.7.|.|.|.u.r.r.r.r.6.J i @ @ r i v B G H 5.w.q.w.{.>X,X,X>XXX|.|.XX X`.L.L.L.I.I.$X=X:X:X*X_.L.L.M.M.L.I.$X-X:X1X*XI L F n a F [..X.X*X:X-X-XMXMXCXCXDXDXDXGX3X2X3X3XZXAXDXDXJXJXJXJXDXAX`.(.J.H.H.P.$X$X-X:XBXAXAX3X4X@Xi.wXwXwXp.u.y.{.(.J.H.H.v.n.M.Z.$X=XNXCXSXSXHXHXJXSXNXZ.L._.*X*X>X2X2X2X4X4X2X2X1X*X:X;X:XNXBXBXFXFXSXSXSXcXjXjXjXjXjXjXjXlXlXlXlXlXlXjXjX!.~.~.!.~.~.~.~.Q.C.m.k.k.b.m.A.Q.hXlXkXkXkXvXvXvXkXgXk.                                      ",
"                                    B.kXvXvXkXjX~.W.m.c.7 4 A | a.{ { ' ' ' ' ` ` ( k z s s u 0 w w i @ O % % O O $ @ @ @ @ @ & b Z Z Z C C Z Z G G U Y U ....o.4.7.7.7.7.8.w.w.oXw.y.y.y.|.|.|.|.|.|.}.}.}.}.tXtX9X9X9XtXtXtXtXiXiXtXtXtXtXiXiXiXiXtXtXiXiXiXOXOXOX}.}.}.}.u.u.u.iXiXwXwXwXwXwXiXiXiXOXOXOX}.}.|.y.6.4.{.+X+X+X+X+X+X@X@X+X{.(.o.(.(.(.(.o.o.X.X.X.X.X.X.U P P I `.:XNXVXHXHXHXHXDX:XH.o.{.|.y.r.r.r.1.1.1.1.r.4.S @ @ i B G G H 5.q.6.r.r.u.|.|.|.t.t.u.XX.X%X%XI.I.I.U.U.=X:X:X*X%X$XL.M.M.Z.I.$X;X:X:X:X(.X.7.{.w.5.4.7..X>X>X:X:XBXBXCXCXDXDXDXGX4X@X@X4X4X3XGXGXGXDXJXJXDX:X(.I K G.G.G.K.L.I.=X:XBXAXAXGX3XXXu.t.t.t.q.q.o.T I K 6 x.x.n.n.Z.U.=XNXFXHXJXKXKXHXHXFX:X*X>X2X@X@X@XOX#X#X+X'.'.$X$XW.W.!.=XNXNXVXSXxXbXbXbXxXlXzXgXhXzXjXlXlXlXxXlXlXlXlXjXjXjXjXjXcXlXlXlXjXgXA.C.A.Q.!.hXzXzXzXzXzXzXzXzXgXC.<                                     ",
"                                  - Q.kXkXlXjX~.m.z.z.5 2 2 4 | a.{ { [ [ [ ' ] ] ) j z g g s s p w X % % % o V V b & @ @ @ @ & Z Z Z B A C C Z Z G U U U U U ..o.7.o.7.7.7.8.w.w.w.w.w.y.y.|.|.|.u.u.}.}.u.u.}.9X9X9X9XtXtXtXtXtXtXtXiXtXtXiXtXiXiXOXtXiXiXiXOXOXOX}.}.}.}.u.u.u.iXeXwXwXwXwXwXeXiXiXOXOXOXOX|.|.w.6.5.|.@X@X@X@X@X@X@X@X@X#X(.X.X.X.o.(.o.X.X.X.X.X.X.X.X.U P P I ].;XVXHXHXHXHXDX:X(.O.w.y.r.r.1.;.=.,.1.1.1.r.r.4.B i F ..U } 5.5.&.<.1.1.1.1.9X9X9Xt.u.XX.X%X%XI.U.U.=XMXBXBX:X*X$XI.I.Z.Z.U.=X=X:X:X3X'.[.|.OXOXiXiXOXOX@X2X>X:XBXBXBXCXDXDXGXGXsXiXiXiX@X@X4X3X3XGXGXGX1X'.I I K K x.x.x.n.M.I.-XBXBXDXDXGX3XXXu.r.r.q.5...T I K 6 x.x.x.n.M.I.=XBXDXJXJXKXKXKXKXJXAX3X+XOXi.wXeXp.i.{.).)._.M.M.M.m.D.Z.Z.=XNXlXxXbXbXnXnXbXbXgXgXgXhXjXlXvXbXbXbXbXvXvXlXjXjXjXxXbXbXbXbXkXlXzX!.~.!.~.Q.gXgXgXgXgXgXzXgXA.z.                                    ",
"                                  j.Q.zXgX!.C.b.j.j.j.5 5 2 4 | | $.{ [ [ [ ' ' ` ` =.=.&.%.E g u 0 X % ; v./.(. .b & @ @ @ & C Z Z C B C C C C Z Z G U U U U ....o.o.o.7.7.7.8.8.8.8.w.w.y.y.y.y.y.|.|.u.u.u.u.u.u.9X9X9X9X9XtXtXtX}.tXtXtXtXtXiXiXiXOX}.}.OX}.OX}.}.}.}.}.u.u.t.wXeXwXwXwXwXwXeXiXiXOX@X@XXX|.|.oX5.5.OX@X@X@X@X@X@X@X@XOX{.{.X.X.X.X.o.X.X.X.X.X.X.X.X.X.P P P L H.%XBXSXHXHXHXDX*X(.O.w.r.<.<.;.=.=.-.1.1.<.1.r.u.w.5.....H } 5.6.;.1.1.1.1.7X7X9X9X9Xi.}.XX>X%X-X=X=X=XBXCXCXAX:X%X$XI.Z.Z.Z.U.=XBXBXZX2X.XOXOXOXwXwXwXwXiXOX+X2X3XAXBXAXDXDXGXGX4XwXwXiXiX@X@X{.{.|.{.{.7.X.P I K 6 x.x.x.n.n.Z.$X;XBXAXDXDXGXGXXXy.q.q.5...T I K 6 6 x.x.n.K.I.=XBXDXJXJXJXKXKXKXJXDX3XXXt.t.p.t.r.e.O.X.H.v.v.x.b.b.b.n.Z.!.NXVXbXbXnXnXnXnXnXbXzXgXhXzXlXvXvXbXbXbXbXbXbXlXjXjXxXbXbXbXbXbXbXlXQ.~.W.E.C.C.C.A.Q.gXgXgXQ.C.                                      ",
"                                j.l.C.Q.A.V.k.d.s.s.j.j.5 5 4  .| $.{ [ [ [ [ [ ,.,.3.r.;.$.l h u 0 O 5 W.;X$X/.L & @ @ @ @ V Z C C C C C C C C C F Z P U X.X.X.X...O...o.o.7.7.8.8.8.8.8.8.w.y.y.y.|.|.|.u.u.u.u.u.u.9X9X9XtXtX}.}.}.}.tXtXtXtXtXOXiX}.}.}.}.}.}.}.}.|.}.|.u.u.r.wXeXwXwXwXwXwXeXwXiXOXOX@XXX|.|.w.5.5.OX@X@X@XOX#XOXOXOXOX{.{.X.T T X.X.X.X.X.T T T T X.T P P L L L H.$XBXSXHXDXAX%X(.[.w.r.<.<.=.#.=.-.,.1.<.<.1.u.u.y.y.w.5.} 5.&.;.1.1.,.,.,.,.1.2.9Xt.t.u..X>X:X-XBXBXCXDXDXAXBX:X%XU.I.U.Z.U.=XBXBXZX3XXXOXOXwXwXwXwXwXwXwXOX@X2X3XGXAXDXDXGXGX@Xi.i.iXiX@X@X@X|.r.>.>.>.5...P I K x.x.x.n.n.Z.U.=XCXDXDXJXJXGXGX.Xw.q.e.o.Y L I K G.H.H.L.`.%X:XBXDXDXJXJXJXJXJXJXDX1X X&.$.>.>.>.5.O.I I v.x.x.n.b.b.n.Z.!.NXVXHXbXnXnXnXnXnXbXlXhXhXjXlXvXvXvXbXvXvXvXlXlXzXlXxXbXbXbXbXbXvXkX!.E.c.l.l.l.C.A.Q.gXgXQ.l.                                        ",
"                            j.B.^.Q.Q.B.B.N.k.k.d.k.j.z.z.5 8  .| { 3.3.[ [ [ 7X7Xt.q.*.E g h u 0 @ ; W.NXNX!.v.4 & & @ O & Z Z C V C C C Z C C F F P P U X.Y U U | ......o.4.7.7.7.8.8.8.8.8.8.8.8.y.y.y.y.u.u.u.u.u.u.u.u.u.u.}.}.}.}.}.yXtXtX}.}.}.}.}.}.}.}.}.}.}.|.|.y.y.y.r.i.wXwXwXi.i.i.wXiXiXOXOX@X@XXX|.w.%.5.OX@X@X@X@XOXOXOXOXOXOX+Xo.U T X.T T T X.U T T T U P L L T T L L H.&XBXFXAX:X/.X.O.5.6.1.1.=.( =.-.,.3.<.<.r.q.y.y.y.|.}.y.6.6.;.1.1.,.,.-.=.,.1.r.t.t.u.|..X*X:XBXCXDXDXJXDXAX*X*X%XU.U.U.U.=XBXBXBX3X+X}.u.9X7X7XqXqXwXwXwXOX@X2X3XGXAXDXGX3XOXi.i.OXOX@X@X@X@X@Xw.>.<.u.e.o.T H.H.G.K.M.L.I.=X-XBXDXDXJXJXJXGX3X|.u.w.q.7.o.(.(.`.`.`.'.>X,X3XAXGXGXDXDXDXDXDXDXDX1X2X.X(.o.%.5.O.O.I I 6 x.x.n.n.n.n.Z.!.NXVXHXbXbXnXnXnXKXHXlXhXhXjXlXlXlXlXlXlXlXlXjXzXjXlXxXbXbXbXvXvXlX!.R.v.c.m.m.C.C.A.A.A.C.j.                                          ",
"                          l.^.gXmXmXA.B.N.N.N.k.k.k.k.b.m.c.T. .+.>.>.3.3.3.r.w.O.P 4 & u u p e O o z.SXHXSX!.v.4 i @ % $ C Z C C C C C C C C C C P U T U T U U U U U U ........4.4.7.7.7.7.8.6.6.8.8.y.y.y.y.y.u.u.u.u.u.u.u.u.u.}.}.}.}.}.}.}.}.}.|.|.}.}.|.|.|.|.|.|.|.y.y.r.q.i.iXwXi.i.i.i.OXOXOXOXOXOXOXXX|.w.%.5.OXiXiXOXiXOXOXOXOXOXOX@X{.U U T P U T U U P P P L m L L M M M R L J.`.%X_.H.P X.7.5.6.1.1.=._ _ =.3.3.<.>.6.q.w.w.w.|.|.}.}.y.;.;.1.1.,.=.=.=.;.<.r.q.w.y.{.>X:XBXAXDXJXJXDXAX*X*X%X-X=X=X=XMXBXCXAX3X4X}.u.t.2.2.7XqXwXwXwXOXOX@X4X3X3X3X4X+Xw.e.e.{.{.+X+X4X4X4X@X|.u.u.|.{.).(.(.P.L.I.$X$X-XBXBXDXDXJXJXJXJXGX+Xu.i.u.w.{.{..X.X.X>X>X2X2X3X3X3XGXGXGXAXAXAXAXAX1X1X1X1X:X*X(.(. .I I 6 6 x.x.n.M.I.=XNXNXVXSXHXHXHXbXHXHXSXjXhXjXjXjXjXjXzXzXzXjXhXgXhXjXlXlXkXlXlXlXjX&X/./ 7 c.c.m.m.C.C.m.j.                                              ",
"                        N.mXmXkXmXmXfXB.B.N.N.N.N.N.C.C.C.m.T./. .+.| S d d 3 3 2 9 * & i i w + O o C.KXKXHX!.v.3 @ % % m Z C V b b V V C C C C U U T T T T U G G G G G G U Y Y ....4.9.9.5.5.6.6.8.8.8.0.y.y.y.0.y.y.y.u.y.y.u.u.u.u.u.u.u.}.}.}.}.|.|.|.|.|.|.|.|.|.|.|.y.y.0.6.u.iXOXOX}.|.|.OX#X@XOXOXOXOXOX|.w.%.%.OXiXiXiXiXwXi.i.i.i.OXiXOXO.U P T P P P P P P L m V C M v c r v M T T T L L P O.7.5.;.1.;.=.( { =.=.=.&.5.5.5.O.7.7.7.w.|.|.|.r.;.1.,.,.=.=.#.#.&.6.q.5.8.{..X>X:XAXDXDXDXDX3X).'.*X:X-XBXBXCXCXCXAX3X4X}.t.2.2.3.2.t.t.i.i.OXOXOX@X@XXX{.|.w.e.O.(.(.). X.X>X2X4X4X4XXX|.u.OX{..X'.`.%X%X%X-X:XBXBXGXDXJXJXJXJXDX4XOXi.i.OX|.XX@X@X@X@X@X@X@X@X@X@X+X+X+X2X2X*X*X:X:X:X1XAXAXAXAX:X_./.H.I 6 G.H.L.$X-X-X:XBXNXVXVXVXSXFXVXNXMX;X;XMX!.!.jXjXhX!.!.Q.!.!.jXjXjXlXlXjX=X$X/.I I 7 8 8 c.c.z.<                                                     ",
"                      B.mXmXkXmXmXmXmXQ.B.B.B.B.B.C.C.m.c.c.8 2 9 .     . . % o * b B d a w @ + O o C.HXKXFX_.3 O % % b Z V V V V V b C V C C F U U U P U U U G F F F F G G G G Y ....4.4.4.9.9.9.6.6.6.0.0.0.0.0.0.0.y.y.y.y.y.y.y.y.u.u.u.u.u.u.|.|.y.|.|.oXoXy.y.oX|.|.y.y.0.6.u.OXOX|.{.{.{.{.@X@X@X@XOXOXOX|.8.%.*.OXiXiXiXwXi.t.wXwXwXi.i.OX{.U P U U P P P P P V b C M v c c r r v R Y o.U F C ..7.5.6.;.;.=.=.=.;.=.$.*.} ....Y o.o.(.(.{.{.OX}.r.1.3.3.;.#.@.E %.*.5.4.7.[.{..X>X,XAXAXAX3X>X{.{..X*X:XBXCXCXDXDXGXZX4X}.t.2.2.2.2.t.u.u.|.OX@X@X@X4X@X|.w.q.O.(.J.H.J.`.`.*X>X2X2X2X>XT N Y (.{..X.X.X>X>X,X,XZXZXGXGXDXJXJXJXDX3X{.q.q.w.{.|.|.OXOX}.u.t.t.t.i.u.e.e.{.{.).(._._.%X:X:XBXBXAXAXFXAX:X*X*X&X_.`.$X&X:X*X:X:X:X:XBX;X;X;X;X;X;X;X;X;X&XW.W.W.Z.Z.Z.!.!.!.jXjXjXjXjX!.R.7 V 4 4 2 2                                                               ",
"                    B.mXmXmXkXmXmXmXmXgXQ.A.B.C.C.m.< =                   . * d E D s a u w + + O O ; W.&Xv.3 % % % 3 Z V V V V V V V C Z Z C U U U U L C U F F C B F F F F F G U Y Y Y 4.4.4.9.4.9.9.6.6.8.8.8.0.0.0.0.0.y.y.y.y.y.y.y.y.y.y.u.u.y.y.y.y.y.y.y.y.y.y.y.y.y.y.0.6.8.OX@X.X{. X{..X.X@X@X@X+X|.|.{.5.H 6.OXiXwXwXwXqX2.7X7X7Xt.wXOXOXO.P U P P P I P P V b M v r r r r r r v U 4...Y G G ..%.q.r.1.=.:.:.;.>.>.%.} ....T T X.(.(.[.{.XX@X}.r.,.=.;.$.@.@.} ..o...T X.(.)..X>X,X3X*X.X{.{.oX{.>X:XBXCXDXDXDXGXZX4X}.t.2.3.3.2.r.q.[.[.{..X.X+X4X4X@X#X{.o.T H.H.H.H.L._.%X*X,X3X3X`.: v M C F o.[..X.X>X,X3X3XGXGXGXDXJXJXGX,XT m B ..7.8.w.y.w.r.r.1.1.r.r.q.>.q.O.X.H.H.H.L.L.I.$X;XBXBXFXDXDXDXFXFX1X:X:X;X;X:X*X'.'.'.'..X.X'.*X*X*X*X*X'././.T.T.v.M.R.W.W.~.!.~.~.~.!.!.~.~.W.v.8 2 2                                                                 ",
"                  B.mXkXmXkXmXkXmXmXmX^.C.m.j.1                         & d @.l z s a a u w w + X O % % % % % % % & Z Z V V V V V V V Z V Z P L L U U L L C F C B B F F F F F F G G Y Y Y 4.4.4.4.4.4.9.6.6.6.6.6.6.6.0.0.0.0.0.0.y.y.y.0.y.y.y.y.y.y.y.y.0.8.8.y.y.y.y.8.8.0.0.6.4.|.+X.X`.(.(.`..X2X@X@X{.|.XX{.4.H 6.iXwXwXwXqX2.2.2.2.7XqXqXwXiX7.U U P  . .U P Z m M M c r r r r r r c M Y o...Y H H } q.t.1.=.#.$.=.$.&.%...X.X.T T T (.(.(.[..XXX@X|.1.<.=.;.&.*.} ..X.U L I J.(.`.'.>X>X.X{.{.|.w.w.{.>X,XGXDXDXJXGXZX@XOX9X2.3.3.1.6.O.(./.(.`.'..X>X2X2X2X.X(.(.H.G.x.x.K.L._.%X*X:X1X1XH.3 v i p H 5.8.|.{.XX+X2X4X3XGXGXGXGX4X@XOXe.} S H } 4.w.6.*.&.&.;.;.<.&.5.O.X.I K K v.x.L.M.M.I.=X=XNXSXSXSXSXSXSXFXFXFXFXFXBX:X'..X{.{.+X+X+X+X@X#X#X#X#X+X'.'.&X&XW.W.W.W.W.R.R.W.~.!.~.~.!.~.W.M.8 2                                                               ",
"                k.fXmXkXkXmXgXgXQ.B.l.j.<                           * d ) ( ( z h h h s u w w @ X O % % % % % % $ V V V V V V V V V V V Z P P L L L L P L C C C C B B C B F F F F F H H H ! 4.4.4.4.4.4.9.9.9.6.6.6.6.6.0.0.8.8.0.0.0.0.0.0.0.y.y.y.y.y.y.y.0.0.0.8.8.8.8.8.8.8.6...{.>X>X`.`.P.`.*X>X+XXXXX{.{.{.4.D 6.wXwXwXqX7X3.3.3.3.3.3.7XwXwX}.U P P X.X.X.T L b M v r r r r r r r c v R o.4.......H *.u.1.=.#.#.$.$.*.%...X.X.T P I H.J.J.(. X.X.XXXu.2.3.3.<.>.O.X.U P I K I H.J.`.'..X.X.X{.8.r.r.y..X,XGXGXDXDXGX3X@X}.9X9X2.3.<.5.X.J.H.H.L._.`.*X>X3X3X2X'.(.H.H.K.n.n.M.M.I.%X:X:X1X3X.Xo.G S S 4.6.8.8.w.y.u.|.OX@X@X@X@XiXiXiXiX#Xe.O...Y 4.%.%.@.#.#.#.$.$.*.O.X.L K 6 x.x.x.n.n.Z.I.=XNXFXSXHXHXHXHXSXVXVXFXFXFXAXAX3X2X@XOXOXOXOXi.wXi.OX#X+X+X5X1X;X;X~.!.~.W.m.m.m.C.C.Q.Q.!.jXhX!.~.M.8 2                                                           ",
"                l.^.gXmX^.^.C.l.j.1                             * d ) ) ) j z h g f s u u u 0 @ X X % % % % % o V L V V V V V V V V Z L V Z L L L L L L Z C C C C C B B B B B F F G F H H H H H %.W W 4.4.9.9.9.9.9.6.6.6.6.6.6.6.6.0.0.0.0.0.0.y.0.0.y.0.0.0.0.8.8.8.8.8.8.8.9.9...(.>X*X%XL.L.$X:X:X>X.X.X{.{.[...D *.wXwXqX7X3.3.3.3.7X[ 3.3.qXwXwX5.U X.X.X.X.T L b M i r r r r r r r r c M Y 4.4.4.4...} 5.0.&.;.=.=.;.$.%.o.X.T I I H.G.H.H.J.(.`..X.XXXt.qXp.t.q.5.X.T L I K K G.H.J.`.'..X.X{.8.;.1.r.|..X3XGXGXGXGX>X{.u.9X9X9X2.r.5.o.H.H.H.L.L.L._.*X:X3X3X>X'.P.L.K.n.n.M.Z.Z.=X:XBXAX3X4XsXiX|.5.J H 4.6.6.&.;.1.t.9Xi.i.wXwXwXiXiX#X@X@X{.o.J D E E @.#.#.#.$.*.} U L K K x.x.x.x.n.M.I.=XNXVXSXHXHXHXHXHXSXNXNXCXFXFXFXDXAX3X@XiXwXi.p.i.i.OX{.).'.*X;X;X!.!.jXjXjXjXQ.C.k.k.V.C.Q.hXjXjXjXhX~.m.8 1                                                       ",
"                < l.l.j.<                                   o & g ) ) j z h h h g g s u u u 0 + X X % % % % O 3 P V V V V V V V V L V V V Z Z L L L L P Z C C C C C B B B B B B F F J F H H H H H H H W W %.4.4.4.4.4.9.6.6.6.6.6.6.8.8.8.8.8.8.8.8.w.8.0.0.0.8.8.8.8.8.8.9.9.9.9.W O.*X:X%XI.M.$X:X:X>X.X{.{.{.7.H D %.i.wXqX7X3.[ 3.[ [ [ 7X7XqXqXwXw.X.X.X.X.X.P L v b v r r r q r q r r # c F 4.4.9.4.4...H %.*.&.;.=.;.;.6.5.o.P I H.v.x.6 G.H.H.(.`..XXXOXwXqX2.r.6...P I K K G.x.G.H.H.`.'..X.X{.&.;.1.t.u.@X2X3X3X4X[.4.8.t.9XwXt.u.w.(.H.H.x.x.M.K.I.$X-X:XAX3X>X`.P.L.K.Z.Z.Z.Z.U.;XBXAXGX4X@XiXiXiXiXu.q.%.E E #.<.<.3.2.2.t.t.u.OXOXOX@X@X4X+X(.U H E @.$.;.$.&.&.%...T I K G.x.x.n.n.M.I.=XMXVXSXHXHXHXKXHXHXVX!.MXNXFXDXDXDXDXGX4X|.u.p.p.i.e.).).].&X$X~.~.~.!.jXjXjXjXzXQ.N.k.N.C.Q.gXkXkXlXkXzXQ.m.j.<                                                   ",
"                                                          * A a.) z z h h h h h g g g s u u 0 + X % % % % O 3 I Z V V V V V V V L L I I Z Z L Z L L L L P Z Z C C C C C B B B B F F F J J F J G H H H H W W W W %.4.4.4.4.9.9.6.6.9.6.6.6.6.6.6.8.8.8.8.8.8.0.8.8.8.8.8.8.6.5.9.4.H U '.:X-X$XZ.=XNXBX:X.X{.[.7.O.H D %.t.wX7X7X3.6X[ [ [ [ rXrXqXqXqXu.7.o.X.(.X. .V 3 M v r r r q q q r r r r v Y 4.4.4.4.4.......4.*.;.1.r.q.8.o.T I H.v.x.x.x.v.H.H.`.`..XXXwXwXwXt.w.7.T I K K x.x.x.G.H.H.`.'.>X.Xr.;.1.1.1.t.|.|.OXOXi.6.H *.r.9XwXu.y.[.J.H.x.n.n.n.I.I.=XBXBXBX3X*X`._.I.I.Z.Z.Z.=X;XBXAXZX3X@XiXwXwXeXeXiXi.;.#.$.$.<.<.<.1.<.r.w.w.{.{.+X+X2X2X2X.X[.5.*.;.3.3.1.>.q.q.7.(.J.H.H.L.L.L.$X=X=XNXVXSXHXHXHXHXKXHXLXS.=XMXNXDXSXDXDXDXAX>X7.q.>.e.O.X./.H.M.M.Z.W.Q.Q.Q.hXjXjXlXlXzXQ.B.B.A.gXzXkXkXkXkXkXQ.l.j.z.<                                               ",
"                                                      2 4 | | a.g z h h h h h g g g g u u 0 X X X X X O $ 3 V V V V V V V V V V V V V I V Z L C C L L L P P Z C C C C C C B n C B B F F F F F G G G H H H H H H H H %.%.%.%.4.9.4.6.6.6.6.6.6.6.9.8.9.8.8.8.8.8.8.9.8.9.9.9.4.4.%.H F `.:XBX=XS.!.NXAX:X X[.(.o...G S D t.wX7X3.[ [ rXrX[ [ [ rXrXqXqXp.w.o.X.(.(.P V 3 M v r r r r r r r # r r r N Y 4.4.4.4.o.o.T Y H } *.;.r.8.7.(.J.H.v.x.x.x.x.x.H.L.`.'..X{.i.wXu.u.{.(.I K 6 6 x.x.x.G.H.P.`..X.Xy.;.;.1.1.1.3.1.t.wXwXwXy.H S :.wXi.|.{.`.P.L.n.n.D.Z.Z.=X;XBXBXAX,X%X%X$XI.U.U.U.=XMXCXAXGXZX4X}.9XwXwXwXeXeXeXi.q.&.<.<.&.&.*.%.%.4.(.)..X.X2X2X3X3X2X.X8.r.2.2.t.t.t.u.|.{.{. X`.`.%X%X%X-X:XNXVXSXHXHXHXHXKXHXHXMX!.MXCXDXDXJXJXJXSXFX*XO.+.+. .I 7 c.c.m.m.b.V.C.A.A.gXhXjXlXlXlXgXA.A.gXzXkXkXvXvXvXlXgXC.j.j.j.                                            ",
"                                                  2 8 4  .| g g g g h h h h h z g g u u 0 0 X X X X O $ m V V V V V V V Z Z V V V V I L L L C C C L L L L P P Z C C C C B C C n n n n n N F F F F F S G H H H H H H H %.4.%.4.4.4.9.9.9.9.9.6.5.9.6.6.9.9.9.9.8.9.9.9.9.6.4.4.%.W H F /.:XBXMXhXjXVXDX:X(.X.o.o.X.G d g t.qX2.3.[ [ [ [ [ [ [ rXrXqXqXwXu.O.(.(.(.P L 3 M v # r r r r r # # # r r M F ! 4.4.o.o.X.T T U Z Z G 6.w.{.(.(.H.v.x.x.x.x.x.K.L.P.`.'.X...r.u.}.{.[.J.H.6 x.x.x.x.x.H.L.`.%X.X|.;.1.=.,.1.3.1.t.t.wXwXwXu.S w s r.OX{. X`.L.K.n.D.D.Z.S.=XBXBXBXZX*X*X%X-X=X=X=XMXMXCXAXGXGX4X}.t.2.qXqXwXwXeXeXiXi.r.&.*.*.%.H U T T J.J.`.'.>X3X3X3X3X2X|.t.t.9Xt.i.i.i.OX{..X.X.X>X>X>X:X:XBXBXVXSXSXHXHXHXHXSXMX=XMXCXDXJXJXJXHXHXHXDX*X)./. .7 v.c.c.m.b.b.b.V.C.A.A.Q.hXkXlXlXkXzXgXgXzXkXkXvXvXvXvXkXzXA.m.k.j.                                          ",
"                                                5 8 8 4 d d d g g g h h h z z z h h h h u 0 0 X X % & I I L V V V V V V V Z V V V I L P Z C V C C Z L L P P P L Z C C C B C C C n n n n n n N F F F S S S J H H G H H Y 4.4.4.4.4.4.9.9.9.9.9.9.9.9.9.9.9.5.7.9.9.7.9.9.9.4.4.H H S n I :XAXVXjXlXSXDXBX(.T T Y U F p a 1.qX2.3.[ [ [ [ [ [ [ [ rXqXqXqXi.7.X. . .P V 3 M v & # r r r r # # # v v b C Y 4.4.o.X.X.X.T  .P P V F 7.{.{.(.J.H.x.x.x.x.n.x.K.L.`.`.(.L F } w.|..X(.H.G.x.x.x.x.x.K.K.`.%X>X.Xr.;.,.,.1.1.1.1.t.t.wXwXwXu.N + e H {..X'.%XI.I.Z.D.Z.S.=XCXCXCXBX,X>X*X-X-X=XMXBXCXCXDXGXGX3XXX1.7XqXqXqXwXwXwXeXiXiXOXq.*.} Y T I K K G.H.H.`.*X,X3X3X3X2X|.u.t.t.t.i.i.OX|.{.{..X.X.X>X>X>X:X:XBXFXFXFXSXSXSXNX=X=XBXCXDXJXJXJXHXHXHXHXAX1X*X*X_.v.z.b.b.b.b.b.b.V.V.A.A.gXzXlXvXvXvXzXzXzXkXvXvXvXvXvXvXkXzXQ.C.m.j.                                        ",
"                                            1 5 z.5 2 4 4 d d g g g g g h z z h h h f h u 0 X X % o 4 I Z Z V V I V I I V V V Z Z L I V Z V V V L L P P P P P P L P L U C F C B B n n n B B B B B F S S S S S S J G H Y 4.4.4.! ! 4.4.4.4.4.4.4.9.9.9.4.9.9.9.7.9.7.5.9.9.4.Y H G S n V :XDXSXVXHXHXSX:XJ.P T U G B i u &.2.7X3.[ [ [ [ [ [ 3.3.qXqXqXqXi.w. .I I L V v b v v r r r i i v v v n U U G G ......o.X.X.X.P P P V V U o.[.{.`.H.x.x.x.x.n.n.x.K._.`.`.I L C Z O.{.{.(.H.G.x.x.x.x.x.K.L.%X>X.Xy.;.3.1.<.<.<.<.<.t.u.u.wXwXu.S q q N {..X`.%XI.I.Z.U.U.MXCXCXCXCX:XP.>X*X:XBXBXCXCXDXDXDXGXGXXXr.1.2.2.2.p.p.wXwXiXiX@XOX|.O.X.T I K K x.G.G.L.%X*X,X3X3X3X4XXX} S S D %.5.6.q.r.y.y.u.OX|.{..X'.*X1X:X:X:X;X;X;X-X:XBXBXDXDXDXJXJXKXKXHXFXBX:X:X;X;XW.m.b.b.b.b.b.V.C.A.A.gXzXlXbXbXvXvXzXzXkXkXvXvXvXvXvXkXgXgXQ.Q.m.j.                                      ",
"                                        = z.z.z.5 2 2 2 3 b d d g g g g z z j z h h h u 0 X X % X $ V L C C Z L I V L I V V L L L L I V Z L I I L P P P P P U T T T U T U U U C B B B B B B B S S S S S S S S S J H H H ! 4.! ! ! ! 4.4.4.4.4.4.4.4.4.4.4.4.4.7.7.4.4.4.4.Y Y G G B M 3 $XDXJXHXKXKXJX:XH.L L L F n i @ D 2.2.7XrX[ [ [ 3.3.3.3.3.7XqXqXqXt.} V V V V v b M v i r r i n F Y ..o.7.7.7.5.o...G U U U P P P P V v n v C (.`.`.L.n.n.n.n.n.n.n.L.`.`.J.P L Z B X.{.(.J.K.n.x.x.x.n.n.L.I.%X>X|.1.1.1.;.&.*.*.&.r.r.u.u.u.OX|.F # q p [. X`.%XU.U.U.=XMXCXCXDXDXAXL.J..X:X:XBXCXDXDXJXJXGXGXXXr.<.3.3.1.2.t.i.i.OXOXOX@X@X+X(.H.K K 6 x.x.x.K.L.$X:X,XGX3X3X4XiXy.4.G } %.&.r.u.t.t.t.p.p.i.w.{.+X'.'.*X*X*X*X*X:X:X:XBXAXAXDXDXJXJXJXHXNX:X&X;X;XNXNXjX!.D.b.b.b.C.A.A.dXhXzXlXbXbXbXvXkXzXzXzXkXkXkXvXvXkXgXQ.gXgXQ.C.j.                                    ",
"                                      < j.z.j.j.< 5 2 2 3 4 & d d g g g z j j z h h u X % % % X O 3 Z Z C Z Z L P L L L I P I I V V V I V I I L P P P P P V 3 3 b m V Z U T T U C C B B B B B S S B N s s N S F F J J F H Y ! ! H H Y Y ..Y ! Y Y Y Y 4.4.Y 4.......o...4.Y G G F B n 3 M.DXHXKXKXKXKX:XI L L C V b & O s 1.7XqXrX[ [ [ [ [ [ 3.3.3.2.2.p.t.5.b V 3 V v v M v v i i p n Y 7.7.5.7.5.5.6.5...G B A C C P P P C v M v 3 m (.`.L.L.n.n.n.n.n.n.L.$X'./.I L C C n T  X`.L.K.n.x.x.n.n.K.L.%X>XXXr.t.1.;.&.*.*.*.6.6.q.w.y.|.OX|.C r q t Y  X%X%X-X=X=XMXCXDXDXDXDX%XK J.>X,XBXDXDXJXJXJXGXGXXX;.;.;.;.<.&.q.y.u.}.OX@X@X2X4X2X`.G.G.x.x.x.x.n.n.L.%X:X3XAXGX3X4XiXiXy.5.4.q.u.u.i.wXwXwXwXi.i.OX#X+X+X.X.X>X>X>X>X>X,X,X:XBXAXAXFXFXFXNX=X$X$X$X=X!.jXjXNXMX!.C.C.S.S.!.hXzXlXvXbXbXbXvXkXzXhXzXzXzXzXkXgXfXA.A.gXgXgXQ.C.<                                   ",
"                                  - z.j.j.s.s.- - 5 ; 2 2 & & d d g g ) ) ) j h u X % % % % % X i Z Z L L P Z P P P P P L P L I L V I L I I I I I P P b @ $ & v v b 3 3 b V P U P Z C C C B B n n p a p a d F G U Y Y Y Y Y ! Y H H Y Y Y H H Y Y Y Y Y Y Y Y Y ..........Y G G F n b 3 v.FXKXKXKXKXKX;XI I V m m v & $ & >.qXqX[ [ [ [ [ { [ 3.3.3.2.2.p.p.t.n v m m v b M m v v i n J Y 5.e.5.*.*.*.*.*.*.*.D S i b b C C C v M M v 3 v J.`.L.K.n.n.n.n.n.L.I.%X`.I L U F B n T (._.L.n.x.x.n.n.n.L.%X<X>X|.r.r.<.&.*.*.*.4.....7.w.{.|.OX{.n q t t U  X%X%X-XBXCXCXDXJXJXDX3XJ.L (.>X3XAXDXJXJXJXGXGXXX;.;.&.*.&.5.5.4.7.[.{..X.X2X2X3X1X%XL.H.G.G.x.n.n.L.U.-X:XZXGXZX3X@XOXiXOX{.7.5.q.q.&.>.r.q.q.q.w.7.o.[.[.{.{.[.{. X.X.X.X>X*X*X:X:X$XM.M.v.M.M.Z.Z.!.!.hXjXNXNXjX!.!.!.hXhXlXlXlXvXbXbXvXzXQ.C.C.B.B.B.N.N.N.B.C.A.gXgXgXgXC.                                  ",
"                              - j.b.k.s.s.s.- - - - ; ; ; 2 3 & d g a.z g g u X % . . . % % X & C Z Z L P P P L P P P P P P P P Z V I L L L I I  . .b & & 3 3 & i v & & 3 3 b V Z Z Z Z Z B B d a a a a S G G U Y ....Y Y Y Y Y G G G H H G H H Y H H H Y Y Y Y Y ..Y ..Y Y G F B n b 3 5 NXKXKXKXKXKX&XK I V m m 3 3 $ O | t.qX2.2.3.3.3.{ { $.3.3.2.2.2.p.i.D # b m m v b v v b n B F H 5.6.6.%.#.&.;.=.&.&.&.*.%.H B b b m v v M v M v v (._.L.n.n.n.n.n.I.I.%X XX.P F F F B C (.`.P.K.n.n.n.n.n.L.%X%X>XXXu.1.1.&.*.%.%.....Y ..o.[.{.XXXX{.N t t e F `.%X:XBXCXDXJXJXJXGX4X@X[.F (.>X3XGXGXJXJXGXZX|.r.1.;.&.*.4...Y T T (.(.`.>X>X,X:X:X*X_.P.K.K.K.n.L.I.-X:XBXZXGXGX3X@X@X@X@X+XX.3 @ @ X @ & i a B Z F F H %.} D E %.6.6.6.6.7.(.(./.v.v.x.x.n.n.n.M.Z.!.!.jXjXVXjXjXjXjXjXjXjXjXjXlXlXlXjXQ.C.c.j.k.k.F.k.N.N.N.C.A.gXgXzXzXgXC.                                ",
"                          < k.l.k.k.d.s.s.s.- - - - - ; > 2 2 3 d d d u @ %             % % & A Z C Z P P P P P P P P P L L L L L L L L P I H._./.V 3 3  .O.Z 3 v v $ $ & & & 3 3 V V Z C B n i i i p F } ....7.7.7.o.Y Y T T Y U G U U G G G H H H H G Y H H H H Y Y Y Y U G F C V m 3 2 &XKXKXKXKXJX$XK V V V m m 3 $ % a 2.p.p.2.3.3.>.$.$.>.>.>.r.r.u.i.i.r.i & b n b b M v n B F G H 4.*.*.$.$.;.=.;.;.;.;.;.6.6.6.%.F n i & M b L U C C (.P.L.n.D.D.D.I.U.%X.X{.o.G F F F F C (.`.L.K.n.n.n.n.K.U.%X>XXXu.r.1.<.*.*...o...U U T o.(.[.{..X XF t t t R `.*X:XBXCXJXJXDXZX4XiXiX|.Y (.>X3XGXGXGXGX4X|.1.1.1.q.5...U P I I H.H.J.`.*X*X:X:X1X,X%XP.L.L.I.I.U.-X:XBXAXDXGXGX4X@X@X@X@X4X@XXX8.S i i a a S A B S J E @.@.@.%.*.&.&.&.5...X.I v.v.x.x.x.n.b.b.b.C.S.!.hXjXlXlXVXNXMX=X=X;XjXjX;X!.W.M.m.c.b.k.k.N.N.N.N.V.A.A.gXgXzXzXzXgXl.                              ",
"                        z.m.N.N.k.d.s.s.s.s.- - - - > > 5 2 3 3 & * % .               . % & A Z Z Z P P P P P P P P P P L P P P L Z L P P v.$X=Xv.3 6 _.].'.).I v # $ # $ # & & & & & b b i i i i i C O.5.5.w.w.w.{.7.o.Y T Y U G G U G G G G G G G U G G G H H H Y U Y Y G G F C V b 3 3 M.KXKXPXKXJX_.V V V V m m 3 & O @ *.t.p.2.3.<.>.*.*.>.>.>.q.q.q.r.i.OXB @ # M n v b M n B F G } %.*.&.$.=.=.=.:.=.;.<.<.q.>.q.w.8.7.G i v C C U Y H Y `.P.I.I.Z.Z.U.-X-X>XXX|.7.Y H F F N L `.`.I.K.n.n.K.I.U.-X>XXXu.r.r.<.6.5.5...o.U R L L J.(.(..X.X XT t t t N (.>X,XBXDXDXGX3X@XiXpXpXiX7.F  X3XGXGX3X@Xu.2.2.2.r.5.o.T I I H.G.H.H.L.`.%X*X:X:X3X,X*X%X%X%X%X%X-XBXCXAXDXDXDXGX2X2X2X4X4X2X4X@XOXi.u.q.q.y.w.w.6.%.E k ) #.$.$.$.$.>.5.+.X. .H.v.x.x.x.x.b.b.b.D.Z.S.hXjXlXlXlXVXBX:X*X&X&X;X;X&X$XR.v.m.m.C.V.V.N.B.C.A.A.dXgXzXzXkXkXkXA.j.                            ",
"                    j.m.C.C.N.k.d.d.s.s.s.- - - - < > 5 5 2 2 o o                     o & Z Z A Z Z P P P U T U P P P P P P P P L L U C 3 W.SXNXM.c.&XFX1X&X'.).V $ @ O O O $ & & @ & i i i i i & B ..O.5.5.q.w.y.|.w.7.O.Y U G G Z Z Z G G G G G G U G G G G F G G G U U G F F B C b 3 3 6 SXKXPXKXFXv.4 m m V m 3 3 & $ X g p.t.2.r.>.>.5.5.%.5.5.O.O.7.w.|.|.o.O @ i M M b n C U U } %.%.*.$.$.=.#.:.:.;.<.<.q.6.q.8.w.{.{.{.[.U n C Y 7.6.%.o.`.%X$XU.U.=XBX:X>XXX|.y.8...Y Y F M J.`.%XI.I.I.U.U.-X:X,X>X|.u.r.r.r.8.5...T R K K K I J.(.'..X.XXX9.N t t n T .X,XAXGX,X>X}.wXwXeXiXiXy.F T  X.XXXyX9X9X9Xp.t.w.o.(.J.H.H.G.G.G.L.L.I.%X:X:XBX,X,X>X<X<X:X-X:XBXCXDXDXDXDXDX:X*X>X2X2X3X3X4X@XwXwXwXi.OXOXOXiXiXwXt.<.;.;.;.;.<.>.5.+.O.X.H.H.x.x.x.x.b.n.b.D.Z.S.hXjXlXlXbXlXVXBX%X].&X&X;X;X;X~.E.E.C.C.C.C.A.A.A.A.A.gXgXzXzXkXkXkXgXl.                            ",
"                j.l.C.A.C.B.k.k.d.d.s.s.s.s.- s.s.z.5 5 5 2 o .                   . * V  . .Z Z Z P P P U X.X.U P P P P P P P P P T B @ > DXKXDXZ.W.FXJXJXFX*X).& O O $ 3 I /.V & @ & b b p i @ i B H } 5.5.q.q.q.y.y.w.{...U G Z Z Z Z G G G G Z P G G G G F F F G G U U U F F B m b v 3 , !.KXKXKX;X7 V m m m m 3 3 3 & O & >.p.p.r.q.5.5.O.+.} O.O.O.(.).{.{.{.& $ # v n M n C U ..7.6.%.$.#.{ #.#.=.;.;.q.q.5.5.5.7.[.[.{.{.{.{.o.U o.7.y.&.%.(.%X-X-XBXCXCXBX>XXXy.y.|.w.o.Y G M M (.%X%XU.U.U.-XBXBXZX<X|.u.t.t.r.8.4.X.P K K K K K G.H.`.'..X.X|.|.! N N N Y [.>X>X.X{.y.u.wXwXwXwXwXwXD t v p Q 1.9XwXwXi.u.{.(.J.H.H.G.G.x.K.K.L.U.-X:XBXZX,X,X>X>X,X,X,XBXCXDXJXJXJXDXDX=X%X*X>X3X3X3X4XOXi.p.eXOXOX}.OXi.wXwXwXwXwXwXt.2.r.q.q.7.o.(.H.H.x.x.n.n.n.n.Z.S.S.hXjXlXxXbXbXbXlX=XW.R.W.~.~.jX~.~.W.C.C.A.S.A.A.A.A.Q.gXgXzXzXkXkXvXkXC.                            ",
"              j.B.Q.Q.A.B.N.N.k.d.d.s.s.s.s.s.z.z.z.8 2 2 o .                 o & | O.O.| G U | | X. . .X.X.X. .P P P P P P P P U F w q 6 JXKXJX&XW.DXKXJXAX'.Z $ o 8 &X:X&X]. .3 & V Z B n n i d B D } *.5.&.&.>.q.r.w.{.O.U C Z P P P U U Y U G C C F F F F F F F F F G G Z C C m m 3 3 3 M.SXHXSX_.7 V m m m m 3 3 3 3 $ X | p.i.r.e.5.O.O.O.P P  . .(.(.)..X.XL O $ # v M b n Z ..w.6.*.@.) ` _ #.=.&.6.6.5.5.5.o.X.(.[.[.[.{.{.{.[.o.7.y.r.:.9. X%X:XBXCXCXBX>X{.y.u.|.|.{.9.Y F v M `.%X%X-X-XBXCXCXBX,X[.8.r.t.t.r.5.Y P K K K K K G.G.H.`. X.X|.u.u.0.H N N ! Y Y 4.8.r.r.t.2.qXwXwXwXwX%.e y y h z ;.9XwXOX|.{.(.J.G.G.x.x.n.n.K.I.$X-XBXZXZXZX,X>X>X,X,XZXAXDXJXJXJXJXDX=XL.L.%X*X3X3X3X4X@Xi.i.OXOXOXOXOXi.wXwXwXwXwXwXwXi.u.u.w.{.).`._.L.L.M.M.M.Z.S.S.!.jXjXlXbXbXbXbXbXlXQ.m.W.W.~.~.jX~.~.Q.C.C.C.S.A.A.A.!.Q.Q.gXgXzXzXzXQ.k.                            ",
"            l.B.fXfXgXA.B.N.N.k.k.k.d.d.k.k.b.z.z.5 2 . .                   A +.i.i.w.+.| | X.X.X.X. .X.X.X.X.X.X.X.P P X.U P C B a u w : &XDX:XH.v.FXJXDX1X/.& O 5 FXJXJXNX&X(.V 3 P Z B n n n d D } %.@.*.&.>.&.>.q.q.w.7.U b b m V V B C T U U B n n F F F B F F F F F G F C C V m 3 3 3 6 =XNX=XH.m V m m m m m 3 3 3 * O d >.i.w.e.O.X. .I I I I H.H./.`.'..X).$ $ # r M M M C U w.6.*.#.=.=._ =.$.&.6.5.5.O.o.X.J.(.(.(.[.[.[..X.X[.7.y.r.;.;.8. X,XZXCXZXZX<X{.8.w.w.|.|.{.o.U M c K `.%X-XBXCXCXCXZX,X X9.;.u.t.r.6...L K K 6 6 6 G.G.G.P.`..XXXu.t.9Xu.6.9.9.W ! %.*.;.;.<.3.7XqXqXqXqXwX6.s y y e p f ;.}.OX{. X`.P.H.G.n.n.n.K.I.I.-X:XBXZXGX4X4XXX>X,XZXAXDXDXJXJXJXJXMXZ.L.L.%X:X3X3X3X2X@XOXOXOX@X@X@X@XOXi.wXwXwXwXwXwXi.i.OX{.{.'.'.`.$X$X$X$X=X=X=XMXNXVXVXxXbXbXbXbXvXdXV.C.C.Q.Q.gXhXhX!.S.C.C.A.A.A.S.Q.Q.Q.Q.gXgXQ.C.j.                              ",
"          l.^.mXmXmXmXA.B.B.V.V.V.b.b.b.b.b.z.5 =                         +.p.i.OXi.e.O.+.O.X.X.X.X.X.X.X.X.X. .X.X.X.X.X.U n M a u u e w & V V @ O 6 _._.I 3 & O z.SXKXKXFX&X).A 3 P Z B b b d S D } %.%.*.*.&.&.&.&.6.8.7.G b b i & b v M I P L M v n n p p a n B C C C C L C C m m 3 3 3 3 7 _.H.I V V m m m m m m 3 3 & o X +.i.{.e.(.(.I I I I I G.H.L._.`.'.'.V $ # # v M M n U {.6.*.$.=.=.( $.$.&.6.5.O.o.T I H.J.(.(.(.(.[. X.X.X[.8.0.0.;.r.{.>X,XZXZX,X.X[.7.7.{.{.{.{.[.Y N c c M `.%X-XBXCXCXZX,X X9.*.r.u.u.y.7.T K K K 6 6 x.G.G.P.`. X.X|.t.t.t.y.|.y.6.*.*.#.:.=.3.3.2.2.7X7XqXwXwXu.J p p y y p E 8.|..X X`.P.L.L.K.K.K.I.I.-X:XBXZXZX3X4XOXOX2X3XAXCXDXDXJXJXJXhXD.K.K.I.%X:X:XZX3X2X.X{.{..X+X2X2X2X@X}.wXwXwXwXwXi.i.OX#X+X.X'.'.*X%X%X&X=X=XMXNXNXVXVXxXbXbXbXbXvXmXN.V.V.C.A.Q.gXhXhXgXA.C.A.S.S.A.Q.Q.gXgXgXQ.m.                                  ",
"          l.A.mXmXmXgXA.A.A.A.V.V.m.b.z.< =                             A e.i.i.i.OXOXe.O.O.X.X.O.O.o.X.X.X.X.X.X.O.X.X.U G J N h h s s a d S d w X @ @ O $ 3 @ @ ; !.JXJXFX*X(.& & P C n i i n S } | | %.*.5.>.q.6.5.6.5.7.F b v & 3 v m _.:X'.m i n n t w t p p v C C C Z L C n n m 3 3 3 M m m V P L V V m V V V m 3 3 3 * O Z {.|.{.(./.H.v.v.v.x.6 v.L.L._.`.`.J.$ $ $ r v b b B 4.5.*.&.=.=.#.$.$.&.5.O.o.X.P I H.H.H.J.J.J.(.(. X.X{.8.0.;.;.1.r.{..X>X>X.X{.7.(.o.[.[.[.{.{.[.R N t t N J.%X:XCXZXZX*XY.9.*.*.r.u.|.oX[.T K K 6 6 g.x.x.G.L.`.>XXX|.r.r.r.u.u.r.&.;.;.:.=.=.3.,.,.,.7XqXqXwXwXu.W s s s s s s H [..X X`.`.P.L.L.K.I.I.-X:XBXZXGX,X4XiXiXOX+X2X:XBXDXDXDXVX!.D.n.M.Z.I.%X:XBXAX1X*X'.).'..X>X2X2X2X4XXXu.t.i.i.u.i.OX#X+X.X'.'.'.'.*X&X;X;XNXNXNXNXVXVXxXbXbXbXvXzXB.N.V.N.C.A.Q.gXgXgXgXA.A.Q.Q.!.Q.Q.gXgXQ.m.                                    ",
"            j.B.B.B.B.C.C.V.b.z.z.< 1                                 * +.i.OXi.OXOXOXw.O.O.O.O.O.O.O.O.X.O.X.O.O.O.....} H D g f f g f f D D d 0 @ & @ @ i # @ + + ; M.$X_./.& % % b B n i a B S } | } } } O.O.7.7.5.5.5.7.n i # @ i V &XDXJXGX6 v M t w q t r r r B C C C Z Z n m v & v M M v v b C L Z C C C C V b 3 3 3 & $ & e.{.{.)././.v.v.x.x.x.x.M.M._._._.`.3 $ # # # b n i F 4.6.&.$.=.#.#.$.&.5.o.X.I I I H.H.K K H.H.J.(.`. X.X7.6.;.1.1.r.r.w.{..X{.(.(.(.(.(.(.(.[.{.{.Y N N N N N J.<X,XZX,X`.R ! 9.0.0.;.y.|.{.(.H.G.x.g.g.x.x.x.H.P.`..X|.;.1.t.t.9Xu.r.;.;.#.l _ ` =.-.,.7XqXqXqXwXwXi.W s s s s s N H [. X X`.`.P.P.I.U.U.-XBXZXZXZXGX3X.X|.iXOXOX+X,X1XAXBX;XZ.n.n.n.D.I.U.-X:XBXBX:X&X_._.'.'.*X*X,X3X2XXX|.r.r.y.w.{.{..X*X*X*X>X.X.X'._.$X=X=XNXNXVXlXlXlXbXbXvXzXB.N.N.N.N.V.A.Q.gXzXzXzXQ.Q.gXhXzXzXgXQ.b.                                      ",
"                  < j.< < -                                           +.p.i.p.i.i.OXOXe.O.O.O.O.O.O.O.O.O.O.O.O.O.} ..5.%.D g g k l #.@.*.@.@.g 0 i i @ i i @ @ + O O O : $ % % % % O i n a a d D | } } +.O.O.X.o.o.o.O.7.7.S # @ $ m ].DXKXKXJXH.M t t t e e r r M P P Z Z Z Z n b i v v r r r v b V L L C C C C V m V b 3 & $ o  .{..X'._._.M.n.x.x.x.n.n.M.Z.$X$X`.I & i i n n n n a J 6.&.=.#.#.$.:.6.7.X.I K K K K G.K K G.H.H.J.`.`..X(.4.;.1.t.r.r.y.y.[.o.X.J.J.J.J.T T (. X.X[.F N N N N N R J.`.`.T F ! ! 6.6.*.*.y.{.[.J.G.G.x.x.x.x.x.K.K.`. XXXy.;.1.7X9X9X9Xt.1.$.l j _ -.-.` ,.7XqXwXwXwXwXu.%.N s N N J J F Y [. X`.%X%X%X%X-XBXZXZXGXGXZXGX,XT G q.OXOXXX.X*X%X$XL.n.n.n.D.I.U.=XBXBXBXBX:X$XL.L._.%X%X:X,X3X2X>X{.w.7.7.).).'.*X*X*X*X>XXX|.{.)._.=XNXVXSXSXHXbXnXnXnXkXB.N.N.N.V.V.A.A.gXzXzXzXgXQ.Q.gXzXgXgXl.                                        ",
"                                                                  . A >.p.p.i.i.OXOXe.e.7.7.7.).).).e.e.e.O.} } | 5.q.q.@.g g j ( #.=.=.$.) k h X u w a i w + + + + O O $ $ % % % % % X @ @ i d Z | +.X. . . . ./.(.(.X.o.7.G # + 3 /.:XSXKXKXDXH.M t t t e t r r M T P Z C Z C n v i v r q q r r v M L L C C C C V m m b b & & $ & ).'.'._._.M.M.b.b.x.n.n.Z.Z.$X$X_./.m i B F F G H S a D &.;.$.#.$.&.6.7.X.J.I G.K G.G.K K G.G.G.G.H.`. X(.n 9.;.1.r.r.y.8.o.X.T H.H.H.J.H.I (.(.(. XT N N N N N N N N Y Y 9.8.8.9.*.! W ! oXXX`.J.G.x.x.x.x.x.G.G.P.`..X{.0.1.1.7X9X9XwX9Xr.:.#._ =.=._ ` 3.<.2.t.i.wXwXOX9.N J J J W J J H 7. X'.%X%X-X,XZXZXZXGXGXGXGX3X@XO.B O.{.{..X'.`.`.I.I.K.K.I.U.U.=XMXCXCXCXBX=XM.M.L.L.$X%X:X:X1X,X>X Xo.X.(.(.]._.$X&X*X*X*X.X|.{.'.&X;XVXSXHXKXKXPXPXnXnXkXB.N.N.V.V.B.A.dXzXzXkXzXgXQ.Q.Q.C.l.                                          ",
"                                                                  | p.i.p.i.i.i.OXi.e.w.e.e.e.{.{.{.{.e.5.| | $.>.r.>.) g z ) ` =.=.3.;.#.) z u 0 u p d a w q + + + O $ $ O % % % % X X % % & A Z  . . . ./.H./././././.(.(.o.# O 3 `.NXSXSXDX&XK c r q q q r r r M C C C C C C m i v r q q q q # # v V L C V C C V V V b b b & & o I ).`._._.M.M.b.b.b.b.b.D.Z.I.$X$X`.(.C S H } %.6.6.W a D &.=.:.;.&.5.7.X.H.G.x.x.G.G.G.G.G.G.G.G.H.P.`. Xm N ;.1.r.r.w.8...T H.H.H.H.H.I K H./.(.`. XF N N s N N N F H 9.w.|.|.oX! N N N Q [. X`.P.K.G.x.x.x.x.G.P.`. XXXoX;.;.1.1.t.9X9XwX9X1.;.=.=.=.=.$.;.<.r.u.u.}.OXOX[.T Y H ! H J N W 9. X X<X,X,XZXZXZXGXGXGXGXGXsXiX7.Z T o.(. X'.`.`.$XU.I.I.U.U.MXCXVXVXVXVXNXZ.n.n.M.L.I.$X:XBX:X:X*X_././.H.L.L.L.$X$X&X;X:X>XXX{..X*X:XFXHXKXKXKXPXnXnXvXfXV.V.V.V.B.A.fXgXzXkXzXjX!.m.j.=                                             ",
"                                                                | >.p.p.p.p.p.p.p.q.q.e.{.{.#X#X#Xw.>.$.) ) $.<.t.<.{ z z ) ` ` ,.3.3.$.) g h X u u B F a w w q 0 + @ # # O % % % % % X % % & C Z P I I H.H.H.H.H.H./././.(.(.v O V '.;XVXNX&XH.3 r q q q w r q r M C C C C C B b & v r # q + + + # # v M C V V C C C V m b v 3 & $ 3 (.`.$X$XZ.m.b.b.b.b.b.n.Z.Z.$X$X`.(.H @.*.r.r.;.;.;.*.f #.=.:.;.&.5.o.X.I G.x.x.G.x.x.x.x.x.x.G.G.L.`. XI + J r.;.6.w.7.X.I H.H.G.G.G.G.I H.J.J.`. XT N N N N N J W W 8.0.y.}.iX}.F y y ^ J [. X`.K.K.x.n.n.n.x.K.P.%XXX|.r.:.;.;.1.r.u.wXiXiXu.1.;.=.$.&.&.*.6.6.{.XX@X@XXX[.Y ! 9.4.! ! 9.9.8.oX.X>X,X,XZXZXGXGXGXGXGX4XiXOX7.3 v C X.).`.`.%X%X$X$X=X=XMXCXVXVXVXVXVX!.D.n.n.M.Z.I.$X-XBXBX:X:X_.v.v.v.M.M.L.I.$X=X;X;X:X>X.X+X*X:XAXDXDXHXKXKXKXlXA.C.V.V.V.A.fXgXgXkXkXkXzXNX$X8 9                                             ",
"                                                              * >.p.2.p.p.eXeXi.p.q.e.i.OX{.e.i.q.$.` ( ) =.3.2.t.$.a.z ) ` ' [ 3.3.<.g g d X X u d } S p e e w w w w # @ O % % O O X X % % & V Z I I I v.v.v.v.v.v.L._./././.P I I `.*X:X&XH.m # q q q q q w q r n C C C C C b b & v # # + + + q q q r r M m n C C C C m m m 3 & & o I `._.$XW.Z.b.b.b.b.b.n.D.Z.$X%X`. X8.1.t.9X1.;.$.$.$.$.( #.;.;.&.5.o.(.J.G.x.6 , , x.x.x.g.g.x.K.L.%X'.J.$ q *.;.8.e.(.(.H.H.G.x.x.v.G.G.G.H.H.`. X(.R N N N J J J 4.6.;.0.u.wXiX}.s y y y N [. XP.K.K.K.n.n.K.K.P.%X<XXX0.;.$.;.;.r.y.u.}.OXOXu.1.;.*.%.%.4.! o.[.{..X@X+X.X(.[.[.oX[.8.8.0.0.0.oX.X>X,X,XZXGXGXGXDXGX4XOXOXOXo.$ $ # v L J.`.`.%X%X=X=XCXVXVXVXVXVXVXhXD.n.n.n.n.Z.U.=XMXBXBXBX&XM.M.M.n.n.n.M.Z.$X=X;X;X:X*X*X1X1X2X2X2X2X1XNXjXQ.C.C.C.A.A.A.dXgXzXkXkXkXkXzX=Xv.8 2                                           ",
"                                                              | p.p.p.p.wXp.2.>.>.p.i.OXOXOXOXi.>.) ) ] ` ` 3.r.%.g g a.{ { [ 3.3.<.d * & X X X d 5.%.J s e e e e w i i @ @ O % X O O % % % # V P I 7 v.v.v.M.m.M.M.M.M._._./.].*X_./.(.(.I L v r + + q q q q # r M V V V V V V v & v # # + + + + q q q # r b n B B B C n m m 3 3 & $ 2 /._.$XI.Z.M.b.b.b.b.h.n.Z.U.-X%X Xy.t.7X1.-.=.` ` -.-.=.( #.;.&.6.7.(.J.G.6 6 6 g.z.z.h.g.g.x.n.L._.`.J.# + p 9.8.e.(.(.H.G.v.x.v.x.x.x.G.x.H.P.`. XT R J J J N N E Q *.;.1.9X9X9X0.y y y y Q [. XP.K.K.K.K.K.K.P.-X<XXX8.:.@.*.*.;.0.y.|.}.}.}.u.;.*.%.H Y Y T J.(. X.X.X>X.X X.X.XoXoXoXy.u.r.r.w.{..X,X,XZXGXGXGXGX4XOXOXOX@X(.$ $ $ $ $ M J.`.%X-X-XBXVXVXVXVXLXVXMXD.n.n.n.n.Z.I.U.=XCXNXNXNX!.m.n.n.n.n.n.n.Z.=X=X;XNX;X;X:X:X*X.X|.}.|.{./.R.M.Z.C.A.A.dXgXzXzXkXvXvXvXlXjXW.v.c.5                                         ",
"                                                            | >.p.2.p.p.eXp.p.p.i.i.i.i.OXiXOX<.{ ) ) ` ` ,.r.} d d g ) { [ 3.3.3.d . o o % % & w.y.*.D f u e e e a i i @ @ X % O O X X % % $ b I I v.v.v.M.M.m.m.Z.Z.Z.W._._._.:X:X/.V # $ m # + + q q q q q # # M v 3 m V V V m 3 v v # + + + O O + + # # # b B B n C n n m b 3 3 & o 7 _.$X$XZ.Z.b.b.b.b.b.D.Z.U.-X%X.X|.t.1.-.' -.-.-.' -.-.-.#.#.*.6.7.(.(.H.G.6 6 g.g.h.h.h.h.h.n.K.I.`.J.: r w p %.5.[.(.J.H.v.x.x.x.x.x.x.x.G.H.P. X(.T J W J W Q E Q :.:.;.1.7X0X9X0.y y y ^ Q [. XP.P.K.K.K.I.U.-X<XXX8.%.E @.6.9.9.9.8.|.|.}.}.|.6.} H Y T T T H.J.`..X>X>X>X`. XoXoXoX|.u.u.r.1.1.y.{.>X,XZXZXZX,X.X{.{.@X+X+X(.: $ $ $ $ # K `.%X%X-XNXNXVXVXLXVXVXS.D.n.n.n.Z.U.U.=XNXNXVXVXNXS.b.n.n.n.n.n.M.Z.W.!.MXNXNXNX;X-X:X>X|.u.u.w.{./.R.Z.S.A.dXgXzXkXvXvXvXvXvXlX!.C.m.c.z.5                                     ",
"                                                          4 >.p.2.p.p.p.p.2.p.wXi.i.i.iXiXi.>.) ) ] _ ` ,.r...3 4 A | a.{ 3.3.>.d . .   . . % | }.u.*.k s u u p p p n r @ @ X O $ @ X X X % O v I I v.v.n.M.b.b.C.D.C.S.S.W._._.;X;XH.r % r v # + q q q q q q # # 3 3 3 3 b n C m v & M # + + + O @ + + + + @ r C C n B C C C V b 3 3 3 2 /._.L.Z.Z.D.V.V.b.b.D.D.U.=X-X'.|.2.7X' ' ' ' ' ' ' ,.,.1.=.E H 7.[.(.J.H.G.6 g.x.h.b.h.h.h.n.M.I.%XP.c t w w p S o.).`.H.G.x.x.x.x.x.x.x.G.H.P.`. XT Y ! W W ~ Q Q :.-.-.=.-.7X7X9XQ y y ^ ^ 9.[. X%XI.I.I.I.U.-X,X<X[.W E W W ! ! ! 4.8.oX|.XXXX{.7.Y T T I G.H.H.H.`.%X>X>X`.J.T 9.oX}.tX9Xr.1.1.1.1.y.{..X>X>X.X{.[.[..X.X'.'./.: $ # # # $ : I `.%X$XMXVXVXVXVXVX=XZ.D.D.I.I.U.U.=XCXVXVXVXVXMXZ.n.n.n.n.n.n.Z.Z.!.!.NXNXNXNX;X;X;X*X{.y.u.u.|.{.].R.Z.S.gXgXzXvXvXvXvXvXkXgXQ.m.b.b.m.z.5                                 ",
"                                                        4 >.p.p.p.p.p.p.p.eXeXeXeXeXeXwXi.$.) ) ` { ` ,.r.o.2 2 4 4  .+.>.>.@.& .         . * e.u.t.;.z h y s s s S J @ @ @ X O # + X X X X % 3 I I v.v.M.M.V.V.V.A.A.dX!.S.W._.$X_.3 % O M r @ + + q q q q q r : V V 3 $ : K m m 3 # i r + + + O O + O O + q w v C B B B C C C V b 3 3 : 6 _._.Z.Z.Z.D.V.V.V.V.D.U.=X-X*X{.t.' ' ' ' ' ' ' ' ,.,.1.;.;.J d o.).(.H.H.x.x.x.b.b.b.b.h.n.Z.I.%X`.c t e t e e N [.`.L.L.n.x.x.n.x.x.x.x.G.P.`. X[.! ! ! ! *.Q :.:.:.-.' ' 7X7X7Xu.s y ^ ^ ~ 0. X X%XP.I.U.-X,X,X<X[.E E J J H Y Y Y ! [. XXXXXXX{.(.T I K G.G.G.H.P.%X%X*X>X`.K R ! 0.tXiX9X9X7X1.1.1.;.6.7.7.(.(.X.(.(.`.`.%X*XL.: $ $ # # $ $ v J.%X=X;XVXVXVXNX=XU.I.I.I.I.U.=XMXCXVXVXVXVXCX=Xn.n.n.n.n.D.Z.Z.S.hXMXjXVXNXNX;X;X-X>X{.u.u.r.i.{.)._.Z.Q.hXzXkXvXvXvXvXkXgXQ.A.l.k.b.b.b.c.2                             ",
"                                                      * e.p.p.p.wXp.p.p.wXeXeXeXeXeXi.r.| a.a.) { ) =.r.(.5 2 5 8 v./  .+.| *             . +.i.u.r.$.z f s f J H } S @ + + X @ r @ X X X X O & I I v.v.m.m.V.V.A.A.dXzXhX!.$X_.6 O % % $ M # + + q q + w q q # : H._._.$X=X;X&XI 3 # r r # + + O O O O O O + @ # v n C B B C C V m v 3 3 : H._.$XZ.Z.D.D.V.V.V.D.U.=X-X*X.Xr.=.` ' ' ' ' ' -.,.,.;.;.1.r.G i X.(.(.H.H.x.x.n.n.b.D.D.D.Z.U.%XP.c t t t p t t o.(.P.K.n.n.n.n.n.x.x.x.K.P.`. X[.4.9.! 9.0.*.:.:.:.` ` ' ' ' 7X7X:.y y ^ z ~ oX X<X<X-X,XZXZXZX,X{.:.E E J H T R R T T J. X.X.X>X.X/.H.G.G.G.G.G.K.L.%X%X*X>XJ.M R J W 0.iXwX9X9X2.1.;.*.%...O.X.I H.H._._.$X%X%XG.: $ # # $ $ $ # M H.%XBXCXMX=X$X$XI.I.I.$X$X=XMXCXCXVXVXVXVXCX$XL.K.L.L.Z.Z.Z.S.hXhXVXVXlXNXMX=X=X*X.X{.q.q.q.w.{.).].R.~.gXzXzXkXvXkXzXgXQ.Q.C.k.k.b.b.m.m.5                           ",
"                                                      +.i.eXeXeXp.p.p.p.eXeXeXeXi.i.| A d g a.) ) #.6.(.x.5 z.z.c.M.T./ I *             . * e.p.t.;.l z E @.E @.%.5.d + + + @ i r @ + + + O O $ V I v.v.n.m.C.C.A.dXgXzXhXMX=X_.v % % % v v @ i r q @ q q q # # 3 L.$XNXVXHXKXJX;X3 $ # v # + + + + O @ r @ + @ # # b n C B B V V m m v 3 3 3 H.$X$XZ.S.D.D.V.V.D.S.=X-X:X>Xy.=.` ' ,.' ' ` =.3.1.;.1.r.r.w...b T (.(.H.L.L.K.n.D.D.D.S.U.=X-X`.M t t p p t e N (._.L.n.n.n.n.x.g.n.n.K.P.`. XoX9.9.9.9.0.:.:.#._ _ ` _ _ ` -.0X0X~ y y s ~ 0.oX X<X,XZXZXGXZX,XXXu.:.W W Y R R R T T J.J.`. X>X>X<XP.G.G.G.x.x.n.K.I.%X%X*X*XH.M N N N W 9XwX9X2.2.1.*.%.O.X.I H.H.v.v.M.$X$X$X$Xn.: : $ $ $ $ $ $ # 3 6 H.L.H.K J.`.`.%X%X-X-XBXCXCXVXVXVXVXCX-X%X%XI.I.I.Z.S.!.hXjXVXlXlXlXjX!.=X=X%X'.7.5.5.q.e.e.).].W.Q.Q.zXkXkXkXzXgXA.A.A.B.d.d.b.b.b.m.z.=                       ",
"                                                    +.i.p.p.p.p.eXeXeXeXeXeXeXr.| 4 4 4 A S a.) #.6.(.M.z.j.k.m.m.E.v.8 o               . | p.p.2.=.l k #.#.@.&.6.6.u + + @ i p w + + + q q + + 3 I v.v.M.M.m.V.B.A.gXhXhXhX=XL.: % % O M v w + + + + + + + + # 3 L.MXVXHXKXKXJX=X: # # r # + + + + + @ i r @ @ # # v n C A b C C C m b b 3 3 3 _.$X$XS.S.S.D.D.D.S.=XBX:X>XoX=.` -.' -.=.=.;.;.&.6.;.r.8.8.{.7.C T `.`.P.L.L.I.I.U.U.MXMXMXBX%XR p p p N J N p Y `.P.K.n.n.h.h.h.h.n.n.P.`. XoX0.9.0.0.6.*.l _ _ _ ` j j ` -.-.7X0XQ y ^ f 0.oXoX<X,XZXGXGXGX3XuX9X1.;.4.Y R R R K K G.G.J.P.%X<X,X%XL.G.x.x.x.n.K.L.I.%X%X>X`.K M N H J J ;.wX9Xt.t.r.5.o.T I H.v.x.x.n.M.I.$X$X$Xx.; : : # $ $ # # # : # : : : 3 M J.(.`.%X%X-XBXCXCXLXLXLXDX:X*X%X%X%X$X=X=X=XhXjXlXlXxXlXlXS.S.=X=X%X`.7.o.+.+.7.e.).].W.Q.gXzXlXvXvXkXfXA.A.A.N.s.f.b.b.b.m.c.2                     ",
"                                                   .i.i.i.i.i.p.eXeXeXeXeXi.w.3 ; 2 3 3 4 Z | %.6.`.Z.V.b.k.C.C.W.m.8 .                 * >.2.2.3.=.j k #.#.$.<.r.*.0 X + i J a w w w q q q q # 3 V I v.M.M.M.Z.V.A.gXgXhX!.$XH.O % % # M v r w + + + + q + + # : L.NXVXHXHXVXM.: 3 # + # r @ + + + @ @ @ i @ @ # @ # v B C C C C C C m b v 3 $ 7 _.$X=XS.S.S.D.D.S.=XBX:X<X{.;.,.-.` =.=.;.&.*.%.4.9.9.8.[.[.{. XJ.J.(.`._._.I.U.U.MXMXVXCXCX%XR N N N J *.9.W N (.`.L.K.n.h.h.h.h.n.n.P.%X XoXoX0.0.0.0.:.:.:.` ` _ j _ ` -.-.-.1.0XQ y y ~ 8XyXoX<X,XZXGXGX3XuX9X9Xu.6.! T R R K K G.G.G.K.P.%X,X,X%XK.G.G.G.K.K.K.L.I.%X%X>XP.M N J 4.9.W *.9XwXwXu.e.O.I I v.x.x.x.x.n.M.I.$X=X$X6 : : # # # # # # # : : # # # v m C T (.`.%X-XBXBXCXDXDXAX,X.X.X X%X%X=X=X=XNXjXlXlXbXbXlXdXS.U.=X;X*X).o.+.+.+.O.7.).].W.Q.hXzXkXkXmXB.B.A.A.B.d.s.s.b.b.m.m.b.z.                  ",
"                                                  e.#X#Xi.i.i.eXeXeXeXeXiX..2 ; ; 5 2 3 A  .| ..`.W.A.C.C.C.A.Q.m.8 .                 . A 3.3.3.,.` j ) ( #.;.r.u.E 0 X @ J J s e w w w q q q # v 3 7 H.v.M.M.M.D.C.S.S.S.$X_.: % % % v M n p w w @ @ @ @ + # # : H.$X;X;X$Xx.: 3 : $ + + r # + @ @ @ @ @ i w i d b i i B C C C C C Z C m v 3 3 3 H.$X=X=XU.S.S.S.S.MXBXBX,X.Xr.3.` { =.;.&.%.H Y Y Y Y Y o.[.[. X X[.Y.(.(.`.`.%X%XMXCXCXCXCX%XR N s N E ;.r.;.N F (.P.P.K.n.n.h.n.n.K.I.%XXXoXoXy.6.0.0.0.:.:._ _ _ _ _ _ ' ' -.-.1.1.f y ^ ~ 8XyXXX<X,XZXZX4XuXtX9X9Xu.0.! R K K 6 G.G.G.K.K.P.%X-X:X%XL.K.K.K.K.K.K.I.%X%X,X%XR N N J 9.8.8.%.r.wXi.w.7. .H.G.x.x.x.x.n.n.Z.I.$X$X$X, : # # # # r v M M M v v i v p B G U ..(.`.%X:X:XBXBX,XXXu.y.{.{..X%X-X=X;XNXNXVXxXbXlXhXS.!.=XMX;X*X(.+.+.+.+.O.).].].E.C.Q.Q.gXB.N.N.C.A.A.N.s.s.s.b.V.V.A.C.b.                ",
"                                                +.#X#X#X#X#XiXeXeXeXeXy.P ; - > > 5 5 4 I  .X._.!.Q.A.A.Q.Q.Q.C.c..                   o *.2.[ [ ` ` ) _ ` ` 3.t.t.h 0 X p 4.S s p e e q q w r v M & 3 I H.v.M.M.M.M.Z.Z.$X_.K O % % O M B F p i i w @ @ @ # r # 3 6 ; ; 7 I K v : $ $ + O # # @ + O @ & i i a B G } Z b b Z C F C C C Z C m b 3 3 3 _.$X=X=X=XS.U.U.MXCXBX:X.Xr.;.=.$.$.&.*.H G Y T T R R T J.(.[.[. X[.9.9.[.[.[.`.-XBXCXCX:X`.R N s J Q :.0.0.%.J Y (.P.P.K.n.n.n.n.I.U.%XXXoXyXy.0.0.0.0.1.-.` _ _ _ _ _ ` ' =.-.,.1.1.s y ~ 8XyXyXXX<X<X<XuXpXuXtX9XtX}.oXJ.R K K K x.G.G.K.L.I.%X-X-XI.K.K.K.K.K.K.I.I.%X%X:XP.M N N W 9.|.}.8.6.u.OX{.(.H.G.x.x.x.x.x.n.n.M.$X=X=XL.: # # # r r i v M C v v n n F G U G F G G U (. X.X.X{.u.<.2.2.2.i.{.'.%X%X;XMXNXlXVXlXhXS.!.MXMXNX;X_././. . . ././.].R.m.j.s.d.k.k.N.V.A.A.B.d.s.s.b.V.C.A.A.A.b.              ",
"                                              * ).#X#X#X#XiXiXeXeXOXX.; - - - > > 5 5 7  ./._.jXgXgXQ.Q.Q.Q.E.8 .                     & [ [ [ [ ` ) ) ` ,.,.2.9X1.u X @ H 9.J s s p e e e w p N N i M v m I H.H.L.L._._.H.m + X % % + F G G J d p i @ @ @ @ # # 3 3 % o H./.K K # $ O + + + # # @ @ & i n F d S } } } Z b Z G C Z C C C C C n m 3 3 7 _.$X=XMXMXMXMXMXCXCXBX>Xy.;.$.$.@.%.%.Y T T T R R K H.J.J.J.J.`. X[.9.9.9.! Y.`.%X-X*X'.T N N f Q Q :.1.1.;.~ Q 4.`.P.L.I.D.D.I.U.U.-X<XXXyXyX8X0.0.0.1.-.` ' ' _ _ _ ` -.,.,.1.1.9X0.s ^ ~ yXuXuXuXyXyXuXpXpXuXiXiXtXXX{.[.G.K K K g.G.K.K.K.I.%X-X-XP.L.K.K.K.K.I.I.%X%X-X*XR N N J W 6.}.}.y.6.w.OX.X(.H.G.x.x.x.n.n.n.n.I.=X=X=XL.: : # # # # i b b v v n S S G Y F N f J D J E &.r.r.<.<.>.<.3.t.i.i.{.'.%X&X;XjXjXhXS.S.!.MXVXVXVX;XR././.7 7 v.T.T.R.~.C.k.k.d.k.k.N.C.A.A.N.d.f.b.V.A.A.gXgXA.j.            ",
"                                               .+X+X#X#X#X#XOXOXOXP ; - - - s.s.z.5 z.v.T.W.jXkXzXgXgXQ.Q.m.<                         g [ [ [ [ ` ) ) ` [ 7X7X7X$.0 X a 8.9.W J J s e e t t N F S p n r r # 3 I I I I 3 : $ + % X X @ ....} H B B i @ @ @ # # # v # O $ H.H.K c $ + O O + O $ # @ @ & B S G D S } } ..} } ..U C C C C C C C C m v 3 3 H.%X=XMXMXMXVXVXCXCXBX>X{.;.;.$.E D H Y T J.J.K K K G.H.J.J.P.J.(.[.8.0.0.9.! T R J.[.[.4.N f f Q :.$.$.-.:.:.l E 9.`.P.I.U.U.U.=X-X-X<XXXyXyX8X8X0.0.1.-.-.' ` _ _ _ _ ` 3.;.3.3.9X9X*.y s ~ yXuXuXuXuXpXpXpXpXpXpXiXyXXXXX XJ.G.G.G.x.x.K.K.L.I.%X-X%XP.L.K.I.I.I.U.%X-X-X:XP.R N W W %.6.u.tX}.6.{.{.`._.K.x.x.x.x.x.n.n.Z.U.=X=X%Xx.: # # # # i v b n C b n n G H H D D E E E ( ` ,.=.;.$.$.$.$.1.u.u.i.OX+X].M.M.Z.S.S.S.hXNXVXxXxXNX$XT.v.7 8 v.v.v.M.W.~.C.k.d.d.k.N.N.A.A.A.k.d.b.V.A.A.gXzXgXk.            ",
"                                            2 '.4X4X#X#X#X#X#X).6 > - - - s.s.s.z.z.m.R.~.jXkXkXzXgXQ.^.m.=                         * a.[ [ [ { ' ) { [ [ 6X7X7Xg 0 X W |.6.W J s s p e p p N H J N n r r q r # # + + # q + X % % X i 5.4.H S d n i i # # r r i v @ O o 3 7 m # + O O O O X O # $ i i B D } | D D } } } 5.q.O.Z C C C Z Z C C C m M m 3 H.$X=XMXVXVXVXLXDXCX:X.Xr.;.;.:.W H U T I K K K K G.G.G.G.G.H.J.`.[.8.0.0.! ! Y Y 9.|.8.E f f E $.#.x l l _ :.l Q [.`.%X-XMXMXCXBXBX<XXXyXyX8X8X8X8X0X0X-.` _ ) _ j j ( $.$.=.<.t.9Xt.Q y N 8XuXuXpXpXpXpXaXaXaXaXpXpXiXXXXX XP.G.G.G.G.G.K.K.I.U.-X,X-XP.I.I.I.U.U.-X-X:X:X*XR N W 4.*.Q *.u.wXwXu.{. X`.P.L.K.x.x.n.n.n.Z.I.U.-X%X>X[.H S i # # v v n ..G B S S H %.W E E @.$.#.#.;.$.$.$.#.#.@.$.&.q.q.q.e.{.].M.Z.S.S.=XMXVXlXvXvXVX!.M.v.c.x.x.c.z.m.M.W.W.V.d.d.F.N.V.A.A.A.V.b.V.V.A.A.gXgXA.k.            ",
"                                            /.2X4X4X#X#X#X).v.5 > > - s.s.s.s.d.b.m.M.W.jXkXkXkXzXQ.C.j.                            & { [ [ [ { ' { ` [ [ 6X7X` h 0 u u.u.6.%.W J J f s s N H %.J J N p e w w q q q q r r + X % X X J 4.} D S S d i i i i i # v v O % % o $ : $ + + O O O X X # i i d S D D } D D } | } 5.q.q.} C C Z P C C C C C m m m 4 L.=XNXVXVXLXLXLXDX:X X8.1.1.;.*.H U L K K K K K K K G.G.G.G.K.P.(.[.0.0.0.! 9.4.y.|.0.Q z z l l :.l x x ] ' ` l 9. X%XBXBXCXDXDXBX,XXXyXyX8X8X8X8X0X0X7X-.( ( j j z l #.#.$.<.1.t.t.r.E s ~ 9XpXpXpXpXaXaXaXaXaXaXaXpXuXXXXX<XP.P.G.G.G.K.K.I.U.-X,X,X%XP.P.U.U.-X-XBXBX:X,XJ.N N W W Q #.:.1.wXwXu.|. X`.`.L.K.n.n.n.n.Z.I.U.-X-X*X.Xu.t.r.%.S i i n G U U H H H %.W J f E $.#.( ( #.$.$.@.@.@.E @.%.5.5.e.).).].$X=X=X=XMXNXVXVXlXjX!.M.v.c.c.c.c.z.m.m.m.W.Q.V.N.N.N.V.A.dXdXA.C.C.C.C.A.A.C.b.              ",
"                                          T.5X4X4X+X+X{. .v.m.z.f.s.s.s.s.s.d.b.m.C.Q.zXkXkXkXgXQ.m.                                d 3.[ [ { { ' ] ` [ [ [ [ j 0 X J u.r.&.*.*.E D f f J *.6.%.J W N p t t e w w w w r w X % % X w 9.%.@.} D H S d i i i i & v # O O % % # $ + + + + + + + X @ i i d d S D g g g D D D *.r.y.7.G Z P P P P Z C C Z C V m 7 _.;XNXVXLXLXJXDXBX`.o.8.r.r.6...Y T R K 6 6 , K K G.G.x.x.G.K.P.[.[.0.0.9.9.6.y.y.6.Q Q z z l :.x x x ] ' ' -.:.9. X,XCXCXDXDXBX,XXXyXyXyX8X8X8X:.0X7X' _ ( j z z k k k #.$.#.;.r.u.y.J f 0.uXpXaXaXaXaXaXaXaXaXaXaXpXuXXX<X<X XP.P.K.K.K.I.-X-XZX,X<X<X%X%X-X-XBXBXBXBX:X%XR J W W E #.$.=.1.7X9Xu.|. X`.`.L.L.K.K.I.I.U.$X-X-X-X>X|.1.1.2.1.&.D d d S ..7.7.5.W D f g z ( ( ( #.) #.$.%.@.| D D } } O.O.O.).).].$X$X=X=X=XMXMXMX=XW.v.v.c.c.c.z.z.b.m.m.C.A.Q.C.V.V.A.fXgXgXA.C.m.m.m.m.z.<                 ",
"                                        8 ].5X2X+X5X+.2 5 m.m.b.f.f.f.s.s.s.k.b.C.Q.zXkXkXzXgXC.<                                 . a.3.3.[ { { { { ' [ [ [ [ h 0 0 r.t.1.&.&.*.@.D f E %.6.0.Q W *.J s p p e w w w w p e X X X 0 f ;.@.@.@.D D G d d d p p i b @ % % % O r $ + + + + + + + O X i p d S S d g g g g f f #.r.r.w...Z U U U P P P P Z Z L L V 7 _.=XCXVXLXJXJXBX`.L H 8.q.6.4.o.T R K K , , , , x.g.g.g.x.x.G.J. X8.0.0.0.6.y.|.0.*.Q z z l l x x x ] ] ' 6X` ~ [.,XZXDXDXDXBX<XyXyXyX8X8X8X8X0.-.0X7X' ` l z z k k k @.#.#.&.r.u.}.0.W Q 0.pXaXaXaXaXaXaXaXaXaXaXpXsX<X<X<X<X<X XP.P.P.U.-XZXZXZX,X<X<X<X,X,XZXZXBXBXZX,XY.N J W Q Q #.#.=.,.1.1.wX}.{.`.`.P.I.I.I.I.U.=X-X-X:X:X X8.:.=.3.2.t.r.@.d S 5.8.6.6.*.E k z l ( _ #.$.#.#.@.} D D G G | +.X.X.(.).]._.H.H.(.'.'.'.`._.v.v.v.c.c.c.b.z.b.b.m.C.C.A.A.A.A.fXdXgXgXS.M.c.2 2                       ",
"                                        T.5X5X5X/.4 . . z.b.b.b.s.s.s.s.d.b.b.C.A.gXzXmX^.C.j.                                    o | >.>.{ { ) ) { [ [ [ 3.( 0 X g t.1.<.<.r.;.:.E f E ;.u.u.Q *.6.J s s p p e e t p p e 0 X X 0 #.:.#.#.@.E D J G G S S B n n O O % % # r + + + + + + + + O X & S D } g g g f f f z k $.;.&.r.8.U U U U U P P Z G Z P L L I H._.;XVXHXLXJXCX%XP F } 6.6.7.7.T T K K K , , , g.g.g.g.g.g.G.P. XoX0.0.0.6.|.|.r.0.~ l l l l x x x ] ] ' 6X' _ Q [.,XCXDXCX,XXXyXyX8X8X8X8X8X8X0X0X0X-.=.l l z z f E E E *.6.0.y.|.|.0.;.0.8XpXaXaXaXaXaXaXaXaXaXaXsXsX3X3X<X<X<X<X<X<X,XZXZXZXZX,X<X<X<X<X,XZXZXCXCXZX,X XY E E E Q l #._ ` -.,.7XwXi.{. X`.%X%XU.U.=X-XBXBXBX:X:X[.#.$.=.3.1.1.t.r.| B B 4.8.r.&.#.( ( ( ( ( ( ) ) @.| | D S Z U X.X.P I /.].`./.n S H 5.5.O. .7 7 7 c.z.z.z.z.z.b.b.m.C.C.Q.A.A.gXgXzXgXS.n.2                           ",
"                                      / ].]./ 2       = z.m.b.F.d.d.d.d.b.b.m.Z.Q.Q.^.l.j.                                        * +.>.>.a.a.a.a.{ [ [ [ ,.g 0 X *.7X3.;.;.;.;.;.l k ;.u.9X1.E 0.6.J s s p p p s p p p q 0 X q s :._ _ ( #.E f D J H D H J F i O % % O # # + + + + + + + + + O @ J &.*.k k k k g z k ( =.=.;.<.r.H C U U U U P Z U Z P P P P I I _.;XVXLXDXBX'.X.U G %.8.8.7.(.T K K K , , , g.g.g.g.g.g.g.K.P. XoX0.0.0.y.}.y.0.:.#.l _ x x x x ] ] ] ' ' ` _ :. X,XZX,XXXoXyXyX8X8X8X9X9X8X8X0X0X-.;.:.Q k f f J J J ! 9.6.8.y.|.|.u.u.u.uXaXaXaXaXaXaXaXaXaXpXsXsXUXUXGXsXXX<X<X<X,XZXZXZXZXZX<X.X X<X,X,XZXZXCXZXZX X! Q E E Q k l _ ` ` -.,.7XqXt.{. X`.%X%X-X-X-XBXBXBXBX:X X%.) ) ) $.=.3.2.t.u.} S D q.u.1.=.#._ ( ( ) k ) ) D D G G C P P P I I H./._.].I F D d S +.X. .v.v.c.z.z.z.z.z.b.b.b.b.C.Z.Q.Q.gXzXzXzXdXz.                            ",
"                                      8 8             - b.b.b.d.d.d.d.d.b.m.m.c.m.l.<                                             4 +.+.+.| a.a.a.) 3.3.3.$.u X u t.7X,.=.;.;.;.=.( $.1.9X9X` $.u.6.E J f s p s p s s p 0 0 0 0 z -._ _ ( ) k f D W D H D H H r X X % O r + + + + O O + + + + O O p y.r.#.) k g g z z ) ( ` -.1.r.4.B P U U U U U U P P P P P I I I _.;XCXCX:X`.X.....} 4.7.7.(.J.G.K K , , , g.g., , g.g.g.K.P. XoX0.0.0.0.tXu.0.:.:._ j x x x x x ] ] ' ' ' ` :.0.[. XXX}.9X9X8X8X8X8X9X9X8X8X0X0X-.-.-.#.E E f s N J U Y 4.9.9.oX|.}.u.9X9XuXaXaXaXaXaXaXaXpXpXpXsXGXJXUXsXuXXXXX<X,XZXZXGXGXZX<X{.oXXX<X<X,XZXZXZXZX X! *.~ Q Q z z l _ :.=.` -.7X7Xt.oX X'.%X%X-X-XBXCXCXBX:X>X9.@.@.) ) =.3.<.<.r.u.q.D d E r.t.1.=._ _ ( ) ) ) D D G G P P I I I 7 7 H._.].'.(.} G d a A  ./.v.n.z.z.z.s.h.s.h.z.b.b.C.Z.Q.Q.gXzXgXA.-                             ",
"                                                      j.m.V.d.d.d.d.d.b.m.m.5 .                                                   8 /. . . .A d | | >.>.>.g X % d 7X7X,.-.=.;.:.#.#.:.9X9X9X_ 1.9Xr.Q E J f s s s J J p 0 0 0 0 l ' j j j l ( k E @.@.D W 9.4.@ X % % + r + + + + + O O + + + + @ O %.r.#.( z h z j j j ) _ ' ,.1.r.G G P P U U Z U U P P P L L I I I L.$X$X`.(.o.o.4.4.4.4.7.[.J.J.G.K , , , g.g., , g.g.g.K.P.`.oX0.0.0.0.u.9Xu.;.-.` x x x x x x ] ] ] ] ] ' :.:.0.0.u.9X9X9X8X8X8X8X9X9X9X8X8X0X-.-.-.$.E D J N N F L Y Y ! 9.[.{.|.wX9X9X9XuXaXaXaXaXaXaXpXuXuXsXGXJXUXsXpXuXyXXX<X,XZXZXGXZX<X|.r.y.|..X,XZXZXZX,X X! W Q *.$.#.l l ( _ #.#._ -.7X7Xt.w.[. X%X-X:XBXCXCXBXBX,X[.%.@.@.) #.$.&.&.>.>.r.y.5.S s E ;.1.-.-.=._ ) ) D S F F L I I 7 v.6 6 x.H._.`..X{...G S d A  ./.M.m.b.d.d.d.d.d.d.b.b.C.Z.Q.Q.gXgXA.j.                              ",
"                                                      j.V.V.k.d.d.k.b.b.c.2                                                       8 T.T.7 4 A A  .+.+.e.5.& % % | 2.,.' =.=.=.=.:.:.1.7XqX7X_ t.iXr.Q Q J s s s E E z y 0 0 0 y _ ] ] x j _ ( l k E E f %.8.H X X % % # r + O O O O O + + + + @ @ % a <.=._ z z z ) ) ] ] ] ] ' ,.2.%.G Z Z Z U U U T P P P P P L L I I H.H.(.o.o.o.7.7.4.4...o.[.J.H.G.6 , , g.> , g.g.g.g.n.I.%X XoX0.0.0.0.0.8X1.-.-.] x x x x x ] ] ] x _ _ :.:.:.-.0X7X0X0X8X8X8X9X9X9X9X8X8X0X-.0X1.:.@.W N N C R R R R Y Y 7.[.|.}.wX9X7X9XuXaXaXaXaXaXpXuX9XuXGXUXUXsXaXpXuXyXXX<X,X,XZXZX<XoXr.r.y.oXXX>X,X,X>X X! Q Q *.:.$.#.#.( ( ( #._ ` ,.7X2.t.q.7. X%X*X:XBXCXCXBX,X(.%.@.@.E ) #.*.$.*.*.&.q.w.e.G d s @.=.1.,.-.=.) ) D F C V 4 6 7 7 x.6 6 x.H._.'..X).(.U G A V I L.M.b.b.d.d.d.d.d.d.b.C.Z.W.C.m.m.j.                                ",
"                                                    < m.C.V.N.k.k.b.b.c.2                                                       = c.R.v.8 4 4 4  . .X.O. .o . % $.,.[ ' ` =.=.` =.-.,.7XqX7X( wXwXr.:.Q E s s s E z f e 0 0 e z ' ] ] x ] ] _ j k l k k *.0.N % % % % r r + + + O O + + + + + @ # O X #.-.] x x j ] ] ] ] ] ] ' 6X7X;.H G C C Z Z P P P P P P L P P P P I P T X...o.7.7.9.4...Y o.(.(.H.G.6 6 g.g.g.g.g.h.n.I.U.-X X[.0.0.0.0.0.0.0X0X' ] x x x x x ] ] ] ] _ ` _ l _ :.-.0X0X0X9X8X8X9X9X9X9X8X8X8X:.1.1.1.&.W J N C M R R R R T Y [.{.|.9X9X7X7X9X9XpXaXaXpXpXuXuXuXsXUXUXsXpXpXuXuXtX}.XXXX<X<X XoX;.;.y.y.|.|.XXXXXX[.W Q z k Q $.:.=.#.#.( ( #.` -.,.7XqXi.*... X.X<X:XBXBX,X>X(.E k f k @.@.| | } %.%.%.5.7.O.O.G G g #.1.1.=.=.@.D F C m 3 6 6 5 x.5 x.x.v.M._.'.).)./.P P 4 4 7 M.D.V.b.d.d.d.d.F.b.V.Z.Z.C.> .                                   ",
"                                                    z.V.C.V.V.V.V.C.z.2                                                         1 m.E.c.z.5 8 4 7 /././.3 . . % { [ [ ' ` ` _ ] _ ' 7X7X7X' #.9X9X1.:.~ Q f h z Q z h y 0 0 h _ ] ] ] ] x _ _ j l l ( ( $.6.a X X % X r r @ + + + + + + + + + @ r @ X g -.] j x ] ] ' ] ] ] ] ' 6X[ 3.%.O.| A A C P P P P P P P P P P P P P U U X.o.7.7.4.4...! ! 4.(.(.J.H.G.x.x.x.g.g.n.D.U.MXBX,X[.0.0.0.0.0.:.1.0X-._ x x x x x ' ' _ ` :.:.:.l ( #.:.-.0X7X0X9X8X8X9X9X9X8X8X8X8X0.1.u.;.4.F N M M K K K R R T (.[.XX|.9X7X7X9X9X9XpXpXpXpXpXiXpXsXsXsXaXpXpXpXuX9X9X9X9XoXoX8.9.6.6.8.y.y.y.|.}.}.|.*.E k z l _ =.=.#.( k l #.:.=.=.,.2.2.t.*.9.[..X>X,X,X>X X4.W f f D D D D D D H } H } o.o.(.(.O.G g g =.1.<.$.| G B m 3 2 6 6 5 z.z.z.c.M.L._.`././././.7 7 2 8 M.m.V.b.b.F.F.F.b.V.Z.Z.C.s.                                    ",
"                                                    m.A.A.V.V.C.C.m.2                                                           < m.m.m.z.z.5 5 v.R.T.v.; . . * 3.[ [ ' ] ] ] j ] [ 7X7X7X' =.wX9X;.:.:.E z s E Q f h y 0 h j ' ] ] j x x ] _ ] ( _ ` =.=.6.i O X % X p r w + + + + + + @ q + # i r % e :._ j j ] ] ] ] ] ] ] ' 6X6X7X<.5.e.| A C Z P P P P P P P P P P P P P U X.o.4.4.4.4.4.4.! ! 4.o.(.(.J.P.K.K.n.n.D.Z.U.MXCX,XXXy.0.8X8X8X:.:.-.0X' ] x x x ] ' ' ` :._ _ :.#.#.#.#.:.:.1.9X9X9X8X9X9X9X8X8X8X8X8X0.r.y.9.Y F M K K K K K K R T [.{.{.u.0X-.0X0X0X9X9XiXpXpXpXpXpXpXpXpXpXaXpXuX9X9X9X9X9X;.W W 6.9.6.8.w.y.|.}.OX}.}.0.*.l l #.=.#.( k k k ( $.=.=.` ,.2.2.r.*.&.y.{.[.[.[.7.W E f E | D D D G G G U U U Y X.X.X.(.(.! f g #.1.>.*...P V 6 6 6 6 > f.z.z.z.M.M._._./././._._.v.8 5 8 M.M.D.V.V.F.F.h.b.D.S.C.j.                                    ",
"                                                  j.C.A.A.A.A.A.m.5                                                             z.C.C.b.k.j.j.z.M.R.M.8 9 . . & 3.[ ' ` ] ] x x ] 6X7XqX7X] ,.wX7X-.:.#.l z z l Q h h y 0 h _ ' ] ] ] j x x ' ' _ _ ` =.;.*.w + X X + p r w w + @ + + + @ w + # i i X X E ' ] ] ] ] ] ] ] ] ] ' ' 6X6X3.q.w.w.| A Z P P P P P P P I L L P P P P U ......4.4.4.4.4.4.4.4.4.[.[.(.P.P.K.K.I.U.MXCXCXZXXXoX8X8X8X8X0.:.:.-.:.x ] j ] x _ ' -._ l l j j #.#.l l ~ ;.1.u.9X9X8X8X8X8X8X8X8X8X:.;.0.8.! U R K K K K K K K T J.[.{.|.:.` ` -.0X0X9X9XpXpXpXpXpXpXpXpXaXaXpXuX9X0X9X9X0X;.*.W W 4.4.7.7.w.|.|.}.}.}.}.0.:.#.:._ l l l k ) ( #.#.=.=.=.,.2.t.r.&.&.*.%.@.@.@.k g g E D g D D G G G P P L L P P I (.(.[.W E k ) *.5...U I 6 6 5 > > f.f.z.z.n.M.M._.v.v.M.R.R.R.v.c.5 5 v.Z.D.V.V.V.F.b.D.S.A.l.                                    ",
"                                                  j.A.gXdXdXdXS.z.                                                              m.C.C.k.k.k.k.m.m.M.m.5 . . . d 3.[ ' { ] j j ] ' 6X7X7X6Xj ,.wX7X-.=._ j z z l f h y y h j ] ] ] ] ] j x j ] ] ] _ ` ` ;.E w q X X w n r t r w @ @ O + + q q r r i X % g ' ' ] ] ] ] ] ] ] ] ] ' 6X6X2.1.u.i.w.| V V P P P P P I P L L L P P P U Y ..Y ....4.4.4.9.4.4.4.9.7.[.[.`.P.P.U.-XCXCXCXZXXXoX0.0.0.0.0.:.:.:.:._ ] x ] x _ ` _ j l l x l Q #.Q Q Q ;.0.y.u.9X8X8X9X9X8X8X8X8X8X:.0.y.4.Y L K K K K K K K K J.J.[.oX~ :.:.' -.7X7X9XwXiXiXpXpXpXuXuXpXaXpXpX9X0X9X9X9Xu.0.! H Y Y o.o.[.[.{.|.XX7.y.u.1.;.-.#.( l ( ( ( ( #.#.#.#.{ =.3.2.t.r.1.&.#.#.) ( ( k k k f g D G F B C Z I I I I K I J.(.(.[.9.@.g g } } X.I H.x., > g.f.f.f.f.b.M.M.M.v.c.m.M.M.W.Z.m.z.z.5 n.Z.C.C.V.V.V.C.A.A.V.                                    ",
"                                                  k.dXgXgXgXS.c.                                                                m.C.C.V.k.k.b.C.C.m.c.< . . . d 3.[ { ) ] ) ] ] ' 6X6X7X[ j ,.7X7X-.' ` j z h z h h y 0 z _ ] ] ] ] ] ] j x x ] ] ] ` ' =.f p w 0 X w N p e w w w @ w w q q r r r i X X u _ ' ' ] ] ] ] j j ] ] ' 6X6X7X2.q.e.#X{.O.P P P P P P P L L L P P P P P U Y Y ....4.4.9.4.4.4.9.9.8.[.[.[. X X X-X:XZX,X<XXXy.0.8X0.8X0.0.:.:.-.-.` ] x x x l _ j l l l l Q E Q Q Q *.0.0.u.}.9X8X8X8X8X8X8X8X8X0X:.0.8.! R K K , K 6 K K K G.J.[.[.*._ :.' -.7X7X7X9X9XiXpXpXpXuXpXpXaXpXpXuX9X9X9X9X9X6.W F R R T T T (.[.{..X(.F ;.9Xr.;.$.( l k k ( @.k #.@.@.) ( =.<.t.t.t.1.=.#.#.( #.#.) k f g g S B n m V V I 6 7 7 7 H.H.J.(.[.8.#.) k g G T H.G.x.g.g.f.f.f.f.z.n.M.Z.m.z.c.m.m.M.Z.Z.m.b.z.z.M.Z.A.A.C.A.A.gXgXA.                                    ",
"                                                  l.gXzXgXQ.c.                                                                  C.Q.C.V.k.k.V.A.E.m.c.=     . g [ [ { ) ) ) ) { ' [ 7X7X` x ,.7X7X' ' _ x z h z h y y h _ ` _ ] ] ] ] ] x x j ] j j ] ' =.f p w 0 X p N p p p p w w w w q q w r r i X % X j ' ' ] ] ] ] j j ] ] ' 6X6X7X2.q.e.{.+X'. .I I I P P P L P P P P P P P P T Y ....4.4.9.9.9.4.9.9.9.8.8.8.oXoX[. X.X.XXXoXoX0.0.8X0.0.0.0.0.:.-.-.' ' _ x j j l l l l Q Q Q Q Q W W W 0.0.y.|.yX8X8X8X8X8X8X8X8X8X:.0.8.[.J.K K , 6 6 6 K K G.H.J.[.8.:.:.-.-.-.7X7X9X9XtXuXsXpXpXpXpXaXaXpXpXuX9X9X9X9Xr.! R R R T T J.J.(. X.X'.V i E u.u.-.#.) l k k E E E @.@.@.@.#.&.r.u.u.r.r.1.;.=.=.=.#.k f g g S B n m V V 6 6 x.x.x.v.H.H.H.`.[.;.;.;.$.@.G I H.x.x.f.f.f.f.h.z.b.D.Z.m.b.b.b.m.m.Z.Z.Z.C.m.b.z.m.C.S.S.S.gXzXzXQ.j.                                  ",
"                                                  B.gXzXQ.m.9                                                                 < C.Q.A.N.N.N.A.Q.E.c.=       . | 3.[ { ) ) ) ) { [ [ 7X7X( z ,.7X,.' ' ] x x z h h h y z ` _ ] ] ] ] j x x x j j ] ] ] ' #.f s p e 0 a J s s s p e t w w w w w r r i O % X f ' ' ] ] ] ] j j ] ] ' [ 6X7Xt.e.)..X'.*X'././.I I I L L V V L L L L P P U U ....4.4.4.9.9.9.9.9.9.8.0.0.0.oXoXoX|.oXy.0.0.0.8X8X0.0.0.0.0.:.:.-.-.' ` j j j j l l Q Q Q Q W W W W W ! 9.0.y.}.8X8X8X8X8X8X8X8X8X:.:.0.[.[.J.K , , , 6 6 K G.G.J. XoX0.:.=.` ` -.-.0X9Xu.}.sXpXpXpXpXaXaXpXpXpXuX9X9X9Xu.9.R R R K H.H.J.J.`.'.*XJ.3 r f r.9X1.=.( l k k E E @.D %.%.%.%.&.r.w.H d *.;.1.,.3.$.) k f g S B m m m 6 6 6 x.x.x.x.v.v.H.L.L.3 S %.&.&.$.} I H.M.n.f.f.f.h.b.b.D.Z.V.b.b.b.b.b.b.Z.Z.Z.C.m.b.b.m.Z.S.!.gXzXzXgXj.                                  ",
"                                                  B.gXQ.c.                                                                    j.B.Q.A.B.B.B.A.Q.m.1         . | >.$.{ ) ) ) { >.3.3.2.3.) g ,.7X[ ' ] _ j j x h h y 0 l _ ) ) ) ] ] j x j j j j j ] ' -.#.k s s p 0 a W J s s p e p p e w w w r p p X % % e ` ' ] ] ] ) ) j ( _ ` ' [ 7Xt.{.(.'.*X*X:X1XAXAX:X_.I I L L I I I I P P P P X.....4.4.4.4.4.9.9.9.9.8.8.0.0.0.0.y.0.0.0.0.0.0.8X8X0.0.0.0.:.:.:.-.0X-._ j j j l l Q Q Q Q W W ! Y Y ! ! 8.oX|.}.8X8X8X8X8X8X8X8X8X:.:.[.[.J.G.K , g.g.x.x.G.G.J. X[.6.$.#.( _ :.:.-.1.t.u.yXpXpXpXpXaXaXaXaXaXpX9X9X9Xu.8.Y R K K G.G.H.J.`.`.*X`.3 : # u ;.9X,.=.( z k E g D } H H H } %.*.q.7.b p J %.;.<.3.3.$.@.D S B b m 3 6 6 6 6 6 5 6 x.x.v.H.L.z.o O i S %.%.U H.L.n.n.h.h.h.b.b.D.A.C.k.d.z.z.z.b.b.Z.Z.Z.Z.C.m.m.Z.S.Q.hXzXzXA.                                    ",
"                                                  j.m.z.                                                                      j.Q.gXQ.B.B.A.Q.Q.c.          . | >.>.@.| | a.@.$.$.3.2.>.g g 3.3.[ [ ` { ) x z h h y h #.( j j j ) ] ] j j ] j j ] ] ' =.=.E s s s 0 a 4.W J s p p p p p e e t p F F @ X X X l ` ] ] _ ( ) j l ) ( ` ,.2.t.|.'._.$X&X;XNXFXIXIXJX&XI I I I I I P P L L P U U Y Y ..4.4.4.4.9.4.9.9.6.6.0.0.0.0.0.0.0.0.0.0.0.8X0.0.0.0.0.:.:.:.-.-.` j j j l l Q Q Q Q W ! Y Y T T ! ! [.oXoX8X8X8X8X8X8X8X8X8X:.~ 9.[.J.G.K , , g.g.x.x.G.J.Y. X0.;.$.#.Q :.:.$.1.r.u.tXpXpXpXpXaXaXaXaXaXpXpXyXu.|.oXJ.R K K G.G.H.L.P.`.%X%XI : & @ u $.7X,.=.) k D D D H G Y Y H } ..5.{.(.M n S D @.$.3.=.;.*.} G C m 3 6 6 6 6 6 6 6 x.x.x.v.L.M.> O O O X i B V H.L.M.n.b.b.b.V.A.A.C.k.h.f.f.z.z.b.b.M.Z.Z.M.C.C.C.S.Q.Q.gXgXC.                                    ",
"                                                                                                                              l.Q.gXgXA.Q.Q.Q.m.2           . +.e.} | | | S | | >.>.q.5.S d 3.[ [ ' ' { ) x h h h h g $.@.z z j ) ) ) ) ) ) ] ] ] ' ' ` =.k g z f u a *.6.%.N s s s s s e p p N H Y i X X X s ` ] ` _ ( ) k ) k k #.;.1.t.{.'.$X$X=X;XNXSXKXKXJX$XI I I I I I L P L Z P P U U Y ........! 4.4.4.9.9.9.6.0.0.0.0.0.0.0.0.0.0.0.0.0.0.0.0.:.:.:.:.-.-.l l l l k k f J J W ! Y T R R R ! 9.[.oXoX8X8X8X8X8X8X8X8X:.~ ~ 9.Y.J.G., , g.g.g.x.G.H.P. XoX&.#.E Q E :.:.r.u.u.u.tXuXpXaXaXaXaXaXaXpXpXyXy.|.{.[.G.G.x.6 G.K.K.L.L.`.%XP.3 3 3 & w $.1.,.#.k g D H B F U U U P U X.(.). .C S S D E #.;.r.r.6.} F m 3 6 6 6 x.6 6 z.x.5 6 x.M.L.L.: $ O @ @ @ i V H.I.Z.D.D.D.A.A.dXB.d.f.f.f.f.f.h.b.m.D.M.m.m.M.C.S.Q.gXgXgXk.                                    ",
"                                                                                                                              m.gXgXgXmXgXgXQ.c.            9  .O.+. . . .A | +.+.5.5.X.V d 3.[ [ ' ` { j z h h y u | &.@.a.g k ) ) ) ) ) ) ] ' ' ' -.=.=.( z k z h s &.6.W J s J J J J s p p S J Y i X % X X ( ` ` ( ) ) @.@.@.E @.%.*.w.{.'.&X=X=XjXVXSXSXFXW.7 I P I I I V V L L Z P T T U Y Y Y Y Y ! ! 4.4.9.9.9.6.6.0.0.0.0.0.0.0.0.0.0.0.0.0.0.0.0.:.~ :.-.-.-.( l E f f J N J H Y T T R R R R Y [.{.|.oX8X8X8X8X8X8X8X8X:.~ ! [.J.G.g.g.g.g.g.g.x.G.P. X[.*.@.k k E @.*.&.r.r.y.y.}.pXaXaXaXaXaXpXpXuXyXy.oXoX XJ.G.x.x.x.x.n.K.L.P.%X%X6 3 3 3 # w #.2.3.#.@.D G B C L L L L L P (.(.(.P F H H E E @.#.&.6.5...P I 6 6 6 6 5 > > > > 5 x.v.L.L.H.m # @ @ @ i a I L.I.S.S.S.S.gXgXB.d.f.f.f.f.f.h.z.b.m.C.m.z.z.m.C.Q.gXgXgXk..                                   ",
"                                                                                                                            - C.gXkXgXgXgXgXC.<             9  . . .4 4 4 4  . .+.O.O.I 4 d 3.[ [ ` ` ( j z h y y d +.*.%.| g g g ) ) { ) ) ` ' [ [ ' ` _ z z j j h s ;.*.E f f E J J J f a s s S H i X X X X g =.{ #.@.@.%.%.} H H H ..7.{.'.:X;XNXjXlXSXSXSX;Xv.I I I I I V V Z Z C L T T U U U G H Y H Y ! ! 4.9.9.*.9.6.6.6.0.0.0.0.0.0.0.0.0.0.0.0.0.0.:.~ :.-.;.:.$.E J J S S N F R L L R R R R R J.[.XXoX0.8X8X8X8X8X8X8X:.~ ~ 9.Y.P.G.g.g.g.g.g.x.G.P. X[.4.E k k E E %.%.*.6.8.y.|.tXpXaXaXaXpXpXuXyX}.0.9.8.[.J.G.x.x.x.n.n.n.L.L.%X%XG.3 3 3 3 $ w $.2.;.@.D F C m m I I I I I H./.(.(.Y H H W k k k k %.6.7.X.J.K 6 6 > > > > g.g.z.x.x.M.L.H.L B i @ @ w a n I L.!.!.hXhXzXzXA.d.f.f.f.s.h.h.b.b.C.Z.C.k.f.z.b.m.C.S.C.m.5                                   ",
"                                                                                                                            < ^.mXkXkXkXzXQ.c.              9 7 /.7 7 7 7 7 7  . .(./.v.6 b 3.[ ' ` ` ( l h u 0 e S } } | D D | } | @.) ) ( ` [ [ [ ' ` ` j z j j h u 0.;.z z z k k f J J s f f D %.i X X X % a &.#.#.@.%.} } H G F U U X.).'.:XNXVXVXSXSXHXKXJX1Xv.7 I I I V m m V C n n C L F F F F G H H H H W ! W ! *.9.6.6.6.6.0.0.0.0.0.0.0.0.:.0.0.0.0.:.~ :.;.;.:.E J N n n C F R K K K R R R R T [. XXXy.8X8X8X8X8X8X8X0.~ ~ ! [.P.K.x.g.g.g.g.x.G.P. X X! W E k E W W W %.4.5.8.{.|.yXpXpXpXpXuX}.y.0.9.Q ! (.`.K.G.x.x.n.n.n.K.L.I.%XH.3 3 3 3 : @ w $.1.&.D B C V 6 7 7 6 6 K H.H._.`.[...} %.E #.#.k k E 4.o.(.H.6 6 , > > g.g.g.g.z.x.n.L.P.J.o.4...S a u a F H.W.hXlXlXlXzXA.b.b.h.f.f.s.h.h.b.V.Z.C.k.s.f.f.z.b.b.b.b.b.z.=                               ",
"                                                                                                                            < Q.kXkXkXkXmX^.<               9 v.T.v.c.c.v.c.c.v./.].H.v.6 b >.3.3.{ ) #.k h 0 e u O.O.| Z Z | } } } %.) ) ) ,.,.,.[ [ ' ' j j ' ' h e ;.:.l z k k k @.E E D D E %.%.d @ + X X @ %.*.%.%.} H G F F L L L I (.'.:XNXFXSXHXHXKXKXKXKXFX_.I I V m 3 v C b b C C C C B B S S J H H H H ! W W ! ! *.*.*.0.6.0.0.0.0.0.0.:.:.:.0.0.:.:.:.Q :.;.;.W J F F C M K K K M c K K K R R J.[. XoX0.8X8X8X8X8X8X0.~ ~ ~ Y.P.P.K.K.x.g.g.x.G.P. X X4.D J E E H H H H H ..7.[.{.|.yXpXuXyX}.0.6.*.W N N Y (.P.G.x.g.g.n.n.n.L.L.%XL.: 3 m 3 : # + w $.>.} G V 3 6 6 6 6 6 6 G.H.L.`.(.o.%.%.@.#.#.) k k D } X./.H.G.x.g.g.g.g.g.f.f.z.x.L.L.(.7.9.6.6.6.*.D g U _.=XlXlXlXjXZ.n.b.b.h.h.d.d.b.b.D.S.A.N.d.s.s.s.f.b.b.C.D.C.m.z.                            ",
"                                                                                                                            j.Q.kXkXkXkXgXm..               9 v.M.c.z.z.z.z.c.M.R._.v.c.8 4 q.3.3.$.@.%.g u 0 0 p O.U P V V V P +.} } | ) $.3.3.,.7X6X' ' ] ] 6X' z e $.#.l l k z #.#.@.E D D D %.%.J w w + X X D *.%.%.H F C L L m K K H.J.`._.$XNXSXHXHXKXKXIXIXIXJX_.7 6 3 i M b M M C L C C C F F F F J J F F H W W W ! ! 9.*.9.*.0.0.0.0.0.0.0.*.0.0.0.:.:.:.:.Q :.;.9.W F F V M v K K K c K R R R R J.(.[.oXy.8X8X8X8X8X8X0.:.~ ~ !  XP.P.K.K.n.x.G.K.P.`. X9.W D J H H J F F F U Y o.[.oX{.}.yX}.8.9.! W J N p N (.P.K.x.g.g.g.n.n.K.L.$XP.: : : m 3 # # @ u *.5.X.V 6 6 6 6 6 6 x.x.L.L._.`.X.H @.#.@.) k ( ) g D G  ./.H.G.x.g.g.g.f.f.f.f.x.n.L.P.J.9.9.*.;.;.;.*.%..._.hXzXjX=XM.M.M.n.n.b.b.b.V.V.A.S.A.C.d.d.s.s.f.h.b.V.C.A.A.A.b.                          ",
"                                                                                                                            j.gXkXkXkXkXQ.<                 = v.M.m.z.z.z.b.b.C.W.W.c.c.8 3 q.>.>.| | | d u 0 0 B X.P I V K m V P | | *.&.>.3.3.2.6X[ ' ' ] ] 6X6Xz 0 #.#.l l l z l #.@.E D @.*.@.*.%.a i @ X X N 6.%...F C L L K K 6 6 K H._.P.; 6 M.;XSXKXKXIXIXIXIXFXv.3 v M M v r v M M M M M C N F F J J J J J J W W W W W W W 9.*.*.*.*.*.*.*.~ *.0.0.0.*.~ :.~ ~ 0.6.4.Y T M v : K K K K K K K K R J.J.[.oX0.8X8X8X8X8X8X0.0.~ ~ ~ Y.`.P.L.K.K.K.K.K.P.%X X7.%.J S J F F N F F F T T (.[. X{.|.[.9.! Y J N n t r T J.P.K.g.g.g.n.n.n.L.L._.6 $ # : 3 3 # # X a 5.X.I 6 6 6 5 6 6 x.x.M.L.L._.J.N E #.k z z k k k g d A P /.L.M.x.x.g.x.h.h.h.n.n.L.L.J.Y *.&.#.$.;.$.#.@.+./.W.$XL.7 H.H.M.M.n.b.D.C.A.A.gXgXA.d.s.s.s.f.f.b.V.C.A.dXdXA.k.                        ",
"                                                                                                                            j.gXkXkXkXmXC.                  = c.M.m.b.b.k.b.b.V.Z.W.m.c.v.3 e.q.5.+.Z A i @ @ @ Z X.I I 6 K K 4 I P +.} 5.>.<.2.2.rX[ [ ` _ ] ,.7Xj 0 E #._ l l k l l E @.f E *.:.*.%.d i w + X i 7.o.Y U L K K 6 6 6 6 6 G.H.`.: : : ; z.C.jXSXKXIXIXKX$X3 # b v r r : 3 r r r r i v n n N F G Y H H J J H H W W W 4.9.*.W ~ ~ *.*.W ~ *.0.0.*.~ ~ ~ ~ %.8.8.Y T R K K , , K K K K K K K K J.Y.[.oX8X8X0.8X0.0.0.0.~ ~ ~ ! [.P.P.P.K.K.K.I.P.%X X7.H G F F F C M M R L L L T J.[.[..X[.Y F F C n v r @ M J.P.K.K.g.n.n.n.n.K.L.$X6 # # # : 3 3 # @ @ F o.J.I 6 6 6 6 6 z.x.n.M.L._.(.H E #.( z z z k k g g S B P /.L.M.n.n.n.h.n.n.n.D.Z.I._.(.%.*.*.$.#.#.#.$.$.} U o.X.3 & I H.M.M.Z.Z.S.S.gXgXgXA.k.s.f.f.f.h.b.V.C.A.gXgXgXC.                        ",
"                                                                                                                            j.gXkXkXkXQ.<                   = c.M.b.b.b.b.b.V.V.A.Z.m.n.c.8 O.e.+. .V 4 & O X @ P J.I 6 6 6 6 6 7 L  .+.O.5.q.2.qX7X,.=.{ ) ` 7X7Xx 0 l :.#.l l l l l #.$.E k #.=.$.%.J a a w + @ Y (.X.T L K K 6 6 , , 6 6 H.`.K : $ : ; ; ; ; b.Q.lXVX$X3 : M r : : # # r r r r p n n p n S H ....4.9.%.H J H H W W W W W W ~ *.9.W W ~ *.*.~ ~ ~ ~ ~ ~ *.8.7.T R K K 6 , , , , , K K K K J.J.[.oXy.0.0.0.0.0.0.0.0.~ ~ ~ ! (.P.P.P.I.U.U.-X%X X[.Y Y F F M M M M K R R K R T J.(. X(.U B M M M v r # r U J.K.K.n.n.n.n.n.K.I.$Xx.: # # r i v v : O @ U (.H.6 6 6 6 > z.x.x.M.L.P.`.[.:.#.( l l l z k k f g S d Z /.H.M.n.n.n.n.D.D.Z.Z.Z.$X_.o.%.%.#.#.#.( #.#.$.%.%.} +.V * 4 7 M.Z.Z.S.hXhXzXzXA.V.b.z.z.b.b.b.V.A.A.gXgXgXN.                        ",
"                                                                                                                            j.gXkXkXgXc.                      c.m.b.b.b.b.d.V.C.S.W.m.m.v.4 (.). .I 6 3 $ $ O & I H.6 6 6 6 6 5 6 6 L  .O.5.w.t.qX3.=.@.@.k { 3.7X_ y z -._ j l j j ( #.=.=.( ` =.;.$.@.S i w @ + M (.(.I K K 6 , , , , , 6 x._.H.: : $ $ : $ O $ ; ; > 6 3 3 M r : # # # # r w r i p i n n F Y ..7.O.{.y.y.9.H D D W W W W W W ! ! ! W *.~ ~ ~ ~ ~ ~ ~ ~ Q 9.[.[.J.R K 6 , , , , , , , K K G.J. XoXoX0.0.0.0.0.0.0.0.0.~ ~ ! Y. X%X%X-X-X-X-X<X X[.Y H F C m m m v K K K K K I I J.(.(.P n M b M M v # @ i J.P.K.K.n.n.n.n.L.I.$Xx.: r r r i v M M # X w X./.v.x.5 > > g.z.x.n.L.L.`. X0.;.:._ =.=.( ) ) E g d d A A I H.L.I.Z.Z.D.S.S.S.S.Z.L.J...%.@.k k z k ) @.%.} } +.X.I 2 o 2 7 M.Z.!.hXhXhXA.C.b.m.b.b.n.b.C.Z.C.C.C.k.                          ",
"                                                                                                                            j.Q.gXgXC.1                       c.m.b.b.b.b.d.V.A.S.!.C.m.M.8 /.)./.v.6 2 o O O 3 H.H.6 6 6 , , 5 6 6 6 I X.[.e.p.p.r.&.D J g @.<.7X` h z -.` j j j j ( _ =.=.` ` ' =.=.@.D d a w w # (.J.I K 6 6 , , , , , , x.L.P.: $ $ $ : $ + $ $ O o 3 P V m v # # # # # r r i i i i n n F F G O.O.7.{.}.OX}.8.W J H W W W W W ! ! W W W ~ ~ ~ ~ W W ~ ~ Q 9.[.[.J.G.K , , , , , , , , K G.J. XXXoX8X0.0.0.0.0.0.0.0.0.~ :.9. X%X-X-XBXBXBX,X.X[.Y G U L m m K K K K K K K K K H.J.(.I m M b M v v # $ # L J.L.I.I.D.I.I.I.U.$Xx.: # # r v M n n m & X n (.H.x.6 > , g.g.z.x.L.I.$XL.T 0.7X7X,.-.=.( ) k g s d d d A I L.I.I.S.S.S.S.dXhXS.M.H.(.%.) z g g z k k @.%.|  . .I 7 2 . . ; 8 m.Z.S.Z.M.m.M.m.M.M.M.M.m.m.z.<                               ",
"                                                                                                                            < C.Q.C.<                         z.m.b.b.b.d.F.N.A.S.!.Z.m.M.c._._._.x.5 ; o o o 6 H.v.x., , g.g.x.6 6 6 H.(.{.5.i.u.q...U F n S 6.t.:.h z -.-.] j j j ) ( ( ( _ ` ` ' -.$.%.H a w r + L J.K K 6 6 , , > > > > z.n.P.: $ + $ : $ O O O O O L (.O.Z m : # $ @ @ r r i i i p n n B F ..O.7.7.w.|.OXOXiXiX|.*.W W W W W W W W W W Q Q W W W W ~ ~ Q W ! [.(.J.G.G., , , , , , , K G.J. X XoX0.8X0.0.0.0.0.0.0.0.0.8X0.oX X-XZXZXCXBX,X.X[.4.H F C M m 3 , , 6 6 K K K K G.H.(./.I m m v v 3 3 # @ v J.L.I.I.U.U.U.U.=X$Xx.: : # # r M C n C U 3 % C /.G.x.g.g.g.g.x.x.M.L.I.M.; # D 1.1.,.=.) k k g g d d B b 3 I L.I.U.S.hXhXhXhXS.D.M.H...@.k g z z g g | | |  .I 7 7 7 2 . .     = = = 2 5 5 5 5 5 5 5                                       ",
"                                                                                                                              j.l.<                           5 m.V.b.b.d.F.N.A.S.!.Z.m.M.c.R._.M.x.> ; o o o H.L.x.x.> > f.g.g.z.6 x.H.(.(.G }.|.7.T L m v n 7.y.r.s f -.6X' j j j ] ] ) ( ( _ _ ' ,.;.%.%.S a p + m J.H.G.x.x., , , > > > f.x.L.6 $ $ $ $ $ O O O O o I ).).I K 3 : # $ # r r v v i B i n n C ..7.{.7.e.w.|.OXiXiXiXiX}.*.J J W W W W W W Q W W Q W W ~ ~ W Q Q ! [.(.H.G.6 , , , , , , , G.P. X XoX0.0.0.0.0.0.0.0.y.8X8X8X8X}. X%X,XZXCXBX,XXXy.6.4.G C K K , , , , 6 K K K K K H.J.(.H.m m v v 3 3 : # # M H.I.U.U.U.U.=X=X$Xx.: r r # # i n n G 7.7.n # I H.x.x.g.f.g.g.x.x.L.I.M.> O X w Q r.,.=.$.) k g d d d V 3 2 6 L.I.S.hXhXzXzXS.D.M.H.J.H g g k ) a.g D | |  .I v.v.c.z.1                                                                   ",
"                                                                                                                                                              < m.b.b.F.F.F.N.A.A.!.Z.m.M.c.M.W.M.x.> ; o o ; H.M.x.g.f.f.f.f.f.f.x.v./.).).P {.{.(.H.6 6 3 m J.{.y.f h -.-.' x j j ] ] ] ] j j _ ' -.1.&.%.J s s w $ /.L.H.x.x.g., > > > f.f.n.L.K O $ $ $ + + O O O % V ).]._.v.6 3 : # $ # v M v i B n n B ..O.O.O.7.5.e.e.w.OXOXiXiXpXiXu.%.J E W W Q W W W W W W W Q W W Q Q Q ! [.J.J.G., , , , , , , G.G.P. XoX0.0.oXoXy.0.0.y.8X8X9X9XyXyXyXXX,XBXBX,X XoXy.0.9.Y F m : : , , , 6 6 K G.K 6 H.H.P.J.m m m m 3 3 3 r r i T L.U.=XMXMXMXMX$Xx.: r i r # r p G ....8.oXJ C H.G.x.g.f.g.z.x.x.M.L.I.> o O X X s $.<.3.=.#.@.D S A V 4 2 2 5 M.W.!.hXzXzXA.b.n.M.H.Y E ) ) ) | g S Z Z I 7 v.M.C.m.z.=                                                                 ",
"                                                                                                                                                              - b.V.b.F.F.F.V.A.Q.!.W.m.M.c.R.W.Z.c.5 ; o o 2 H.v.x.g.f.f.h.f.f.f.x.L._.'.).L .X.X`.H.x.6 , K J.[.8.f h ` -.' ] j j ] j j x j ] ] ' -.,.$.@.E f E e % I _.H.x.x.g., > > f.f.h.n.K.G.$ $ $ $ + + O + O O $ ).&X&X$XH.6 3 : # 3 v b b b B b b A X.O.[.{.7.e.e.e.5.q.}.OXiXiXiXpXiXu.@.E E Q W W W W W W W W W W Q Q Q E ! [.J.H.G., , , , , g.G.G.P. X XoXoXoX0.0.y.y.9X8XyXyXuXuXuXuXpX@X<X%X XoX*.;.y.6.4.U m , , , , , , 6 6 x.x.6 G.H.H.`.I m m m m 3 v v i # m H.U.=XMXMXMXMX$Xx.: v r r @ w p J G S %.y.5.F H.L.n.g.g.g.z.x.x.n.L.L.6 ; $ O O % X g ;.<.;.$.%.| Z V 3 2 5 > 5 n.Z.!.hXS.V.b.z.x.L.J.4.@.@.@.| D A A Z 7 v.M.M.A.S.C.m.<                                                               ",
"                                                                                                                                                              = m.C.V.F.F.V.V.A.Q.!.W.< c.c.M.W.Z.m.> ; o . 5 M.x.z.f.f.f.f.f.f.z.n.L._.'.(.3 .X*X_.M.x.x.x.x.(. X[.z h _ -.' ] ] j j j j x ] ] ] ] [ ,.=.l k k *.s X : H.L.x.x.g.g.f.f.f.f.f.h.n.H.: $ $ $ + O O O O O O 3 _.;XNXNX_.K m : 3 3 v b b n B Z X.U O.[.e.{.{.7.O.5.w.y.u.u.i.i.iXiXpXwX1.k E E W W W W W W W W W W W Q E E !  XJ.H.G., , , g.g.G.K.P. X XoXoXoX0.y.oXyXyXyXuXuXuXuXpXpXpXpXXX[.oX8.W W 9.8.7.T K 6 , , , , , 6 x.x.x.x.x.G.L._.J.K m m m M M M M v & I _.=XMXMXMXMXU., r i r # r i p n N J W ;.8.H Z H.K.x.g.g.g.x.x.n.L.I.z.; $ O O O O % i D &.&.5.} G I 3 2 5 > f.z.z.b.b.b.z.f.z.x.M.L.(.} D | | | A V 4 8 c.m.M.A.A.Q.Q.C.j.                                                            ",
"                                                                                                                                                                z.C.D.V.V.V.A.A.Q.W.m.= c.c.M.W.Z.b.z.; . . 5 M.n.z.f.f.f.f.f.h.n.M.L._.'.H.; '.*X$XM.x.x.g.x.`.`.[.k h k -.' ] j j j j j j x j ] ] ' ,.-.( #.#.=.Q X O I L.K.x.x.g.f.f.f.f.f.g.n.G.: + $ # O O O O O O O o 6 W.NXSXSX$XK 3 3 3 3 v b b b U O.O.O.7.{.{.{.O.O.w.q.q.&.<.r.t.t.wXwXwXwX9X1.%.E E W W W W W W W W Q Q Q E J Y. XJ.P.G.g.g.g.x.G.K.P. X XoXoXoXoXoX}.yXyXyXuXuXpXpXpXpXuXyXoX~ Q Q W J S 4.[.(.H.G.6 , , , , , x.x.x.x.x.G.H.P.`.I m m m m M M M v : 3 H.$XMXCXCXMXL.: r i r r i n B p S J D %.0.%.S P H.x.x.g.x.x.n.K.I.I.x.; $ O O O O O O X a H 5.7.X.I 7 5 > > f.f.f.f.f.f.f.f.f.x.x.L.`.o.D D | | Z 4 5 5 z.b.m.C.A.gXgXgXQ.m.                                                          ",
"                                                                                                                                                                z.C.D.V.V.A.A.Q.!.W.5 . < c.m.W.Z.m.z.; o . z.M.n.h.f.f.h.h.h.n.n.L.$X_.].7 = $X=X$XD.n.b.x.x.`.'.[.l h f =.' _ j j j j j ] j j ] ] ' ,.,.=._ ` ,.;.0 X : H.H.x.x.g.f.f.f.f.f.g.n.H.: $ $ # O + + + O O O O : , n.!.VXNX_.6 3 3 3 m V V Z A | O.O.O.{.e.7.7.5.q.q.r.r.r.1.1.<.7X7X7X9XwXwXwX1.Q E E W W W W W W W W W W J H [. XP.P.K.G.K.K.K.L.P.`. XoXoXoXoXoX}.yXyXyXuXpXpXpXpXuX8X~ Q ^ ^ N E N s n 9.(.J.H.x., , , , , , , g., x.x.G.L.`.H.V V m m m m M v 3 : 6 L.=XMXMXU.x.: r r r r a d B F H G g @.&.%.s F H.H.n.n.n.n.n.L.I.I.x.; O $ O O O O O + O X i U X. .v.x.z.5 > f.f.f.f.f.f.f.f.g.x.L.`..XY G D A A 4 5 5 z.z.m.Z.Z.Q.gXzXzXgXC.z.                                                      ",
"                                                                                                                                                                5 C.A.A.V.A.dXQ.~.R.=   1 c.m.W.W.m.z.; . . x.I.n.b.h.h.h.h.h.n.M.I.Z.Z._.7 = _.;X=XZ.b.b.n.n.%X%X[.=.z h =.=.` j j j ) ) ) ) ) ) ] ` ,.,.=.` ` ,.1.p X O K P.G.x.g.f.f.h.h.h.g.n.H.: $ $ $ + + + + O O O O $ : $ ; > 5 5 3 m C Z C A A Z | O.O.O.O.O.O.7.5.5.q.6.r.r.r.1.1.,.1.7X7X7X7X7XqXqX7X;.Q E W W W W W W W W W W J ! [. XP.P.L.I.I.I.U.%X X XoXoXoXoXoXoX}.yXyXyXpXuXuXyX~ ~ ^ ^ ^ y ^ N N p t v J.J.H.G., , , , , , , g.g.g.x.G.L.`.J.I V m m m M M m m 3 3 K H.L.L.G.: r r p i w w a G } H G g E @.@.g s T L.L.K.n.K.I.I.I.L.5 o O O O O O O O @ # @ O O v  ./.v.x.x.z.f.f.f.f.f.f.f.f.g.x.L.L./.P B A A 4 3 5 5 z.z.b.D.S.Q.zXlXkXkXzXgXC.                                                    ",
"                                                                                                                                                                < C.S.A.A.A.dXQ.~.v..   = m.m.M.W.Z.z.; ; . x.I.n.b.h.h.h.h.h.n.Z.Z.Z.Z.$X8 = M.=X=XS.D.D.n.M.$X%X{.;.z h #.=.` ) j j j j j ) ) ( ( ` -.,.,.` ' ,.7Xf q + $ H.L.K.x.h.h.h.h.h.n.K.G.: $ + # + + + + + + + + + # $ $ O O $ $ # v P |  .| O.O.O.O.O.e.+...O.5.6.u.r.r.r.r.<.1.,.,.7X7X7X7X7X7XqXqXqX7X;.*.Q W W W W ! ! ! W W H Y [.`.%XU.U.-X-X-X-X X XoXoXoXoXoXoX|.|.}.}.yXyXyXoX~ ^ ^ ^ y y y y p p t w v (.J.H.x.6 , , , , g.g.g.g.g.x.K.P.`.I L m m m m m m m 3 3 3 m K K m : r p N N p s S H G S J J D D f f s F H.L.I.I.I.U.U.I._.H.M # O X X O O + + @ # @ + @ & V H.H.v.x.z.z.f.h.f.f.f.f.x.n.I.L.`.(.V b 4 2 2 5 f.f.h.b.b.Z.Q.gXlXvXvXvXvXzXC.                                                  ",
"                                                                                                                                                                  m.S.S.A.dXgXQ.W.c.      z.c.m.W.Z.n.> ; . z.I.Z.V.b.b.h.b.n.Z.I.Z.S.!.W.v.= c.=X=XS.D.D.D.Z.%X%X[.:.j h k 3.=.( ) k ) ) j ) ) ) ) ) ` ,.,.,.,.,.7Xk 0 q + m P.L.K.n.h.h.h.n.D.I.H.: $ + # # + + + + + + + + # $ + + + $ # $ O 3 P X.o.{.e.e.7.7.{.7.5.5.q.q.q.q.r.;.;.-.=.-.-.' 6X7X7X6X7X7X7XqXqXqXqX7X*.W D H ! ! ! ! ! Y Y T (.`.%X-XBXBXBX:X<X[.[.[.[.[.oXoX|.oXoX|.|.|.oXoXW ^ y y y y e t t t t t w n (.J.G.G.x., g.g.g.g.g.g.g.x.K.L._.H.K m m m m m 3 3 3 : $ m m m M i i n S S S S S G G S S J E E f k s d T _.$XU.U.U.=XU.%X(.7.9.4.S a @ X X O @ @ @ @ @ + # v L H.L.x.n.n.b.b.h.h.h.n.Z.U.$X*X'.6 3 3 2 5 5 z.f.f.h.b.V.Z.Q.zXvXvXvXvXvXzXm.                                                ",
"                                                                                                                                                                  b.S.hXgXgXgXhXZ.8       < c.c.W.Z.M.> ; = z.Z.Z.D.D.D.D.Z.Z.I.Z.V.S.!.W.v.; z.=X=X!.S.S.Z.U.-X%X{.-.j h z ;.=.{ ( ) ) k g g ) ) ) ) ( =.3.3.,.7X7X$.e 0 q r I L.K.n.n.D.D.D.S.$XH.: + + + q + + + + + + + + $ # + + + # # # X % 3 U {.{.{.{.{.{.{.{.e.5.q.r.q.>.;.=.=.-.=.' ' [ ' ' ' [ 6X6X6X7X7X7XqXqXqXt.*.H ! Y Y ..4...Y Y (. X%X-XBXCXCX:X%X[.[.[.8.8.8.8.8.8.8.8.8.8.9.! N y y y y e e e e e e q q q R (.J.G.x.g.g.g.g.g.f.g.g.x.K.P._.H.K m m m m 3 3 : : : o $ m U C n S J F S s S S S S s f J W :.@.k s u F (.$X=X=X-X-X-XP.R F 4.8.r.0.*.J a @ X X + @ @ @ @ @ i C H.H.v.M.n.n.n.n.n.D.Z.!.=X$XH.7 3 2 5 5 > f.f.f.f.h.b.D.S.!.kXvXvXvXvXzXC.5                                               ",
"                                                                                                                                                                  z.S.gXgXgXgXQ.Z.5         5 z.M.W.Z.z.; ; z.Z.S.S.S.S.S.S.S.Z.b.V.S.!.W.v.; > =XMXhXS.S.S.=X-X*X{.-._ z h ;.;.$.#.@.k g g g g g g g ) ;.1.3.,.7X7X1.p e p r v H.L.I.Z.S.S.S.MX=XK $ # # + r # + + + + + + + $ # $ + + + # q + O O $ L {.@X+X{.{.#X{.w.q.q.u.r.<.;.=.=.=.` ` ` [ ' ' ' ' [ ' ' [ 6XrX7X7X7XqXwXr.%.H Y Y o.o.o.o.(.(.`.-XBXCXCX-X`.(.[.7.7.4.4.4.4.4.4.4.4.! Y Y N t t y e e 0 0 0 q q q q q + M J.J.G.x.g.g.g.g.g.g.g.g.K.P.P.H.K V V m 3 : : $ $ $ : o O M Y F F H H H S S d p s f J g f E E g g s s X.`.-X-XMXMX-X`.C n S @.*.;.;.*.@.E s w @ @ w w w w a a F T H.L.M.M.D.Z.Z.S.!.hXhX$XH.7 6 8 5 5 f.f.f.s.f.f.h.b.Z.!.gXzXkXkXkXzXQ.c.                                              ",
"                                                                                                                                                                  5 C.hXgXgXhXQ.m.5           < m.W.Z.M.5 ; 5 W.!.hXhXhXhX!.!.D.b.V.A.!.!.M.; = W.NXhXhXhXhXMXBX*X{.,.` j h #.&.$.#.@.g D g D D d d g ) &.q.>.3.2.7X7Xf s s p p R _.I.U.=XMXhXMX$X6 # q q + r # + + + + + + + # # # + + + # # + + # O O # (.+X+X#XOXOX|.e.5.q.r.<.<.=.-.` ` ` ` [ ' ' ' ' ' ' ] ' ' 6X7X7X7X7X9XwXu.6.....o.(.(.(.(.(.(.`.-X-X-X%X`.(.X.X.o.Y Y Y Y Y Y T Y T R R R t t e e e q q 0 e q q q q q + c J.J.G.G.x.g.g.g.g.g.x.K.L.P.L.6 3 3 3 : $ $ $ $ $ $ $ o % b U Y ..G G G } J a a s W D g g f g g k k G (.%XMXMXMX%X.X4.S a d E @.@.E l :.:.#.f a u a i p p a a N G I L.L.I.U.U.=XhXhXhX$XH.7 7 8 5 5 f.f.f.f.s.h.b.b.Z.S.!.Q.hXgXzXzXgXm.                                              ",
"                                                                                                                                                                  = m.Q.gXzXzXQ.m.2           . 5 Z.!.Z.n.z.z.Z.hXjXjXhXhX=XS.V.F.V.S.!.!.R.5 ; M.NXjXjXMXMXNXBX:Xw.` ` j h E q.&.*.@.E D D | S S | | | 5.q.e.<.2.qX2.$.D S s N Y (.%X=XMXMXVXMX$X: r w q q r q + + + + + + + + # r + + + # + + + # + + O % b {.@XOXOXOXw.q.q.r.<.<.=.=.=.` ' ` ` ` ` ` ] ] ' ' ' ' -.-.-.,.7X2.t.i.}.|.7.X.X.X.X.(.(.(./.`.`.`.(.J.T T T T T T Y U T U T T T C R R t t t q q q q q q q q q q q q + c J.J.H.K.x.g.g.g.n.n.K.I.$XL.; o O : $ + # $ $ O O $ $ $ O b ..O.| ..H J H J s s E E f g f g g z #.E Y `.-X;X-X X8.6.%.S d g E k k l l _ :.#.#.f s a d S p p s f D Y (.L.U.=XMXhXhXMX$X/.H.v.x.z.z.z.z.f.z.z.b.b.D.S.S.hX!.!.hXhXgXA.j.                                              ",
"                                                                                                                                                                    z.Q.hXzXzXQ.c.              = m.!.!.S.b.b.S.hXlXVXMXMX=XD.V.F.V.S.!.!.Z.x.; c.;XVXVXVXVXVXCX:Xw.=.` ) z f q.6.5.%.} D G G Z Z | | | O.7.).e.r.2.t.&.D J s J %.7.(.%XMXMXVXBXL.r w w w q r r + + + + + + + + # r # + + # # r + + + + + + O $ Z {.@XOXOXw.y.u.1.3.=.=.` ` ` ` ` ' ' ` ] ) ` ` ` ` ` ` ` ,.3.<.2.u.u.}.{.(.P V P P P I I H.H.J.I P P P P P P P P P P L L L L L V M M t r q q q q q q q q q q q q q + c J.P.L.K.n.n.n.n.K.I.U.$XL.; % O # $ $ # $ $ $ O $ $ $ $ O n 5.....} D J J f f E E f k f f z z g k E } (.`.`.4.:.;.&.&.@.f g k k k z l _ _ _ #.@.D s s s s f g D @.%.o.(.$X=XhXhXS.$X/.H.v.v.n.n.n.b.b.b.b.b.D.S.S.hXgXhXS.S.Z.m.z.                                                ",
"                                                                                                                                                                    < C.hXhXzXQ.z.                < Z.!.!.S.S.Q.hXjXVXMXMX!.D.V.V.C.S.!.!.W.M.5 z.!.VXVXLXLXVXCX:XoX=.=.( ( g 5.w.5.4.} G C Z Z Z Z | X.X.(.(.O.e.w.u.q.%.D J W 8.r.7.(.$XMXCX-XK r w w e q r r + + q q + + + + # # # + + + # q + + r + + + + O O $ Z {.OXOXu.r.<.3.,.=.` ` ` ` ' ' ' ` ] _ _ ( ( ) ) ) $.=.$.$.>.r.y.{.{..X'./.4 4 3 3 3 3 v m m P I P P I I P P P P L L I L I m M M v r r q + q q q q q q q q q q + O v J.P.L.L.K.I.I.U.U.=X-X`.T n @ O O O O O O O O O $ $ $ $ O B 4.4.%.%.D g k @.E k z z z z l k z z z k D H J E l $.<.>.*.%.f k k g z z j j _ ( ( $.$.E f s f f k E E #.%.7.(.L.M.n.x.M.M.M.v.v.M.M.M.M.n.n.V.Z.S.dXhXhXdXM.v.8                                                     ",
"                                                                                                                                                                      m.Q.gXgXC.<                   m.!.hXhXhXhXhXhXjXMXhXS.A.V.V.A.hXhX!.!.Z.b.z.Z.NXVXLXHXHXVX:Xw.$.( ) { z J 7.7.....G C m V V I I I I J./.(.O.e.{.|.5.*.%.6.u.u.y.! T `.`.H.c t w w e e q c q q q q q + + + $ # # + O + + # + + r + + + + + O O O $ m O.|.u.<.3.,.=.` ` ` ' ` ` ` _ _ _ ( ) ) ) ) $.#.$.@.%.*.q.w.{..X'.).'./.I 3 # # : : v V L V V I I I P L P P I I I I I V m M M v r q q q q q q q q q q q w q q + r J.`.P.I.I.U.=X-XMX-X X|.y.6.H i % % O O O O O O O O O O $ B 4.8.;.*.f E @.g g f z j ( ) k g z z z z g g f z ) ;.&.*.*.%.f f g z z j j j ) ( { $.$.*.%.D D k k k ) ) $.*.G 3 > 5 x.n.c.; ; 2 5 x.v.M.M.Z.C.S.S.dXS.Z.5 o                                                       ",
"                                                                                                                                                                      - m.A.A.z.                    z.Q.hXzXzXzXzXhX!.hXMXhXS.A.A.S.hXhX!.!.!.Z.c.c.!.VXHXHXHXVX*Xw.#.) ) { ) s O.O.O.X.P I V 7 6 6 6 6 6 H.H./.(.(.{.{.w.6.6.u.u.u.0.Q f Y R M t t t e e w w v r q q q w w + + + $ r + + + # # r + q + + + + + O + O O $ $ b } u.t.3.=.` ` ` ` ` ` _ _ _ ) ) ( ) ) $.%.%.@.} } } O.O.).).(.`.`.`.`.J.v $ # # # 3 v 3 3 m V V I I I I I 7 4 I 4 3 3 # # v v r q q q q q q q q q q w q q w w r T P.P.%X-X-XMXMXBX%XoXr.;.&.*.J w X X O O O O O $ O O O O S y.u.r.E #.#.k z f z j ) ) k f g f z z z f g z k #.#.@.%.%.%.E k z g z j j ) ) ) ) @.@.%.} H D D g g k ) #.$.| 3 ; z.z.z.> .       9 ; 2 5 c.m.b.b.b.5                                                           ",
"                                                                                                                                                                        - z.z.                        m.hXzXlXlXlXhX!.!.hXhXhXS.A.dXhXhX!.!.!.Q.m.c.C.NXVXHXHXFX*Xq.$.$.$.>.$.g Z o.(.(.I I 6 6 6 6 5 6 6 x.H._././.`..XoX8.r.u.9X9X;.l f W N p p p p t t t w n t q q q w w w q # r r r @ + @ # r + q r + + + + + + @ @ $ & # O B q.2.1.=.` ` _ ] _ _ ) ( ) ) ) ) @.%.%.%.} | } Y Y X.(././.H.H.L.P.`.`.I : $ $ # # # 3 3 v v 3 3 3 2 2 2 $ 3 3 $ $ $ $ : v M c r q + q + + q q w w w w w w w n J.P.%X-XMXBXBX-X X9.#.#.( ( =.$.E p X X O O O O O O O O X S y.r.;.#.#.( z z j j j j g f f z z z z g g g g ) @.@.@.%.*.%.g g g g j ) ) ) ) ) | | } ..X.X.G S g g k ) @.| | L 8 z.z.>                                                                                       ",
"                                                                                                                                                                                                        A.zXlXvXlXjXW.!.hXhXhXdXdXhXhXhX!.hXhXgXC.M.b.!.CXVXVXBX.Xq.&.$.>.>.>.@.S X.(.(.H.I I 6 6 6 5 5 6 6 G.L.P.P.`..X{.y.r.9X9X7X-.l z *.E s s s s y p p e p p w q q w e e w r r r v w + w w r r + r + + + + + O + @ # 3 3 & O i H r.;.=.-.` _ _ _ ) ( ) ( ) ) @.@.%.} } } } Y T P I I H.H.H.L.L.L.P._.(.m # $ # # # # # v M v : $ O % O 3 : $ $ $ # : : : v c r # + + + q w w w w w w r p p F T _.%X-XBXMX-X`.! k l j _ _ _ =.$.E s + X O O O O O O O O p r.u.1.:.( z j ) ] j z z z k z z z k k g g f E g g D D %.*.@.g g g g ) ) ) a.a.| | |  .I I I I Z g g g a.| } +.P 6 z.z.-                                                                                     ",
"                                                                                                                                                                                                        z.Q.zXvXlXjXM.m.hXhXhXhXhXhXjXhXhXhXzXzXQ.M.M.Z.!.;X;X*X{.5.} } } >.5.@.D X.(./.H.H.6 6 6 6 z.z.> > x.L._.L._.'. XoXu.9XwX7X7X_ z 0.Q z f s s y p s e p n e 0 e e t t e p p r v w + w w w r q r + + + + + + + # # & 3 v @ # @ a *.1.,.-.` _ _ ( ( ) ) ) @.@.} } } } O...P P I I 7 6 x.x.x.v.L.K.L.L._.J.v $ + # r r # # # : : # O O # $ $ $ # $ $ $ $ # c v r q r q w w w w w w w n N a N F T `.%X-X-X%XJ.J z j ( _ ] _ _ _ _ =.%.a X X O O O $ $ $ O i ;.u.;._ ( ) ) ) j j j l l z z z z g k f g g g g D D D } %.D f k g g g a.g d d Z Z I 7 7 7 H.H.P D g d d D S  .I 7 c.z.-                                                                                   ",
"                                                                                                                                                                                                          b.Q.zXzX~.5 z.!.jXjXlXlXjXjXhX!.hXhXzXQ.Z.M.M.M.n.v.).7.+.| | | +.} } %.} (.`.H.H.x.6 6 > f.f.f.f.x.K.L.L.L.`..X{.u.9XwX7X7X) g u.*.E E z s s s s y p N p t e e e e p a p i v r + w w + r r r r + + + + + + # r & 3 b # r @ + w D &.,.=.` ` ( ) ) ( ) #.@.} | | } ..Z V I I 7 6 6 x.x.x.x.x.x.n.L.L.P.J.I c # # # r r # # # # v # # $ $ + $ # $ $ $ + # r v v r r w w w w w w w p p p p S H Y X.J.`.J.W E l ( _ l ] ] _ j z ( #.$.E a X O O O O $ + O + E 1.-.` _ ( ( ( j j ( ) ) k g g g g g f d g g D D J H %.4.@.) g g g g g d d A V 4 6 6 6 v.H.H.I Z d d d D A I 7 8 z.z.                                                                                  ",
"                                                                                                                                                                                                              m.C.c.o ; M.hXjXlXlXlXjXjX!.!.hXzXgXm.M.M.M.z.5 (.O.X.P V V P +.+.5.} T /._.L.x.x.x.f.f.f.f.f.g.K.L.L.L.%X*X.Xu.9XqX7X[ ] g u.&.Q k E f s J f s y W N e e p s u a p p p n n w w w w r p r t q + + + + + @ # # & v r v r w 0 w a E =.,.,.` ) ) ( ( @.%.} D G Z Z m m I 7 6 6 6 6 x.x.x.z.x.x.n.K.L.L.P.J.I v $ + # # # # @ # # 3 # $ + + $ $ $ + @ # $ $ v M v i w i p p e e p a s s J D D D S W E k l _ #.l z j j l z z l ( #.$.*.D i O O O + + + X X k -.-.` _ ( ) j j ) ( ( ( k g g g g g g S S J J J H } ..5.%.) a.a.g d d d A 4 3 6 5 6 6 x.x.H.H.P A d A V 4 8 c.c.z.=                                                                                 ",
"                                                                                                                                                                                                                      . c.!.lXlXlXlXNX=XW.C.Q.gXgXm.M.M.M.x.6 /.(.I K 6 6 I  . .O.O.P 7 _.L.v.x.g.f.f.f.f.f.g.n.I.I.L.$X%X.Xy.9XqX7X,.) g u.r.*.E Q f f f f s e W J s p s s a s p p p F F w w r w r n t p w + + + + q + r # # v i i p w w w + X u E <.;.$.) ) ) @.@.D D F B m 3 m K 7 6 6 6 x.x.x.x.g.g.x.x.x.n.K.L.L.P.J.T v $ $ # # $ $ $ $ # # $ + + $ $ + + # # $ $ # M M v p p n s a a a f g D E E E E k k k z ( j z h h z k z z z k k E @.%.5.G @ O O O + + X + z -.-.` _ _ j j ) ( ) ) z g g g g g D S S S S G G G ..O.O.D a.g g d S A 4 3 2 6 5 6 6 6 x.x.H.H.I A 4 3 2 5 z.c.z.5 =                                                                               ",
"                                                                                                                                                                                                                        2 Z.zXlXlXlXjX!.M.5 m.Q.Q.m.c.c.M.v.5 /./.H.6 5 5 6 I I /.(./.5 H._.L.x.x.g.g.f.f.f.g.n.Z.I.L.I.%X X{.t.wX7X3.) g u.u.#.E Q E E *.E f u W E f s s s s s s p p J H p w a w p p p p r w q q q q + @ r @ # 3 v N w a i + + X X J ;.;.$.$.#.@.%.} D B B b m K K 7 6 6 x.x.x.x.x.z.z.g.x.x.n.n.K.L.K.L.P.J.I v # $ # # # # # # # # + + + + + @ # # $ $ O # v M n F H J s f D E D f k k k k z z z z z z z g z z z f g g g f S J %.5...v O O + + + + + f -.:.` ` j j j j k k z g g g g S F n d B B B B Z U X.X.} D g D D Z A 4 2 2 5 > > > > g.x.x.v.H.I 4 2 2 5 5 z.z.c.5 =                                                                             ",
"                                                                                                                                                                                                                          c.hXlXlXlXjXW.7 o = z.z.5 5 c.M.M.5 H._.v.z.> 5 5 8 6 v././.6 5 _.L.K.x.g.g.f.f.f.g.n.Z.I.I.I.%X<X.X9XwXt.t.@.g u.u.&.E @.*.;.;.:.E s E *.E E f f f f J s s J H N e e p p s N p p w q q q q q q w w # v M N p p i + + X X X s &.<.<.$.&.*.} H G A L L I 7 6 6 6 x.x.x.z.x.z.x.g.g.g.g.n.n.n.n.K.K.L.P.P.K 3 $ $ # # # # $ # v # + O + + + + + # + + $ # i n F F S D %.*.f g z l ( ) l z z z z z z z ) k g g s f s N n N F U Y X.V O O $ $ # + X f :.' ` l z z z g g g g g g D S B n n B n b b C P P X.X.G d d Z A 4 3 2 2 > > > > > f.f.x.x.M.v.v.5 5 5 > f.z.z.c.z.=                                                                           ",
"                                                                                                                                                                                                                          2 C.hXlXjX!.v.2           = 5 v.M.5 v.R.v.z.5 > > > 5 v._._.v.> z.$XL.L.x.g.f.f.f.h.n.Z.U.U.I.-X-X<X|.wXt.u.%.d u.OXr.E @.#.@.:.;.$.g E ;.:.@.k f f f J f f J W W a p s p N J p p p w q q q q w w w w # v F p p i + q q q X X a %.<.<.r.q.5.O...P L P I I 7 6 x.x.x.x.x.x.x.x.x.g.g.g.g.n.n.n.n.K.K.I.L.L.H.K : # # # # @ # r v r O O + + + + + + + + + + # v F 4.6.6.*.k f z l _ l l z z z z j j z ) ) ) g s s s N n n M V L T (.T : $ $ $ # w 0 f :.-.( j z z g g g g g D D S B B b b b 3 b V I L I /.P V b b 3 4 2 2 ; > > > > f.f.f.f.x.M.M.M.z.z.< > > f.z.b.m.z.=                                                                         ",
"                                                                                                                                                                                                                            < m.Z.C.c.                2 c.M.c.v.R.M.z.> > > > f.n.L.$XZ.n.f.n.L.L.M.n.g.h.n.n.D.U.=X=XU.U.-X*X.Xi.u.w.O.a 6.iXr.#.E E #.;.;.;.z g r.;.#.E k k k k k f f W 6.J p s s s J J a s p e e 0 0 w w w w w i S p a p q q q q q 0 X w D r.y.q.q.5...X.P I I H.7 7 x.x.x.x.x.x.x.n.x.g.g.g.g.g.h.n.n.n.I.I.I.I.L.L.I 3 $ # r + + # r M M # O + O + + @ + + + + + + r J 8.q.*.E z z l j j z z z z z j j k k k k g s s p p n M v v m K I J.J.3 O $ r r w 0 s :._ ( j z z g g g D D S Z C V V V m 3 3 4 4 4 I H./.I 3 3 3 3 2 ; ; ; > > > f.f.h.f.z.n.Z.Z.Z.k.s.s.s.f.f.f.b.m.z.=                                                                       ",
"                                                                                                                                                                                                                                                      ; 5 v.x.v.M.M.z.f.f.f.f.z.n.I.$X!.S.b.f.M.I.L.L.n.n.D.D.S.U.=X=X=X=X-X-X*X|.|.{.X.3 F iXr.$.l l ;.:.:.$.k g r.1.=.$.E k E E E E f E 0.%.f f s s J W s s s e e e e e e e t w w p a p p w q 0 0 0 q q w w a 4.w.e.e.7.o.X. .H.H.I v.v.v.x.x.n.x.x.n.x.g.g.g.g.g.n.g.n.n.D.I.I.I.U.$XI.H.: # # r r w r r n F M # + + + + @ + + + + + + @ n 6.0.:.k z z z j j z z z z z k z k k @.@.g f s n n M v , 3 6 6 K H.J.3 # # # w w 0 s $._ _ l k k g a.D S S C V V 4 4 3 3 3 3 4 6 7 v.H.H.V 3 3 3 2 2 > > > > > f.f.h.h.h.b.D.S.S.V.s.s.s.f.s.f.z.b.V.z.=                                                                     ",
"                                                                                                                                                                                                                                                        = c.v.v.M.M.z.z.f.f.f.z.n.Z.$X!.!.C.b.z.M.$X$XI.Z.Z.S.=XMXMXMXMXMXMXNX:X.X.X)./.4 i u.r.:.#.#.:.:.$.$.:.s ;.1.;.#.( l #.@.E k g E ;.;.E f J f J *.J s f p y e e e e p p w w p n p p w 0 0 q q q q w a + @ B 5.e.{.).(.(././.H.H.H.H.H.H.v.x.x.n.n.n.x.x.n.n.n.n.n.n.D.D.Z.U.U.=X=X$XH.: # r r r r w i N F F i O O @ @ + + # + + + O O a %.r.#.k z x x j j z f z g g g z E @.D D S S C M M v K , , , 6 G.H.J.K 3 & i i p 0 s :.=.( ( ) k @.g d B A V 3 4 4 3 3 2 6 6 6 6 v.v.H.I V 4 3 2 ; > > > > > f.f.h.h.h.b.S.hXhXdXN.s.s.f.f.f.h.b.V.C.b.                                                                    ",
"                                                                                                                                                                                                                                                          5 v.c.R.M.n.z.f.f.f.h.b.Z.$X=X!.S.D.b.m.M.$X$XU.U.=XMXMXMXNXNXNXVXCX:X*X'.'._.6 & r.9X-.-.:.=.:._ :.:.h #.t.;.( l l #.#.#.l k l =.1.&.E f f E &.@.f f s s y y y y p p p e p N N p e 0 w 0 0 0 w w p e 0 X & A O.).(.).).(.(./.H.H.L.L.L.L.n.n.K.K.n.n.n.n.n.n.n.n.D.I.I.U.=XMXMX=X$XG.v r r r r r r i p F H n O O @ @ + @ @ + + O + + w W ;.#.l j j z j z z z f g h s f f g g S B C M M v v , , , , 6 x.H.J.T C b i n p a f $.=.$.#.) @.g d B b V 4 4 4 8 6 5 5 5 6 5 6 v.v.H.I 4 3 2 > > > > > > f.f.f.h.h.b.C.hXzXzXA.d.f.f.f.f.h.b.V.A.C.b.                                                                  ",
"                                                                                                                                                                                                                                                            5 c.M.Z.M.z.f.f.f.h.b.Z.$X=X!.!.S.C.Z.Z.W.$X=XMXMXMXVXVXVXVXVXLXVXNX&X'.]._.v.3 6.1.,.-.` ` ` l _ :.z l 9X;._ x j ( =.#._ j z =.1.1.#.k E E ;.;.g f Q s h h y y s s s s p N F N p e e e 0 e e w p p 0 0 0 a C P  .).'.'.(.(.`.`.`.`.%X_.L.L.L.L.L.L.K.n.n.n.n.n.K.I.U.U.=XMXMXMX=XP.M v p p p p r p p p J 4.H a X @ @ @ @ @ + + + + + w E :.:.( j j j j z z f f h s f g g S F n M M v v v , , , , , , x.H.H.J.m b S N s s f @.=.#.#.@.| S S b 3 4 4 7 5 5 5 5 > 5 5 5 x.v.v.v.6 6 5 5 > > > > > f.f.f.h.h.V.S.hXzXzXA.d.f.f.f.f.h.b.A.S.dXC.j.                                                                ",
"                                                                                                                                                                                                                                                            2 8 M.$XM.z.f.f.f.h.b.Z.$XW.!.!.!.S.S.S.W.W.=X=XMXMXVXLXVXVXLXHXLXVX;X&X&X$XM.2 H 1.,.` ` _ _ _ _ l x z 0X-.l j j ( _ =._ j z _ ,.9X$.) $.#.=.r.@.#.#.E s h h h s s s s p p J J s s p e e e e e s s u 0 0 u F Z P X.).).).).'.'.'.'.*X%X`.`.`.`.%XI.I.I.L.L.L.K.K.I.U.=X=X=XMXMX$XH.R v n n N N p p p p s W 6.4.p @ @ # # # @ # # + + r p f #.#.( j l j ( l z z s s g g g S S n b M v v v , , , , g.g.g.x.x.H.J.T F S f s s k $.$.#.@.| D S b 3 3 7 8 5 > > > > > > z.x.x.v.v.6 6 6 5 > > > > > > f.f.h.b.D.S.hXhXgXV.b.h.h.h.h.b.D.S.gXzXgXC.                                                                ",
"                                                                                                                                                                                                                                                              2 v.W.M.b.f.f.h.h.b.Z.$XW.W.!.hXhXhXhXhX!.W.=X=XMXVXVXVXVXbXHXHXVXNX&X&X$XZ.6 b 3.,._ j j j _ _ _ l z -.-.l j x j j _ ] j x ] ,.7X,.( :.#.=.9X1.;.$.:.Q h h ^ f f f f s s J W s s s u e e e u s J s e 0 u S ..X.O.O.X.X.(..X.X.X.X.X.X.X.X>X%X%X%X%X%X%XP.L.I.I.I.$X$X$X$XU.I.H.L M p p N N J J s a s s J 9.8.9.N i @ + @ @ @ r r q w p p f @.$.( j ( ( ( j z f s s f S S n M M M v : , , , , , , g.f.g.x.x.H.J.T H D J k E k ) #.$.%.| S b 3 3 2 6 5 > > > > > f.f.z.x.v.v.x.x.x.x.z.z.f.g.g.g.g.z.n.n.Z.S.!.hXA.b.b.b.b.b.n.D.S.dXhXzXgXC.-                                                               ",
"                                                                                                                                                                                                                                                                5 M.M.n.f.f.h.h.b.Z.Z.R.v.W.hXhXjXlXjXhXW.M.M.$XMXNXMXNXVXHXHXxXNX;X$X$X$Xx.3 r.1.' j ] _ _ _ j j z l -._ j j j j j ) ) j ] [ ,.7X=.-.-.` 7X9X1.#.$.Q z z z z f s f f f J %.D s s s p e e u s D s u 0 u a O.O.7.e.e.7.e.e.{.|.{.{.{.{..X.X.X.X.X>X<X<X`.`._._.L.L.H.H.G.3 v v v n N s S J J J S J S s f E %.%.D D a @ @ w w p t w w w a a s @.$.( j ( l k z f f s s d F n M M m 3 : : , , , , > > f.f.g.x.K.P.J.Y H D k E #.k ) $.*.} Z V V 3 6 5 5 ; > > > > f.f.z.z.n.M.v.v.v.v.v.x.x.x.x.x.x.n.n.M.Z.Z.W.Z.Z.M.M.n.n.D.D.Z.S.S.hXhXgXC.-                                                               ",
"                                                                                                                                                                                                                                                                ; n.M.n.z.h.h.h.D.Z.Z.v.7 M.!.hXzXlXlXhX!.c.2 v.$X$XZ.!.VXxXbXxXVX;X$X$X$XM.6 *.,.,.] _ _ _ _ ( j z z -.` j j x j j j ] ] ] ' [ ,.-.,.7X7X7XqX9X:.:.:.Q Q Q Q l f z z f f W 9.J s s p e e s J W g s u u u G 7.e.w.|.w.e.w.w.w.q.y.w.5.5.5.5.w.|.|.}.XX[.6 6 6 : : : : M i n p p N J J J J J J J W J f E E D g E ;.;.s 0 w w w t t w w a d f D E E l l l k z z f f s s N n M m 3 3 , , , , , , , > > f.f.g.x.K.P.J...D E k l l ( @.*.} | P I 6 5 5 > > > > > > > > f.z.n.M.L.L.L.M.M.M.M.M.x.v.M.M.L.L.M.M.M.M.M.M.M.M.Z.Z.Z.Z.S.!.hXhXS.b..                                                               ",
"                                                                                                                                                                                                                                                                  x.M.n.b.b.h.b.D.Z.Z.v.4 c.Z.gXzXlXlXjX!.c.9 2 R.$XM.b.S.jXlXVXVX;X=X$XW.W.x.G 1.[ ' _ _ ( ( ( ( j h :.:.j j x x j j ] ] ] ' [ ,.[ ,.7X7X7XqX9X1.:.1.:.:.:.~ Q Q l l k z Q *.W f f s s s f D %.E s u u u a 5.e.#Xe.e.w.e.w.q.q.r.q.*.*.*.*.:.;.r.u.u.u.H + O $ # # $ v F J N p N J J J J f E E E E E @.@.E f k :.1.0.Q s 0 e p p p a w a s D E E #.l ( l k k g f f s n n b v 3 3 , , , , , , , , > f.f.f.g.n.K.L.(.%.E E l l ( ) @.| +.P I I 6 5 > > > > > > > > > z.x.M.M.M.M.M.M.M.L._.'. X`.`.J./._.M.M.n.n.M.M.M.M.m.Z.S.!.!.hXhXS.b.                                                                ",
"                                                                                                                                                                                                                                                                  8 M.M.n.n.b.D.D.Z.Z.v.2 2 c.W.hXlXlXzXQ.c.. = v.$XZ.b.h.A.hXVXMX=X$X$XW.W.M.V 1.,.' ` ` { ) ) ) j h l :.( j x x j j ] ] ] { ' [ [ ' [ 7X7X7X7X7X_ 1.1.:.#.l Q l #.#.E z k %.*.E f f f f f D %.%.g u u u u D w.{.#X{.w.w.q.&.&.&.*.#.$.$.$.$.#.;.;.r.1.r.W w + + # r w N ! H N J J J J J g f E E Q %.*.:.@.E l _ =.-.-.:.f e p p p s a e u f E @.#.#.#.( k k k J J N n n b m 3 6 , , , g., g.g.g.f.f.h.h.f.g.n.K.L.J.W l l ( ( ) ) ) H X.I H.v.6 5 > > > > > > > > z.x.M.M.m.c.c.x.M.M.M.'.@X@XXXoX[.(./.H.v.M.M.M.M.m.Z.S.!.!.hXhXhXA.z.                                                                ",
"                                                                                                                                                                                                                                                                  4 v.M.Z.D.D.D.S.!.Z.v.2   2 c.S.hXkXzX~.5     8 R.W.M.b.h.V.S.=X$X$X$X$X$XZ.7 &.3.,.` { { ) ) k k h z $.( j j x j j ] ) ) ) { [ [ ` ` 6X7X7X7X7X-.1.9X:.l l l :.:.=.$.l Q @.*.@.g f f f k E 6.&.E s u u u d 5.|.OX#Xw.q.q.&.$.@.@.@.#.#.) $.$.*.*.*.:.r.r.W w @ @ w w w n ! W J D E f E f E E Q Q #.#.#.$.:._ j _ =.-.-.-.E s p p s s s u s f E @.#.#.@.@.@.E J S N n M b M v 3 , , , , , g.g.g.f.f.h.h.h.f.g.n.L.P.Y.E E l ( ( k k k H P H.v.x.z.f.f.f.f.> > > f.z.x.M.M.m.m.z.z.z.b.M.M.L. X{.oX8.8.7.X.H.H.v.c.c.M.M.Z.Z.Z.S.A.C.j.                                                                  ",
"                                                                                                                                                                                                                                                                  * I M.I.S.S.S.!.!.W.v.9       z.C.gXQ.m.      = M.W.Z.D.b.h.b.M.Z.$X$XR.$XW.M...3.,.,.$.@.@.@.) k g h #.( ( j j z z j j ( ) ` [ ,.-.` [ 7X7XqX7X,.,.9X;.:._ j #.:.:.=.#.l #.&.;.E E k k k E ;.r.@.s u u u a D w.{.OXw.w.q.&.#.@.$.#.#.$.$.=.$.*.%.*.;.;.1.r.D w w w w e w p 9.9.W E f E E k k Q l Q E #.$.;.:.j j _ ` ' 6X,.#.s u f s s s f f g k #.#.@.E %.%.H S n n n M M m 6 , , , , , g.g.f.f.f.f.h.f.f.h.n.I.I.`.Y E E l ( k k k g G  .H.v.x.z.f.f.f.f.f.f.f.f.b.M.Z.m.m.l.z.z.z.b.b.M.M./.[.oXy.8.9.T L 4 2 = = - 5 5 -                                                                           ",
"                                                                                                                                                                                                                                                                     ._.I.S.S.hXhXhXZ.v.            z.z.          5 Z.Z.Z.b.h.h.b.Z.U.$XM.R.!.W.H.&.=.=.$.@.| | D D g s k $.) ( j j z z z ) ) ) ` ,.1.( ` ,.7X7X7X7X' 7X9X-._ j l #.#.#.( ( #.$.;.;.@.E E k k ;.r.*.d a a u a a } w.OXw.q.q.&.$.#.$.#.#.#.$.$.#.E *.*.$.=.3.1.r.J 0 w e e e e N 0.*.*.E k k k k l l l k l #.:.#.( j _ ` _ ' [ ' #.z f f f g k E E k Q #.:.E s H H H F F L L m m 3 , , , , , g.g.g.f.f.f.f.f.f.h.n.I.=X$X`.Y E z l ) ) ) | D Z H.L.M.n.z.f.f.f.f.f.h.b.b.D.Z.C.b.k.k.z.f.h.z.b.n.M.L.[.oXoX[.(.P 4 =                                                                                       ",
"                                                                                                                                                                                                                                                                     .).$X=X!.hXhXhXW.8                             m.Z.Z.D.h.h.b.D.S.$X_.M.!.!._.o.q.<.&.$.} D F S S a g $.{ ) k k z g g ) ) ) ) <.1.=.) =.3.2.7X7X-.-.9X0X` l l _ #.#.#.( ( =.=.;.$.@.E z z ;.r.6.S a i i a a d w.OXi.u.<.;.$.$.#.) ) ( { ) ( E @.#.( $.;.;.;.6.D 0 e p e p p f y.0.:.Q E k l #.#.l k l _ _ #.( z ) _ _ j ] ' -.:.#.E k f k #.#.l l _ :.:.E a S 4...Y T K K K 6 , , , 6 , g.g.g.g.f.g.f.f.f.b.D.U.=X=X%X[.%.g k ) ) a.D S A V H.L.n.n.b.z.h.h.h.h.b.D.D.Z.V.k.k.b.h.f.f.h.z.b.n.M.L.P. XXX[.X.4 ;                                                                                       ",
"                                                                                                                                                                                                                                                                     .).].$X!.jXjXhXZ.8                             5 M.Z.Z.b.b.b.D.S.=X$Xv.W.!.!./.7.q.>.&.} G C C B a a *.$.#.k f f g g g D g @.*.<.&.@.@.$.<.9X7X,.` 1.7X-._ l _ _ #.:.#.( ( ` =.=.#.E z z $.1.q.A & & & i a a H w.OXi.r.1.;.=.` { { =.( ( ) E @.( ) ) #.#.;.r.r.W s s p s s e z u.;.Q Q z z l l z j l j ( ( l z j ( ( z j _ ` =.:.$.k z k #.#.#.l :.` -.-.:.f J 5.7.X.T I K K 6 6 6 6 6 g.g.g.g.g.g.g.g.x.n.Z.U.MXMXMX%X! E E g g | | | A V 7 H.L.M.n.b.b.h.h.b.V.D.S.S.V.k.z.h.f.f.f.f.h.h.n.n.Z.Z.L.`. X(.I 2                                                                                       ",
"                                                                                                                                                                                                                                                                    7 ).'.$X!.hXjXhXM.2                               c.Z.Z.Z.b.V.D.S.=X$Xv.v.W.!.W./.e.q.5.} G C V V b & | $.@.g D J f s S F F G } *.8.} D } &.t.t.3.` ,.7X-.` _ _ _ _ #.( ( ( ` ,.=.#.#.l k #.1.r.A 3 3 & & d d d %.u.u.t.t.<.=.=.=.=.{ ) ) k k f k @.@.E E @.&.8.y.6.J s s s s s E 0.:.#.l z l z z j l j j l j j j ) ) j ) _ _ _ =.=.=.#.#.#.E l #.-.-.` -.-.:.f k ;.*.4.o.J.H.G.G.G.G.G.x.x.G.x.x.x.x.n.n.D.U.MXMXjXMX-X[.E g g g D | +.P 7 6 6 v.L.M.M.D.D.D.D.C.S.S.S.b.z.f.f.f.f.f.f.f.h.h.n.Z.Z.Z.Z.$X`./.2                                                                                       ",
"                                                                                                                                                                                                                                                                      7  ./.R.!.!.Z.c.                                  M.W.Z.Z.D.D.S.=X=X_.8 M.~.!._.O.e.e...U V 3 3 3 $ d &.%.E D S d n n C C B G ..7.7.C Z O.7.y.r.=.` 2.,.-._ _ _ ` _ ) ( ) ( ` -.=.( ( l _ ,.2.| 3 2 3 $ a d J d 5.u.t.2.3.=.3.=.` { ) ) ) k g f E D D J D %.4.8.w.5.H s s s E s E :.:.#.l l l j j _ _ j j j j j ) j ( ( ( ) j _ =.<.;.*.E E #.#.:.:.` ' ' ,.:.z ( ;.=.$.5.[.J.J.J.H.H.G.H.H.H.H.H.K.L.I.I.=XMXMXMXMX%X[.%.g | D | +. .I 7 8 5 5 x.M.Z.Z.Z.Z.S.S.dXdXS.b.z.f.f.f.f.f.f.h.f.f.b.D.Z.S.S.S.$XT.2                                                                                       ",
"                                                                                                                                                                                                                                                                          3 4 v.m.c.                                    5 Z.W.S.S.Z.S.=X=X$X4 8 M.W.$X/.).{.O.T I 6 3 3 : & ..%.} J F n n v m m m m P (.(.X.4 P X.{.w.<.$.<.1.,.` _ _ ` _ _ _ ) j _ ' -._ ( ( _ ,.3.5.3 2 ; ; & d W d d &.r.1.<.3.,.=.` { ) ) ) k g g g S S F H H H 4.7.7.7.H s f Q E z Q :.$.#._ _ l x l j j j j j ) j z ) ) ) ( ) ) #.&.&.6.4.E #.#.( _ ` ' ' [ 7X=.z #.;.3.=.#.%.4.4.(.(.J.(.(.J.J.H.L.L.L.I.U.U.U.U.U.P.(.o.} a.D G Z V 7 6 5 5 5 > 5 M.Z.Z.S.S.dXdXdXS.M.z.z.z.f.f.z.f.h.h.h.b.n.Z.S.!.hXhXZ.<                                                                                       ",
"                                                                                                                                                                                                                                                                                                                          c.Z.S.!.S.hXMX=X$Xv.4 8 M.$X_.(.).).(.I 6 6 , , ; V ..} H B b v 3 3 3 6 3 K J.(.(.K 6 H.).{.e.&.&.1.,.-.` ` ` ` ( ( ( ) ) ` -.` { ` ( =.<.q.I 6 > > 3 p W W s d &.<.<.3.,.=.=.{ $.@.@.f d s n n n B F F U T T o.[.7.W J W 6.Q E @.:.-.-._ _ j j j j j j j j z k ) #.@.) @.k g %.5.7.o.7.%.@.z z _ ' ` ] ' ,.=.z ) <.=.{ { ) k E @.} } ..U P I I H.v.v.x.z.z.x.x.G.J.(.O.} G G Z 4 6 6 5 > f.f.> > z.M.S.S.hXS.S.Z.M.M.c.z.z.z.x.x.x.h.b.n.D.Z.S.hXzXzXA.-                                                                                       ",
"                                                                                                                                                                                                                                                                                                                            m.!.hXhXhXMXhX!.v.2 2 8 M.M.v./.).(.H.6 6 , , ; : X.O...C M 3 3 3 6 6 6 6 G.H.`.H.5 v._.`.).e.*.&.3.,.` ` ` ` { ) ) ) j ( ,.3.{ { ) $.3.r.X.6 x.6 6 v J 6.E s g &.;.=.=.=.=.$.$.@.E D f d n M M m V m m K L T (.(.(.4.%.6.*.E E @.=.-.-.' _ j _ j j l l j k ) #.$.%.@.} D D H G X.X.(.[.4.D g z ) ) ) _ ` ,.;.z ( ;.=.=.) ( ) ) @.D D S Z V 4 7 6 6 6 5 > 6 x.x.H.H.(.o.O.} V 7 6 5 6 > > f.f.f.> f.b.V.D.D.D.Z.Z.Z.M.M.n.n.n.n.n.n.n.n.Z.S.!.hXzXzXB.                                                                                        ",
"                                                                                                                                                                                                                                                                                                                              m.!.hXjXVXjX!.M.2 9     5 5 7 /.]._.v.6 > > > ; 4 X.o.P K 3 3 : , , , > x.L._.`.6 z.L._.(.).e.*.<.,.` ` { { ) ) k k z ) =.3.$.) ) @.>.u.).H.M.M.x.m p *.*.k s g *.=.=.=.=.;.$.@.E J S n b v m 3 3 3 6 6 K H.J.(.(.(.4.9.6.%.E #.$.:.-.,.' _ ) j z z z k z g @.@.} | | | G G Z C L T J.(.(.H g g g z ( ` ,.3.$.) g $.$.$.$.$.$.%.D D S b V 4 6 6 6 5 5 > > , x.x.H.J.(.(.X. .I 7 6 6 6 > f.f.f.f.f.h.h.h.d.b.b.Z.Z.I.I.Z.M.M.M.M.M.M.Z.Z.S.!.hXgXA.s.                                                                                        ",
"                                                                                                                                                                                                                                                                                                                              5 Z.hXjXjXjX!.M.2             8 /._.H.x.6 > > > ; I (.J.I 6 6 , , , > > z.K.L.`.v.z.n.L./.(.(...&.3.=.` ) ) ) ) g g g k ) 3.>.@.| | 5.e.)._.$XZ.M.H.m W ;.@.g h g $.$.;.=.=.$.@.@.J S n m m 3 3 3 6 6 6 x.G.H.H.J.`.(.9.*.:.@.#.:.$.#.3.,.` ( ) j j z z g g D D | | | |  .Z I 3 3 K K H.J.J.Y H g k ) { =.=.1.<.@.g %.*.*.*.%.| D Z A V 4 6 6 6 5 > f.f.> > g.x.x.L.P.`.(./.I H.x.6 6 6 g.g.f.f.h.h.h.h.h.h.b.D.S.S.=X$X$XW.L.L.L.M.M.Z.Z.C.V.k.                                                                                            ",
"                                                                                                                                                                                                                                                                                                                                z.Z.!.jXjX!.v.                7 _.L.v.x.z.f.> ; ; H.J.H.6 6 6 , , > f.g.x.L.`.L.z.n.L._./.(.(.O.&.=.=.( ) ) @.a.g g | @.>.>.5.| | +.).).&X=X!.=XI.I S 6.;.k f h g *.&.<.;.$.@.} G C C C 3 3 6 6 6 , , 6 x.x.G.H.P./.(.5.&.:.$.:.0.W D 1.=.( ( ( l k g f D D | | +...|  .L 7 6 : , 6 6 G.H.J.J.Y J g ) $.$.>.r.q.} D 4.5.5.%.} } } P L 7 6 5 5 > > f.f.f.f.f.g.n.K.L._._.`./.H.H.v.x.x.x.z.x.f.h.h.h.f.f.h.b.V.S.S.hXhX!.M.6 2 6 6 8 5 < -                                                                                                 ",
"                                                                                                                                                                                                                                                                                                                                  5 M.W.Q.m.2                   7 R.M.v.x.g.> > ; 6 /.H.H.x.6 6 , > f.f.g.n.L.%Xn.x.K._._.H.(.(.5.<.;.$.@.g D | | | | D %.5.5.} A  ./.'.*X;XMXNX=XL.m %.1.#.z h s f *.>.>.&.*.%.} G Z m 6 6 6 6 , , , , g.x.x.x.H.P.`.(.5.&.#.#.:.r.G Z &.$.#.#.#.( k k D D D | O.O.X.P I 6 6 , , , , , G.G.P.P.J.o.} } | } q.e.7...} } } ......X. .I 7 6 6 6 > g.f.f.f.f.f.f.g.n.I.$X%X$X_._._.L.H.v.x.x.x.x.z.h.h.h.f.h.b.D.S.!.hXhXhXM.;                                                                                                               ",
"                                                                                                                                                                                                                                                                                                                                                                2 v._.M.n.x.z., > > x.L.L.v.x.x.g.f.f.f.f.n.K.%X%Xx.M.$X_.H././.X.y.<.$.@.D D S G | G Z G O.O.O.V I H._.&X;XNXNXMXW.7 G 1.=.j z f s g *.&.*.5.%.} Z L m 3 6 6 6 , , , > g.z.x.x.v.L.P.`.(.4.#.l #.;.6.Z V 5.>.$.#.#.@.@.D J G G | P P I 7 6 6 , , > , , g.x.G.K.P.P.(.(.O.X.O.O.X.X.X.U D +.O.X.X. .I v.v.x.x.g.g.f.f.f.f.f.f.g.n.I.=X=X=X$X$X_._._.L.L.L.M.M.n.n.x.x.x.n.n.Z.S.!.hXhXS.z.                                                                                                                ",
"                                                                                                                                                                                                                                                                                                                                                                  2 v._.L.M.x.x.g.x.6 H._.L.n.x.g.f.f.f.f.n.I.U.%XL.I.=X$XL.H././.O.r.&.%.D Z C Z P P Z Z | O.(.I 6 v._.$X;XNXVXNX=XM.L &.3.) k z s h g *.6.q.5.O.U L m K 3 6 6 , , , > g.g.x.x.x.K.L.P.`.7.@.E #.:.;.6.P V o.6.6.&.*.*.} D G G P P I K 6 6 6 , , > > , g.g.g.K.L.I.I.`././.I I I H.J.J.X.G G X.(./././.L.v.x.x.x.x.f.g.f.f.h.n.n.Z.=XMXMX=X$X_._._._._._.L.L.M.M.M.n.n.M.L.Z.S.!.!.S.M.                                                                                                                  ",
"                                                                                                                                                                                                                                                                                                                                                                      v.L.L.M.x.x.x.x.x.L.L.L.n.x.g.f.f.g.n.I.U.%X%X$X=X$XH.H.H./.(.7.5...G Z Z I P I I I P  .(./.v.z.n.$X=X;XNXVXNXW.I } <.` j z z h h g 5.q.5...o.T I K 6 6 6 , , , g.g.g.g.f.x.n.K.L.P.(.4.#.#.=.=.1.y.H.x.J.[.q.q.6.%.} H G P V K 6 6 6 6 6 , g.f.g.g.g.g.x.K.I.I.$X$X$Xv.x.6 6 G.H.P.J.P P /././._._.L.L.n.n.n.n.h.h.n.n.n.D.S.MXMXMXMX=X$X_._.L._._.$X$X$XL.L.L.L.L.L.I.$X$XW.M.5                                                                                                                   ",
"                                                                                                                                                                                                                                                                                                                                                                        c.M.L.L.M.M.M.I.L._._.L.n.x.x.g.n.n.I.=X-X-X;X=X=X/.I H./.(.o.7...X.P P V 7 6 6 6 7 7 /._._.z.z.Z.=X&X;XNXjX!.v.P r.=.( l z z g g g 5.q.7.o.T J.H.G.6 6 6 g., g.g.g.f.f.f.f.n.K.L.P.(.*.=.=.` =.t.oXP.L._.).{.e.5.5...G P L K 6 6 6 6 6 g.g.g.g.g.g.g.g.n.I.U.$X=X=X$Xz.g.> 6 x.K.L.H.H.H././.v.v.M.I.I.Z.M.n.n.n.n.Z.Z.S.!.hXlXVXMX=X$X$X_.L.L.L.R.R.W._.$X$X_._._._.]._.v.4                                                                                                                     ",
"                                                                                                                                                                                                                                                                                                                                                                          8 M.L.I.I.$X=X$X$X$X$XL.L.n.n.n.D.U.=XMX-X-XBX;X_.m I H././.(.7.o.X.P I 6 6 6 6 6 6 v._._.M.z.M.$X=XW.=XNX=X_.I 5.<.` ( j z z k g g 5.7.[.(.(.J.H.G.x.x.x.g.g.g.f.f.f.f.f.x.n.K.L._.(.&.,.` =.<.t.{.%X=X=X$X).).O.O.X.I J.K K 6 6 x.x.x.g.g.g.g.g.g.g.n.K.U.=XMXMXMXZ.z.f.g.g.x.x.L.L.L.v.v.v.z.z.z.M.Z.I.I.L.L.I.I.U.=XhXjXjXjXhXZ.M.M.v.8 5 5 8 c.c.c.c.c.v./.).)././.7 2                                                                                                                     ",
"                                                                                                                                                                                                                                                                                                                                                                              v.L.$X=XMXMX=X$X$X$XI.I.I.Z.U.U.MXMXBXBXBX;X`.G .././././.).(.(.I 7 6 6 6 6 6 6 x.L._._.M.n.$X$XM.8 $X=X$Xv.| <.3.( j z z k g g g 4.7.(.(./.H.H.v.x.x.x.g.g.g.f.f.f.f.g.n.n.L.L._.[.&.$.;.=.1.u..X-XNXNXNX;X&X).(.(./.H.H.H.G.G.G.x.x.x.g.g.g.g.n.K.I.U.MXMXVXVX=Xb.h.f.g.g.g.x.K.L._.v.x.z.z.g.f.f.b.n.n.L.I.U.U.=X=XhXhX!.m.z.5 =                       9 4 /. ./ 7 2                                                                                                                     ",
"                                                                                                                                                                                                                                                                                                                                                                                5 M.$X=XMXNX=X&X$X$X$X$X=X=XMXNXCXCXBXCX-X'.5.*.(._._./.(.(.(.H.H.x.6 6 5 > g.g.x.L.$XL.M.I.$X_.2 2 v.M.7 b &.=.{ ( k z ) k k f D O.(.).(./.H.H.v.x.x.z.g.f.f.f.f.h.h.h.n.D.I.I.`.[.%.#.&.<.r.y..X;XVXHXHXVX;X$X_._.`._.P.P.H.H.G.G.G.G.x.G.x.K.I.U.=XMXMXVXMX!.b.h.f.g.g.g.x.n.L.L.L.x.z.x.z.g.f.f.f.f.x.n.Z.U.$X=X$XM.5 =                                   7 7 4 9                                                                                                                     ",
"                                                                                                                                                                                                                                                                                                                                                                                    c.Z.=XMXNX;X$XL._.$X=X=XMXCXVXCXBXCX:X`.} *.5./._._./.(.(./.H.H.x.x., > g.g.z.n.L.$XL.Z.=X$X4 * * 2 2 $ S <.;.{ ( ( ) k @.| | } +.(.(.(._.H.H.H.n.x.x.g.f.f.h.h.h.h.n.D.I.U.%X`.o.H %.&.q.w.{.*XAXHXHXHXxXNXW.L.$X%X`.`._.P.L.P.P.P.K.K.L.L.I.U.=XMXMXMXhXD.b.h.f.f.g.g.x.n.M.I.$X$XM.x.x.g.z.f.f.f.f.x.n.I.U.=X$XM.2                                     2 4 4 2                                                                                                                     ",
"                                                                                                                                                                                                                                                                                                                                                                                        z.m.M.M.v.2 6 v._.$X=XMXMXNX;X;X$XH.A d S U H._._./.]._./.H.v.x.g.g.f.f.g.x.n.I.$X$X$X$Xv.o * o % % $ 5.<.$.#.) ) g | | } | | O.(.).'.`._.L.L.n.x.x.x.h.h.h.b.b.D.D.U.U.%X%X`.T H ..5.7.).'.*XFXHXKXHXLXMXZ.I.$X%X%X`.`.`.`.`.`.`._._.$X%X$X=X=X=XS.S.b.h.h.h.g.f.g.g.n.n.I.$X$X$XM.x.x.x.z.g.g.h.x.n.Z.U.=X=XW.c.                                      4 4 4                                                                                                                     ",
"                                                                                                                                                                                                                                                                                                                                                                                                      o ; 6 v.M.M.L.L.M.v.          4 v.L._./.]._.L.H.x.x., > > g.g.n.L.$X$X$X=X_.2 o . . % % B q.>.$.@.g D D | | | D | } o.).'.`._.L.L.L.n.n.n.n.n.b.D.D.D.U.=X-X-X%X/.L U | P /.].*X:XBXHXHXHXVXS.S.=X;X=X%X'.'.{. X X`.`._.L._.%X$X$XZ.M.n.b.z.z.x.g.f.f.x.n.n.I.=X=X=X$XM.x.x.x.x.x.x.n.n.Z.S.=XMXMXW.c.                                      4 4                                                                                                                     ",
"                                                                                                                                                                                                                                                                                                                                                                                                                                        v._._._._._.L.v.x.6 > g.g.g.n.M.I.$X$X=X$X5 . . . . . * 5.>.&.| D G S S S Z S | | } X.(._._._._.L.L.K.n.n.n.n.D.D.D.U.=XMXNX-X_.I I I I v.v._.&X;XBXDXHXLXMX=XMXBXBX=X_.I X.{.{.).(.H.H.v.H.L.$XI.M.M.n.n.n.n.x.x.x.x.n.I.U.=XMXMX=X$XL.L.G.x.x.x.n.Z.Z.U.MXMXMXjXZ.                                        9                                                                                                                     ",
"                                                                                                                                                                                                                                                                                                                                                                                                                                          v.$X_._.`._.L.G.x.x.g.g.g.x.n.I.$X%X$X$Xv.. .     . . Z q.5.} D S B C C V A Z Z  .O./.v.v._.`._.P.L.L.L.L.n.D.Z.U.U.MXCXVXCX=XH.7 7 v.v.v.M.$X=X;X-XNXCXMXMXMXCXCXNX$X7 o I (.).)./.H.v.x.x.M.L.I.L.M.M.M.M.n.n.n.n.n.I.=XMXMXCXMX=X_.L.L.L.L.K.L.I.U.=XMXNXVXhXC.                                                                                                                                                              ",
"                                                                                                                                                                                                                                                                                                                                                                                                                                            v.M.L.L._._.L.K.G.x.x.x.n.n.I.$X=X$X$XM.9           o O.5.O.} Z C Z V V L P L L I /.L.x.x._.`.`.`.`.L.L.L.I.U.U.U.MXCXCXCX=XL.x.x.x.v.x.n.M.I.$X=X-X;X-X=XBXVXCXVX;XM.9 . 9  .(.(./.H.H.x.x.x.n.M.I.I.L.L.I.I.L.L.I.U.=XMXMXCXMX%X X(./.H.L.L.L.I.U.=X=XMXhXS.z.                                                                                                                                                              ",
"                                                                                                                                                                                                                                                                                                                                                                                                                                                5 2 6 /._.L.L.K.x.n.n.n.I.-X=X&X$X_.2             4 O.O.O.U V V m V I 7 7 7 7 H._.M.x.v._.`..X X`._._.L.U.=X=XMXBXBXMX$XL.x.x.x.n.x.z.b.n.n.I.U.%X$X-XNXVXVXVXNX$X5       3 /./.`.P.L.G.n.x.x.n.n.M.I.$X%X$X$X$X%X%X-X%X%X.XoXu.O.7 7 7 v.v.v.M.M.M.m.m.                                                                                                                                                                  ",
"                                                                                                                                                                                                                                                                                                                                                                                                                                                      2 v.L._.L.L.K.M.I.U.=XMX;X&X$X5                .O.o.X.L V I 7 7 8 6 6 6 v.L.L.x.x.L.P.XXpX|.[.(._._.%X%X-X-X-X-X_.H.x.x.x.x.x.z.z.b.n.n.n.I.I.$X-XNXCXVXVXMXz.          8 H._._.`.L.L.n.n.x.x.L.$X$X=X=X$X%XXXXXXX|.w.                                                                                                                                                                                              ",
"                                                                                                                                                                                                                                                                                                                                                                                                                                                          8 v.L.L.I.U.U.=XMXMXNX;X$X8               3 X.(.X.P I 6 6 8 6 6 5 6 x.L._.L.x.L.L.(.}.r.5.L 7 H._.`.%X%X'.'._.H.v.x.x.x.x.z.z.b.b.b.n.n.K.I.%X=X-XNXVXMXm.              8 H._._._.L.L.n.K.I.$X=XNXNX;X%XXXiXr.                                                                                                                                                                                                  ",
"                                                                                                                                                                                                                                                                                                                                                                                                                                                              6 L.$X$X=XMXCXCXCXNX=Xc.                4  ./.I I 6 6 6 6 6 > , x.x.L.$XK.K.L.H.Y }         2 H._.`.'.'.'._.H.H.v.x.x.x.z.x.h.f.g.x.n.K.$X-X-X;XNX=Xc.                  8 v.L._.L.L.L.I.$XMXMXNXMX=XJ.5.                                                                                                                                                                                                    ",
"                                                                                                                                                                                                                                                                                                                                                                                                                                                                  c.M.=X=XNXCXCXNX$Xc.                  I /./.H.7 6 x.x., g.g.z.x.M.I.I.L.I.L.H.I               6 H.(.'.'._.L.L.G.x.x.x.x.x.g.g.g.x.n.I.-X-X;X;X$X5                       2 6 H.H.L.L.$X=X=X=X!.M.                                                                                                                                                                                                        ",
"                                                                                                                                                                                                                                                                                                                                                                                                                                                                      c.M.W.=X=X$XM.5                     I /./.H.x.x.x.x.g.g.z.z.x.L.I.I.U.U.L.v.                  4 I /._._._.P.L.G.x.x.x.x.x.x.n.n.I.=XNXBXBX;Xv.                              6 6 x.v.v.c.                                                                                                                                                                                                            ",
"                                                                                                                                                                                                                                                                                                                                                                                                                                                                          - z.c.v.2                         H./.H.v.x.x.x.g.g.g.g.x.K.L.$X$X=X=XL.5                       7 H._._._.L.L.L.L.n.n.K.L.I.I.=XMXCXCXNX_.                                                                                                                                                                                                                                                      ",
"                                                                                                                                                                                                                                                                                                                                                                                                                                                                                                            2 v.L.H.v.x.x.g.g.f.g.g.x.L.I.=XMXMX=Xc.                          8 v._._._.L.L.L.L.L.I.I.$X=XMXCXCXNXZ.                                                                                                                                                                                                                                                      ",
"                                                                                                                                                                                                                                                                                                                                                                                                                                                                                                              2 v.L.H.v.x.z.g.g.f.g.x.K.I.$XNXVX=Xn.                              5 7 v.H.H.L.L._.$X%X$X=X=X=X=XZ.z.                                                                                                                                                                                                                                                      ",
"                                                                                                                                                                                                                                                                                                                                                                                                                                                                                                                7 H.L.H.x.x.g.g.g.g.x.K.I.%X;XVXMXM.                                      2 6 v.H.L.L.L.I.M.m.z.                                                                                                                                                                                                                                                          ",
"                                                                                                                                                                                                                                                                                                                                                                                                                                                                                                                  8 v.H.H.K.x.g.g.g.n.K.I.$X$X;X=Xc.                                                                                                                                                                                                                                                                                                                      ",
"                                                                                                                                                                                                                                                                                                                                                                                                                                                                                                                      v.L.K.x.x.g.x.n.n.I.%X$X=X$X5                                                                                                                                                                                                                                                                                                                       ",
"                                                                                                                                                                                                                                                                                                                                                                                                                                                                                                                        K H.H.G.x.n.K.I.U.$X-X%Xv.                                                                                                                                                                                                                                                                                                                        ",
"                                                                                                                                                                                                                                                                                                                                                                                                                                                                                                                          6 H.H.L.L.I.U.$X-X-X-XH.                                                                                                                                                                                                                                                                                                                        ",
"                                                                                                                                                                                                                                                                                                                                                                                                                                                                                                                            3 G.L.%X%X$X=XMXBX-XL.                                                                                                                                                                                                                                                                                                                        ",
"                                                                                                                                                                                                                                                                                                                                                                                                                                                                                                                                x.L.%X-XMXBXBX=Xv.                                                                                                                                                                                                                                                                                                                        ",
"                                                                                                                                                                                                                                                                                                                                                                                                                                                                                                                                  6 L.$X=XMX=XZ.                                                                                                                                                                                                                                                                                                                          ",
"                                                                                                                                                                                                                                                                                                                                                                                                                                                                                                                                      5 x.n.c.                                                                                                                                                                                                                                                                                                                            ",
"                                                                                                                                                                                                                                                                                                                                                                                                                                                                                                                                                                                                                                                                                                                                                                                                                                                                          ",
"                                                                                                                                                                                                                                                                                                                                                                                                                                                                                                                                                                                                                                                                                                                                                                                                                                                                          ",
"                                                                                                                                                                                                                                                                                                                                                                                                                                                                                                                                                                                                                                                                                                                                                                                                                                                                          ",
"                                                                                                                                                                                                                                                                                                                                                                                                                                                                                                                                                                                                                                                                                                                                                                                                                                                                          "
};
