/* XPM */
static char *nudibranch_xbg_30pct[] = {
/* columns rows colors chars-per-pixel */
"614 461 256 2 ",
"   c None",
".  c #39130D",
"X  c #2A1618",
"o  c #351513",
"O  c #3B1613",
"+  c #3C1A15",
"@  c #3C1B1A",
"#  c #351A1A",
"$  c #2F0F0C",
"%  c #3B231C",
"&  c #2C231A",
"*  c #281A27",
"=  c #381D23",
"-  c #291C39",
";  c #351D39",
":  c #2A2529",
">  c #3A2727",
",  c #2A2638",
"<  c #382739",
"1  c #393639",
"2  c #373230",
"3  c #1C1B2E",
"4  c #46190D",
"5  c #421613",
"6  c #441A14",
"7  c #4A1C14",
"8  c #421C1A",
"9  c #4A1E19",
"0  c #541C12",
"q  c #55280D",
"w  c #44231C",
"e  c #4B241B",
"r  c #4A2718",
"t  c #542B1B",
"y  c #542816",
"u  c #5B341C",
"i  c #5D3A1C",
"p  c #583517",
"a  c #4F2E14",
"s  c #6B3B14",
"d  c #633C1B",
"f  c #6A3D1A",
"g  c #633816",
"h  c #6A3517",
"j  c #432523",
"k  c #442B25",
"l  c #4B2C24",
"z  c #432D2A",
"x  c #492A29",
"c  c #532C23",
"v  c #532C28",
"b  c #45322C",
"n  c #4B342C",
"m  c #4C3528",
"M  c #543324",
"N  c #5C3B24",
"B  c #52352B",
"V  c #543A2D",
"C  c #5B3C2C",
"Z  c #583725",
"A  c #452B37",
"S  c #4B3532",
"D  c #4D3A33",
"F  c #463739",
"G  c #533C33",
"H  c #5B3E32",
"J  c #543A38",
"K  c #522D33",
"L  c #633C23",
"P  c #623D2B",
"I  c #693C26",
"U  c #653D30",
"Y  c #431F21",
"T  c #6B431C",
"R  c #69431A",
"E  c #72451B",
"W  c #744A1C",
"Q  c #764919",
"!  c #7B531D",
"~  c #79541D",
"^  c #5C432C",
"/  c #594328",
"(  c #4B423A",
")  c #5C4334",
"_  c #54433B",
"`  c #5B453B",
"'  c #594837",
"]  c #5A4E37",
"[  c #644224",
"{  c #6B4423",
"}  c #6D4A24",
"|  c #64432C",
" . c #6C4B2B",
".. c #68472B",
"X. c #744B23",
"o. c #734D2B",
"O. c #764A25",
"+. c #6C522B",
"@. c #7B5324",
"#. c #74532C",
"$. c #7B542B",
"%. c #7C5A2B",
"&. c #775626",
"*. c #634434",
"=. c #644A34",
"-. c #6B4C34",
";. c #644B3B",
":. c #6B4C3A",
">. c #674537",
",. c #734C34",
"<. c #764C38",
"1. c #6C5234",
"2. c #6C533B",
"3. c #665339",
"4. c #735334",
"5. c #7B5B34",
"6. c #73543B",
"7. c #7B5B3C",
"8. c #775838",
"9. c #7C6337",
"0. c #7C612D",
"q. c #5C421D",
"w. c #1B1B49",
"e. c #1B1E54",
"r. c #2B1D45",
"t. c #281D4A",
"y. c #331E46",
"u. c #281E52",
"i. c #1C2458",
"p. c #1D244A",
"a. c #292648",
"s. c #342344",
"d. c #34244B",
"f. c #392A48",
"g. c #2C334A",
"h. c #393747",
"j. c #282857",
"k. c #352A54",
"l. c #3B2B54",
"z. c #362856",
"x. c #2B3558",
"c. c #383758",
"v. c #1C2966",
"b. c #1D3371",
"n. c #272B65",
"m. c #2A3768",
"M. c #373867",
"N. c #293A76",
"B. c #353C75",
"V. c #332D64",
"C. c #422C46",
"Z. c #473847",
"A. c #533D47",
"S. c #463957",
"D. c #493354",
"F. c #453B66",
"G. c #453E70",
"H. c #3D4347",
"J. c #394359",
"K. c #2E415A",
"L. c #394569",
"P. c #2B4379",
"I. c #384778",
"U. c #364C74",
"Y. c #4B4B4A",
"T. c #474547",
"R. c #574847",
"E. c #58524C",
"W. c #494657",
"Q. c #564857",
"!. c #595457",
"~. c #4D5254",
"^. c #654C46",
"/. c #6B5443",
"(. c #685648",
"). c #745543",
"_. c #755A44",
"`. c #7B5C44",
"'. c #755A49",
"]. c #644C55",
"[. c #665957",
"{. c #73554D",
"}. c #7C6344",
"|. c #7A644B",
" X c #76654A",
".X c #6B6259",
"XX c #766655",
"oX c #6E634C",
"OX c #484768",
"+X c #554A66",
"@X c #4B5369",
"#X c #585668",
"$X c #474977",
"%X c #544B75",
"&X c #495479",
"*X c #575878",
"=X c #655967",
"-X c #635977",
";X c #695266",
":X c #5B6276",
">X c #696468",
",X c #656477",
"<X c #736A67",
"1X c #5D615B",
"2X c #3C403F",
"3X c #81591E",
"4X c #825B28",
"5X c #824D37",
"6X c #835938",
"7X c #814E2C",
"8X c #84622A",
"9X c #836738",
"0X c #86713B",
"qX c #85601F",
"wX c #825D44",
"eX c #8A5B46",
"rX c #905D49",
"tX c #836245",
"yX c #876848",
"uX c #936950",
"iX c #A47155",
"pX c #8A726F",
"aX c #273D82",
"sX c #2B4888",
"dX c #364A85",
"fX c #3B548B",
"gX c #395388",
"hX c #2C5596",
"jX c #375996",
"kX c #2D4F90",
"lX c #3A629B",
"zX c #325DA2",
"xX c #2F5BA0",
"cX c #3966A7",
"vX c #396EB2",
"bX c #3C71B7",
"nX c #1E498C",
"mX c #484D84",
"MX c #485688",
"NX c #565987",
"BX c #445B94",
"VX c #485B95",
"CX c #545990",
"ZX c #635C86",
"AX c #576388",
"SX c #496399",
"DX c #566698",
"FX c #4B618C",
"GX c #64678C",
"HX c #476AA7",
"JX c #546AA4",
"KX c #4674B4",
"LX c #4B72AE",
"PX c #6078A4",
"IX c #4077C1",
"UX c #5D80B0",
/* pixels */
"                                                                                                                                                                                                                                                                                                                                                                                                                                                                                                                                                                                                                                                                                                                                                                                                                                                                                                                                                                                                                                                                                                                                                                                                                                                                            ",
"                                                                                                                                                                                                                                                                                                                                                                                                                                                                                                                                                                                                                                                                                                                                                                                                                                                                                                                                                                                                                                                                                                                                                                                                                                                                            ",
"                                                                                                                                                                                                                                                                                                                                                                                                                                                                                                                                                                                                                                                                                                                                                                                                                                                                                                                                                                                                                                                                                                                                                                                                                                                                            ",
"                                                                                                                                                                                                                                                                                                                                                                                                                                                                                                                                                                                                                                                                                                                                                                                                                                                                                                                                                                                                                                                                                                                                                                                                                                                                            ",
"                                                                                                                                                                                                                                                                                                                                                                                                                                                                                                                                                                                                                                                                                                                                                                                                                                                                                                                                                                                                                                                                                                                                                                                                                                                                            ",
"                                                                                                                                                                                                                                                                                                                                                                                                                                                                                                                                                                                                                                                                                                                                                                                                                                                                                                                                                                                                                                                                                                                                                                                                                                                                            ",
"                                                                                                                                                                                                                                                                                                                                                                                                                                                                                                                                                                                                                                                                                                                                                                                                                                                                                                                                                                                                                                                                                                                                                                                                                                                                            ",
"                                                                                                                                                                                                                                                                                                                                                                                                                                                                                                                                                                                                                                                                                                                                                                                                                                                                                                                                                                                                                                                                                                                                                                                                                                                                            ",
"                                                                                                                                                                                                                                                                                                                                                                                                                                                                                                                                                                                                                                                                                                                                                                                                                                                                                                                                                                                                                                                                                                                                                                                                                                                                            ",
"                                                                                                                                                                                                                                                                                                                                                                                                                                                                                                                                                                                                                                                                                                                                                                                                                                                                                                                                                                                                                                                                                                                                                                                                                                                                            ",
"                                                                                                                                                                                                                                                                                                                                                                                                                                                                                                                                                                                                                                                                                                                                                                                                                                                                                                                                                                                                                                                                                                                                                                                                                                                                            ",
"                                                                                                                                                                                                                                                                                                                                                                                                                                                                                                                                                                                                                                                                                                                                                                                                                                                                                                                                                                                                                                                                                                                                                                                                                                                                            ",
"                                                                                                                                                                                                                                                                                                                                                                                                                                                                                                                                                                                                                                                                                                                                                                                                                                                                                                                                                                                                                                                                                                                                                                                                                                                                            ",
"                                                                                                                                                                                                                                                                                                                                                                                                                                                                                                                                                                                                                                                                                                                                                                                                                                                                                                                                                                                                                                                                                                                                                                                                                                                                            ",
"                                                                                                                                                                                                                                                                                                                                                                                                                                                                                                                                                                                                                                                                                                                                                                                                                                                                                                                                                                                                                                                                                                                                                                                                                                                                            ",
"                                                                                                                                                                                                                                                                                                                                                                                                                                                                                                                                                                                                                                                                                                                                                                                                                                                                                                                                                                                                                                                                                                                                                                                                                                                                            ",
"                                                                                                                                                                                                                                                                                                                                                                                                                                                                                                                                                                                                                                                                                                                                                                                                                                                                                                                                                                                                                                                                                                                                                                                                                                                                            ",
"                                                                                                                                                                                                                                                                                                                                                                                                                                                                                                                                                                                                                                                                                                                                                                                                                                                                                                                                                                                                                                                                                                                                                                                                                                                                            ",
"                                                                                                                                                                                                                                                                                                                                                                                                                                                                                                                                                                                                                                                                                                                                                                                                                                                                                                                                                                                                                                                                                                                                                                                                                                                                            ",
"                                                                                                                                                                                                                                                                                                                                                                                                                                                                                                                                                                                                                                                                                                                                                                                                                                                                                                                                                                                                                                                                                                                                                                                                                                                                            ",
"                                                                                                                                                                                                                                                                                                                                                                                                                                                                                                                                                                                                                                                                                                                                                                                                                                                                                                                                                                                                                                                                                                                                                                                                                                                                            ",
"                                                                                                                                                                                                                                                                                                                                                                                                                                                                                                                                                                                                                                                                                                                                                                                                                                                                                                                                                                                                                                                                                                                                                                                                                                                                            ",
"                                                                                                                                                                                                                                                                                                                                                                                                                                                                                                                                                                                                                                                                                                                                                                                                                                                                                                                                                                                                                                                                                                                                                                                                                                                                            ",
"                                                                                                                                                                                                                                                                                                                                                                                                                                                                                                                                                                                                                                                                                                                                                                                                                                                                                                                                                                                                                                                                                                                                                                                                                                                                            ",
"                                                                                                                                                                                                                                                                                                                                                                                                                                                                                                                                                                                                                                                                                                                                                                                                                                                                                                                                                                                                                                                                                                                                                                                                                                                                            ",
"                                                                                                                                                                                                                                                                                                                                                                                                                                                                                                                                                                                                                                                                                                                                                                                                                                                                                                                                                                                                                                                                                                                                                                                                                                                                            ",
"                                                                                                                                                                                                                                                                                                                                                                                                                                                                                                                                                                                                                                                                                                                                                                                                                                                                                                                                                                                                                                                                                                                                                                                                                                                                            ",
"                                                                                                                                                                                                                                                                                                                                                                                                                                                                                                                                                                                                                                                                                                                                                                                                                                                                                                                                                                                                                                                                                                                                                                                                                                                                            ",
"                                                                                                                                                                                                                                                                                                                                                                                                                                                                                                                                                                                                                                                                                                                                                                                                                                                                                                                                                                                                                                                                                                                                                                                                                                                                            ",
"                                                                                                                                                                                                                                                                                                                                                                                                                                                                                                                                                                                                                                                                                                                                                                                                                                                                                                                                                                                                                                                                                                                                                                                                                                                                            ",
"                                                                                                                                                                                                                                                                                                                                                                                                                                                                                                                                                                                                                                                                                                                                                                                                                                                                                                                                                                                                                                                                                                                                                                                                                                                                            ",
"                                                                                                                                                                                                                                                                                                                                                                                                                                                                                                                                                                                                                                                                                                                                                                                                                                                                                                                                                                                                                                                                                                                                                                                                                                                                            ",
"                                                                                                                                                                                                                                                                                                                                                                                                                                                                                                                                                                                                                                                                                                                                                                                                                                                                                                                                                                                                                                                                                                                                                                                                                                                                            ",
"                                                                                                                                                                                                                                                                                                                                                                                                                                                                                                                                                                                                                                                                                                                                                                                                                                                                                                                                                                                                                                                                                                                                                                                                                                                                            ",
"                                                                                                                                                                                                                                                                                                                                                                                                                                                                                                                                                                                                                                                                                                                                                                                                                                                                                                                                                                                                                                                                                                                                                                                                                                                                            ",
"                                                                                                                                                                                                                                                                                                                                                                                                                                                                                                                                                                                                                                                                                                                                                                                                                                                                                                                                                                                                                                                                                                                                                                                                                                                                            ",
"                                                                                                                                                                                                                                                                                                                                                                                                                                                                                                                                                                                                                                                                                                                                                                                                                                                                                                                                                                                                                                                                                                                                                                                                                                                                            ",
"                                                                                                                                                                                                                                                                                                                                                                                                                                                                                                                                                                                                                                                                                                                                                                                                                                                                                                                                                                                                                                                                                                                                                                                                                                                                            ",
"                                                                                                                                                                                                                                                                                                                                                                                                                                                                                                                                                                                                                                                                                                                                                                                                                                                                                                                                                                                                                                                                                                                                                                                                                                                                            ",
"                                                                                                                                                                                                                                                                                                                                                                                                                                                                                                                                                                                                                                                                                                                                                                                                                                                                                                                                                                                                                                                                                                                                                                                                                                                                            ",
"                                                                                                                                                                                                                                                                                                                                                                                                                                                                                                                                                                                                                                                                                                                                                                                                                                                                                                                                                                                                                                                                                                                                                                                                                                                                            ",
"                                                                                                                                                                                                                                                                                                                                                                                                                                                                                                                                                                                                                                                                                                                                                                                                                                                                                                                                                                                                                                                                                                                                                                                                                                                                            ",
"                                                                                                                                                                                                                                                                                                                                                                                                                                                                                                                                                                                                                                                                                                                                                                                                                                                                                                                                                                                                                                                                                                                                                                                                                                                                            ",
"                                                                                                                                                                                                                                                                                                                                                                                                                                                                                                                                                                                                                                                                                                                                                                                                                                                                                                                                                                                                                                                                                                                                                                                                                                                                            ",
"                                                                                                                                                                                                                                                                                                                                                                                                                                                                                                                                                                                                                                                                                                                                                                                                                                                                                                                                                                                                                                                                                                                                                                                                                                                                            ",
"                                                                                                                                                                                                                                                                                                                                                                                                                                                                                                                                                                                                                                                                                                                                                                                                                                                                                                                                                                                                                                                                                                                                                                                                                                                                            ",
"                                                                                                                                                                                                                                                                                                                                                                                                                                                                                                                                                                                                                                                                                                                                                                                                                                                                                                                                                                                                                                                                                                                                                                                                                                                                            ",
"                                                                                                                                                                                                                                                                                                                                                                                                                                                                                                                                                                                                                                                                                                                                                                                                                                                                                                                                                                                                                                                                                                                                                                                                                                                                            ",
"                                                                                                                                                                                                                                                                                                                                                                                                                                                                                                                                                                                                                                                                                                                                                                                                                                                                                                                                                                                                                                                                                                                                                                                                                                                                            ",
"                                                                                                                                                                                                                                                                                                                                                                                                                                                                                                                                                                                                                                                                                                                                                                                                                                                                                                                                                                                                                                                                                                                                                                                                                                                                            ",
"                                                                                                                                                                                                                                                                                                                                                                                                                                                                                                                                                                                                                                                                                                                                                                                                                                                                                                                                                                                                                                                                                                                                                                                                                                                                            ",
"                                                                                                                                                                                                                                                                                                                                                                                                                                                                                                                                                                                                                                                                                                                                                                                                                                                                                                                                                                                                                                                                                                                                                                                                                                                                            ",
"                                                                                                                                                                                                                                                                                                                                                                                                                                                                                                                                                                                                                                                                                                                                                                                                                                                                                                                                                                                                                                                                                                                                                                                                                                                                            ",
"                                                                                                                                                                                                                                                                                                                                                                                                                                                                                                                                                                                                                                                                                                                                                                                                                                                                                                                                                                                                                                                                                                                                                                                                                                                                            ",
"                                                                                                                                                                                                                                                                                                                                                                                                                                                                                                                                                                                                                                                                                                                                                                                                                                                                                                                                                                                                                                                                                                                                                                                                                                                                            ",
"                                                                                                                                                                                                                                                                                                                                                                                                                                                                                                                                                                                                                                                                                                                                                                                                                                                                                                                                                                                                                                                                                                                                                                                                                                                                            ",
"                                                                                                                                                                                                                                                                                                                                                                                                                                                                                                                                                                                                                                                                                                                                                                                                                                                                                                                                                                                                                                                                                                                                                                                                                                                                            ",
"                                                                                                                                                                                                                                                                                                                                                                                                                                                                                                                                                                                                                                                                                                                                                                                                                                                                                                                                                                                                                                                                                                                                                                                                                                                                            ",
"                                                                                                                                                                                                                                                                                                                                                                                                                                                                                                                                                                                                                                                                                                                                                                                                                                                                                                                                                                                                                                                                                                                                                                                                                                                                            ",
"                                                                                                                                                                                                                                                                                                                                                                                                                                                                                                                                                                                                                                                                                                                                                                                                                                                                                                                                                                                                                                                                                                                                                                                                                                                                            ",
"                                                                                                                                                                                                                                                                                                                                                                                                                                                                                                                                                                                                                                                                                                                                                                                                                                                                                                                                                                                                                                                                                                                                                                                                                                                                            ",
"                                                                                                                                                                                                                                                                                                                                                                                                                                                                                                                                                                                                                                                                                                                                                                                                                                                                                                                                                                                                                                                                                                                                                                                                                                                                            ",
"                                                                                                                                                                                                                                                                                                                                                                                                                                                                                                                                                                                                                                                                                                                                                                                                                                                                                                                                                                                                                                                                                                                                                                                                                                                                            ",
"                                                                                                                                                                                                                                                                                                                                                                                                                                                                                                                                                                                                                                                                                                                                                                                                                                                                                                                                                                                                                                                                                                                                                                                                                                                                            ",
"                                                                                                                                                                                                                                                                                                                                                                                                                                                                                                                                                                                                                                                                                                                                                                                                                                                                                                                                                                                                                                                                                                                                                                                                                                                                            ",
"                                                                                                                                                                                                                                                                                                                                                                                                                                                                                                                                                                                                                                                                                                                                                                                                                                                                                                                                                                                                                                                                                                                                                                                                                                                                            ",
"                                                                                                                                                                                                                                                                                                                                                                                                                                                                                                                                                                                                                                                                                                                                                                                                                                                                                                                                                                                                                                                                                                                                                                                                                                                                            ",
"                                                                                                                                                                                                                                                                                                                                                                                                                                                                                                                                                                                                                                                                                                                                                                                                                                                                                                                                                                                                                                                                                                                                                                                                                                                                            ",
"                                                                                                                                                                                                                                                                                                                                                                                                                                                                                                                                                                                                                                                                                                                                                                                                                                                                                                                                                                                                                                                                                                                                                                                                                                                                            ",
"                                                                                                                                                                                                                                                                                                                                                                                                                                                                                                                                                                                                                                                                                                                                                                                                                                                                                                                                                                                                                                                                                                                                                                                                                                                                            ",
"                                                                                                                                                                                                                                                                                                                                                                                                                                                                                                                                                                                                                                                                                                                                                                                                                                                                                                                                                                                                                                                                                                                                                                                                                                                                            ",
"                                                                                                                                                                                                                                                                                                                                                                                                                                                                                                                                                                                                                                                                                                                                                                                                                                                                                                                                                                                                                                                                                                                                                                                                                                                                            ",
"                                                                                                                                                                                                                                                                                                                                                                                                                                                                                                                                                                                                                                                                                                                                                                                                                                                                                                                                                                                                                                                                                                                                                                                                                                                                            ",
"                                                                                                                                                                                                                                                                                                                                                                                                                                                                                                                                                                                                                                                                                                                                                                                                                                                                                                                                                                                                                                                                                                                                                                                                                                                                            ",
"                                                                                                                                                                                                                                                                                                                                                                                                                                                                                                                                                                                                                                                                                                                                                                                                                                                                                                                                                                                                                                                                                                                                                                                                                                                                            ",
"                                                                                                                                                                                                                                                                                                                                                                                                                                                                                                                                                                                                                                                                                                                                                                                                                                                                                                                                                                                                                                                                                                                                                                                                                                                                            ",
"                                                                                                                                                                                                                                                                                                                                                                                                                                                                                                                                                                                                                                                                                                                                                                                                                                                                                                                                                                                                                                                                                                                                                                                                                                                                            ",
"                                                                                                                                                                                                                                                                                                                                                                                                                                                                                                                                                                                                                                                                                                                                                                                                                                                                                                                                                                                                                                                                                                                                                                                                                                                                            ",
"                                                                                                                                                                                                                                                                                                                                                                                                                                                                                                                                                                                                                                                                                                                                                                                                                                                                                                                                                                                                                                                                                                                                                                                                                                                                            ",
"                                                                                                                                                                                                                                                                                                                                                                                                                                                , g.                                                                                                                                                                                                                                                                                                                                                                                                                                                                                                                                                                                                                                                                                                                                                                                                                        ",
"                                                                                                                                                                                                                                                                                                                                                                                                                                                M.I.L.                                                                                                                                                                                                                                                                                                                                                                                                                                                                                                                                                                                                                                                                                                                                                                                                                      ",
"                                                                                                                                                                                                                                                                                                                                                                                                                                              a.I.dXdXL.                                                                                                                                                                                                                                                                                                                                                                                                                                                                                                                                                                                                                                                                                                                                                                                                                    ",
"                                                                                                                                                                                                                                                                                                                                                                                                                    S.h.                      x.dXjXjXI.                                                                                                                                                                                                                                                                                                                                                                                                                                                                                                                                                                                                                                                                                                                                                                                                                    ",
"                                                                                                                                                                                                                                                                                                                                                                                                                  x.I.U.                      B.fXjXjXfXL.                                                                                                                                                                                                                                                                                                                                                                                                                                                                                                                                                                                                                                                                                                                                                                                                                  ",
"                                                                                                                                                                                                                                                                                                                                                                                                                x.dXfXfXL.                    I.jXjXjXfXU.                                                  <                                                                                                                                                                                                                                                                                                                                                                                                                                                                                                                                                                                                                                                                                                                                                               ",
"                                                                                                                                                                                                                                                                                                                                                                                                                P.jXjXjXU.                  j.dXkXjXjXjXgXK.                                              OXOXh.                                                                                                                                                                                                                                                                                                                                                                                                                                                                                                                                                                                                                                                                                                                                                            ",
"                                                                                                                                                                                                                                                                                                                                                                                                              g.gXjXjXjXgX                  m.dXfXjXjXfXgXL.                                            OXMXMXOX                                                                                                                                                                                                                                                                                                                                                                                                                                                                                                                                                                                                                                                                                                                                                            ",
"                                                                                                                                                                                                                                                                                                                                                                                                              x.fXjXlXjXfXL.                L.dXjXjXjXfXgXL.                                          M.gXBXBX&X                                        c.c.                                                                                                                                                                                                                                                                                                                                                                                                                                                                                                                                                                                                                                                                                                                ",
"                                                                                                                                                                                                                                                                                                                                                                                                              L.fXjXjXjXjXU.                U.dXfXkXkXfXfXI.                                          I.jXHXVX&X                                    c.L.dX$Xc.                                                                                                                                                                                                                                                                                                                                                                                                                                                                                                                                                                                                                                                                                                              ",
"                                                                                                                                                                                                                                                                                                                                                                            x.N.P.L.                          c.dXjXjXjXjXgXK.              U.dXfXdXdXdXfXdXL.                                      I.jXcXcXBXI.                                  OXmXjXjXBXOX                                                                                                                                                                                                                                                                                                                                                                                                                                                                                                                                                                                                                                                                                                              ",
"                                                                                                                                                                                                                                                                                                                                                                          j.P.kXjXgX$X                      a.M.I.fXjXfXfXgXL.              L.gXgXdXdXdXgXdXL.                                    m.fXcXcXcXlX&X                                +XMXBXlXSXBX$X                                                                                                                                                                                                                                                                                                                                                                                                                                                                                                                                                                                                                                                                                                              ",
"                                                                                                                                                                                                                                                                                                                                                                        j.P.dXfXjXjXMXL.                    M.I.I.gXgXfXgXgXU.              L.dXdXdXN.N.I.I.L.                                  j.I.jXcXcXcXjX&X                              S.MXBXSXHXlXBXOX                                                                                                                                                                                                                                                                                                                                                                                                                                                                                                                                                                                                                                                                                                              ",
"                                                                                                                                                                                                                                                                                                                                                                        m.I.dXkXjXjXSXMX                  m.kXkXgXdXdXdXgXfXU.              L.I.I.N.m.n.n.B.L.h.                                P.jXjXcXcXcXBXU.                            M.MXBXcXcXHXcXBXOX                                                                                                                                                                                                                                                                                                                                                                                                                                                                                                                                                                                                                                                                                                              ",
"                                                                                                                                                                                                                                                                                                                                                                      x.I.I.dXdXkXfXjXBX&X                sXhXjXfXdXP.dXdXdXI.J.            L.I.I.m.n.a.a.x.L.c.                              m.gXjXjXcXcXcXjXI.                          M.MXBXBXcXcXHXSXMX                                                                                                                                                                                                                                                                                                                                                                                                                                                                                                                                                                                                                                                                                                                ",
"                                                                                                                                                                                                                                                                                                                                                                      x.P.P.N.N.N.dXfX&XOX              N.jXcXcXjXgXN.N.P.dXI.L.            M.I.B.n.a.- - j.M.L.L.$XL.                        P.fXjXjXjXcXlXjXI.                      < c.I.fXBXjXcXcXcXjX&X                                                                                                                                                                                                                                                                                                                                                                                                                                                                                                                                                                                                                                                                                                                ",
"                                                                                                                                                                                                                                                                                                                                                                      M.B.N.n.v.N.N.I.L.              x.kXjXcXcXcXfXdXP.N.P.I.L.            M.I.M.j.- 3 - n.I.I.mXmXU.L.                    m.dXfXjXjXjXjXlXjXL.                  : < c.I.gXfXjXjXjXjXjXBX$X                      W.OX$X$XJ.                                                                                                                                                                                                                                                                                                                                                                                                                                                                                                                                                                                                                                                                                ",
"                                                                                                                                                                                                                                                                                                                                                                    g.M.N.n.v.v.b.N.P.L.            p.m.jXcXcXcXcXjXjXfXP.N.P.U.J.          x.L.x., 3 3 i.kXjXfXgXdXdXgXOX                  I.gXfXfXjXjXjXjXgX                  : 2 h.$XgXfXfXfXjXjXjXjXMXL.                    OX$XMXfXfX&X                                                                                                                                                                                                                                                                                                                                                                                                                                                                                                                                                                                                                                                                                ",
"                                                                                                                                                                                                                                                                                                                                                                    j.M.m.n.v.v.v.n.N.P.        a.a.x.dXjXcXcXcXcXjXjXcXhXN.N.I.J.          g.M.g.- 3 i.kXcXcXlXfXgXfXBX&XL.L.            x.I.dXdXsXsXkXjXjXI.                2 1 g.OXmXMXfXgXfXjXjXjXjXgX                    L.MXMXfXjXfXMX$X                                                                                                                                                                                                                                                                                                                                                                                                                                                                                                                                                                                                                                                                              ",
"                                                                                                                                                                                                                                                                                                                                                                    g.x.n.v.i.v.v.v.m.m., 3   g.g.g.m.fXlXcXcXcXcXlXcXvXcXdXN.P.L.      a.X , c.a.3 w.sXcXcXcXcXjXfXfXfXgXgXmXOX        a.L.I.P.N.N.N.dXfXfXU.              < 1 h.c.&XmXgXdXsXsXdXfXjXfXI.                  L.mXBXBXfXfXBXMXOX                                                                                                                                                                                                                                                                                                                                                                                                                                                                                                                                                                                                                                                                              ",
"                                                                                                                                                                                                                                                                                                                                                                    g.x.j.i.i.i.i.i.n.m.x.x.x.x.g.g.N.jXlXcXcXcXcXcXcXvXvXjXN.P.U.  m.dXU.: : c., - m.jXcXcXcXcXjXfXdXdXdXfXBX&X        x.I.I.N.m.m.N.P.gXMXL.            , h.h.c.$XmXdXI.N.N.aXsXfXfXfXL.                c.dXfXfXfXfXfXMXMXOX                                                                                                                                                                                                                                                                                                                                                                                                                                                                                                                                                                                                                                                                              ",
"                                                                                                                                                                                                                                                                                                                                                                    c.x.j.i.i.i.e.i.n.N.U.L.x.x.a.a.P.jXjXcXzXcXcXcXcXvXvXcXkXP.I.U.sXjXU.1 * h., a.dXcXcXcXcXcXjXdXN.N.sXdXfX&X      a.M.B.m.n.n.n.n.N.I.I.              h.h.g.L.&XI.I.N.N.N.aXdXfXfXI.                h.$XfXfXfXfXMXfXMXMXOX                                                                                                                                                                                                                                                                                                                                                                                                                                                                                                                                                                                                                                                                              ",
"                                                                                                                                                                                                                                                                                                                                                                  , c.x.j.i.e.e.e.i.n.N.U.L.M.g.a.x.dXjXhXhXhXhXcXcXcXbXbXvXjXsXdXgXjXlXgXh.: , , m.jXcXcXcXcXcXSXdXb.b.N.P.dXU.      c.M.m.x.j.a.a.a.x.L.L.            h.h.f.c.U.I.I.N.n.m.N.aXkXfXMXU.                OXmXMXfXgXdXdXfXMX&XL.                                                                                                                                                                                                                                                                                                                                                                                                                                                                                                                                                                                                                                                                              ",
"                                                                                                                                                                                                                                                                                                                                                                  , c.x.j.i.e.e.e.i.n.m.L.L.x.g.a.x.gXjXhXkXkXhXjXcXcXbXbXbXcXgXdXgXlXHXgXh.: : g.dXjXcXcXcXcXcXSXdXv.v.b.N.P.U.    a.M.M.x.j.a.- - - a.x.h.          < h.< h.OXU.U.N.n.v.v.N.aXdXfXMXc.,             c.$XmXgXgXdXdXdXfXMX&X                                                                                                                                                                                                                                                                                                                                                                                                                                                                                                                                                                                                                                                                                ",
"                                                                                                                                                                                                                                                                                                                                                  m.P.U.          , c.x.j.e.e.e.w.e.n.P.L.c.g.g., m.fXjXkXsXsXkXhXlXcXvXbXbXcXjXdXgXlXlXU.h.: : x.fXlXcXjXjXcXcXSXgXm.v.v.N.I.L.    g.c.x.a.a., * * * , f.2         < h.< s.c.$XL.M.n.n.n.v.m.aXfXBXMXI.dXU.          OX$XI.dXdXB.dXdXdXmX$X                                                                                                                                                                                                                                                                                                                                                                                                                                                                                                                                                                                                                                                                                ",
"                                                                                                                                                                                                                                                                                                                  a.x.x.                        x.sXhXhXgXL.      a.c.x.j.i.w.e.w.i.n.B.L.a.g., - m.fXfXsXN.N.sXhXjXcXvXbXvXvXlXgXU.jXjXU.h.> , L.fXjXjXkXkXjXjXSXMXM.i.v.N.P.x.    g.c.g.a., * * * * : < < a.c.c.* h.h., h.OXOXM.n.j.n.n.n.N.P.fXBXBXSXHXMX        L.$X$XI.I.B.B.B.dXgX&XOX                                                                                                                                                                                                                                                                                                                                                                                                                                                                                                                                                                                                                                                                                ",
"                                                                                                                                                                                                                                                                                                                  m.gXI.L.                      p.sXzXcXzXjXL.    , c.x.j.i.w.w.e.i.n.L.J.g.x.a.w.m.fXdXN.N.b.aXkXjXcXcXvXvXvXcXMX&XfXgXL.1 > , mXBXjXkXsXsXkXjXBX&XL.p.n.N.K.      h.L.c., * * X * : : j.I.MXBXmXc.c., , W.OXL.V.j.n.n.n.n.m.I.fXBXSXKXLXMX        OX$XI.B.V.V.m.P.dXmX&XJ.            OX&X&X                                                                                                                                                                                                                                                                                                                                                                                                                                                                                                                                                                                                                                                              ",
"                                                                                                                                                                                                                                                                                                                  P.jXjXgXL.                    w.sXcXcXcXzXgXK., a.c.x.j.i.w.w.w.i.n.L.L.m.P.L.p.N.gXdXN.b.b.N.kXjXlXcXcXvXvXcXBX&XMXU.g.2 : g.MXfXkXsXaXsXdXfXMX&X~.g.j.m.c.    : L.MX&Xg.* X X * * g.gXHXHXHXHXBXI.a.h.@XOXM.j.j.n.n.n.n.N.I.mXMXHXKXHXI.      c.$X$XB.V.j.n.m.I.mXmX$X          c.$XVXSXSX&X                                                                                                                                                                                                                                                                                                                                                                                                                                                                                                                                                                                                                                                            ",
"                                                                                                                                                                                                                                                                                                                  P.hXhXhXdXJ.                x.j.sXzXcXcXcXjXP.g.g.K.c.g.j.w.w.a.j.x.L.U.kXjXdXm.I.gXdXN.b.b.b.sXjXjXSXHXcXcXcXBX&X@XJ., : , M.MXMXdXN.N.N.dXgXMX#X[.h.x.c.h.  * c.MXSXSXL.* X X * a.gXHXHXLXLXHXHXSX&X@X#XOXc.V.j.j.n.n.m.B.I.I.&XBXLXSX      h.OX$XL.M.j.j.j.V.I.dX&XOX        c.&XSXHXHXJXCX                                                                                                                                                                                                                                                                                                                                                                                                                                                                                                                                                                                                                                                            ",
"                                                                                                                                                                                                                                                                                                                  P.kXhXhXkXU.              j.I.sXkXhXcXcXcXhXP.x.g.J.c.g.a.a.a.a.a.h.J.&XlXcXfXU.$XdXP.m.v.b.b.sXfXBXBXjXjXjXlXFX@X~.h., : a.$XMXgXP.n.m.N.B.gXMX#X(.R.h.H.1 # < I.lXHXHXMX: # # , L.SXHXKXKXKXLXHXHXDX:X!.W.c.x.x.j.j.j.V.L.I.gXfXfXHXMX      W.$XOXM.j.j.j.j.M.I.I.&XJ.        &XSXHXHXHXHXSX                                                                                                                                                                                                                                                                                                                                                                                                                                                                                                                                                                                                                                                            ",
"                                                                                                                                                                                                                                                                                                                  P.kXhXhXkXdXL.            m.kXhXhXhXzXcXcXhXP.g.g.W.h.1 1 , a.a.g.h.W.&XSXvXfXU.&XdXI.n.v.b.N.N.fXBXBXBXfXfXBXBX&XE.2 : : g.&X&XI.m.n.n.m.N.dXMX#X/.3.T.( 2 = c.MXHXHXHXSXh.# @ c.MXHXHXKXKXKXLXHXHXHXAX!.Y.h.c.j.j.x.x.M.L.MXSXHXHXSX&X    , @X@XL.x.a.a.j.k.M.I.&X@X        $XFXSXHXHXHXHXSX                                                                                                                                                                                                                                                                                                                                                                                                                                                                                                                                                                                                                                                            ",
"                                                                                                                                                                                                                                                                                                                  N.sXkXkXsXdXU.h.          N.hXzXcXjXhXjXjXkXP.g.g.T.T.1 1 , , 1 1 h.~.@XSXHXfXU.&X$XB.n.n.n.b.N.gXMXMXmXdXdXgXMX&X~.> X * c.&X$XB.n.n.n.n.N.$X&X!.6.1.3.) l > OXBXHXHXHXSXW.% < $XSXSXcXcXHXLXHXHXLXLXDX!.Y.T.Z.h.g.g.c.L.&XSXHXHXHXFXL.    W.@XOXc.k.a.a.a.k.M.$X$XOX      c.MXFXSXHXHXHXHXSX                        *XAXAX&X                                                                                                                                                                                                                                                                                                                                                                                                                                                                                                                                                                                                                            ",
"                                                                                                                                                                                                                                                                                                                  m.sXsXsXP.sXI.J.          j.sXzXcXcXhXhXhXkXP.a., T.T.( F 2 1 1 F F Y.#XDXHXfXU.&X$XM.j.i.n.n.N.dXMXMX$XB.B.I.MX&X~.> X : OX&X$XM.j.j.n.n.B.$X&X!.4.4.4...a b $XSXHXHXHXSXW.> S.MXSXSXcXcXHXHXHXHXLXLXSX#XY.R.T.Z.Z.Z.W.$XSXHXKXKXHXMX    1 !.!.W.h.f.s.a.a.k.M.$X@XW.      &XBXSXSXSXHXHXHXSX@X                  +XNXJXHXJXCX                                                                                                                                                                                                                                                                                                                                                                                                                                                                                                                                                                                                                            ",
"                                                                                                                                                                                                                                                                                                                  m.P.P.N.N.N.P.L.            m.sXhXlXlXhXkXsXP.a.: T.( ( D 2 F D n ( E.!.AXSXMX$X&XOXM.j.j.n.n.m.I.MXMX$XM.M.I.&X&XQ.> X < #X@XOXM.j.j.n.n.B.$X#XE.1.4.4.[ a F &XSXHXHXHXBXS.< $XBXBXfXjXjXcXHXHXHXLXLXJX:XE.] ' ' ] Y.~.MXHXKXKXKXHX$X    Y.!.!.Y.Z.< < < s.c.OX@X@XH.    W.MXBXBXBXVXSXHXSXSX*X                W.NXJXLXLXLXFX                                                                                                                                                                                                                                                                                                                                                                                                                                                                                                                                                                                                                            ",
"                                                                                                                                                                                                                                                                                                                  x.N.N.n.b.N.N.P.K.          g.P.sXkXhXkXsXP.P., : ( ] ] / b / / / ] 3.(.,XFX&XOX@X@Xc.a.a.j.j.M.$X&X*XOXc.V.M.$X@XQ.z X Z.#X#XOXc.a.j.j.V.M.%X#X^.1.1.4.L r Z.mXVXHXHXSXMXc.S.MXMXfXdXkXjXcXHXHXHXHXHXJXAX(.3.=.3.3.3.#XSXHXKXKXLXHXJ.X : E.[.E.T.1 < < < < h.W.@XQ.    h.@XMXMXMXMXMXBXVXDXDXAX&X            W.&XSXHXLXKXLXSX                                                                                                                                                                                                                                                                                                                                                                                                                                                                                                                                                                                                                            ",
"                                                                                                                                                                                                                                                                                                                  j.m.m.v.v.v.n.m.L.g.        a.m.sXsXsXdXP.P.m., 3 ( ] ] ] m / / / [ +.6.>XFXL.OX#X@XS.a.a.a.a.c.OX*X*X+Xc.k.k.S.!.E.n X E.=X#XS.l.a.a.j.x.OX#X!./.-.-.:.u e S.MXSXHXlXBX$Xc.&XMXfXdXN.sXkXjXHXSXHXHXHXDXAX[.1.1.+.8.(.:XDXHXLXKXHXSXK.X F '._.E._ F F A < A T.!.!.~.1 1 W.*XMX&X$XI.dXfXBXSXSXDXSX&X          @XFXHXHXLXLXHXFX                                                                                                                                                                                                                                                                                                                                                                                                                                                                                                                                                                                                                            ",
"                                                                                                                                                                                                                                                                                                                  a.m.x.i.i.e.i.j.m.c.        p.sXjXjXjXgXI.P.m., X D 1.+.} / [ / / [ #.5.XX*XJ.~.#X#XW.f.s.a.s.c.OX#X#XQ.Z.h.h.Z.E.(.n > [.[.!.T.f.< d.d.c.W.!.[./.....-.t l W.MXBXBXfXI.M.OXMXMXdXB.N.aXsXjXHXSXSXSXSXSXAX[.+.} &.4.[.AXSXHXHXLXHXSXJ.X /.9.1.=.^ _ ( D D D R.(.[.E.F T.#X*X&X$XM.M.B.dXBXVXSXJXLXSX        @XCXSXHXHXHXHXJXMX                                                                                                                                                                                                                                                                                                                                                                                                                                                                                                                                                                                                                            ",
"                                                                                                                                                                                                                                                                                                                  , x.a.t.w.w.e.i.n.m.g.      i.hXcXcXcXlXfXI.m., X b +.} R R T R R } @.%. X#XT.Y..X!.Y.1 1 1 F T.!.[..X!.T.F F _ /.2.V C  XoX(.R.A < < < Z.Q.[.[.;.| | >.c z OXMXMXfXgXL.c.$X&X$XI.m.m.N.sXjXSXSXSXBXBXFXAX!. .T W -.#X*XFXSXSXHXHXFXJ.> 9.9.+.../ ' ' ^ ) ) 3./._.` F ~.#X*X$XM.V.j.V.I.mXMXFXSXKXHX        *XVXSXSXHXHXHXJX&X                                                                                                                                                                                                                                                                                                                                                                                                                                                                                                                                                                                                                            ",
"                                                                                                                                                                                                                                                                                                                    g.a.a.w.w.w.e.i.n.x.      i.hXvXvXvXcXlXBX&Xh.X % } W T R T R T X.@.@.5.(.F _ oX(.R.F F F ( R.(.oX X_.] V ^ ] 1.5.q.+.9.9.2.' n F F F J ^.'. X*.C Z Z l < $X$XI.I.B.c.c.&X&X$XM.n.m.N.dXfXBXFXMXgXMXMXNX!.[ R d *.Q.#X&XMXBXSXSXMXh.D 8.#.+. .| | ^ ^ ..+.8.7.}.` T.!.#X*XOXc.k.j.z.M.mXMXAXSXKXHX&X    #XNXMXMXBXBXSXHXDX&X                                                                                                                                                                                                                                                                                                                                                                                                                                                                                                                                                                                                                            ",
"                                                                                                                                                                                                                                                                                                                    a.j.a.w.w.w.e.i.j.x.g.    a.hXcXcXcXcXlXjXBX&X, & } W W R T R W ! ! ! %./.m ) '._.;._ G ' ' 3.8.9.9.7.-... .+.$.&.R %.9.9.4.=./ V V ) =.2.`._.N M t e j h.L.L.B.m.k., W.*X$XL.j.n.n.N.I.MXBXMXI.I.&XNX*XR.p p u G A.S.S.OX$XMXBX&X1 ' 5.&.&.} R {  .} } #.%.9.8._ R.!.#X@XS.l.d.a.z.M.$XNXAXSXLXHXOX  W.*XNXmXI.I.gXBXVXBX@X                                                                                                                                                                                                                                                                                                                                                                                                                                                                                                                                                                                                                            ",
"                                                                                                                                                                                                                                                                                                                    , x.j.w.w.w.w.e.i.j.x.,   3 P.jXcXcXcXjXjXfXMX@XF [ W Q R R Q W ! ! W $.<.l ..9.8.1.=.^ =.=.1.9.9.9X9.%.X.+.&.&.~ T %.8X0.%.+.[ | | ..+.5.9.8.a 7 6 6 @ A h.c.k.j.a.< !.#XOXc.a.j.n.m.U.mXMX&XM.M.@X*X#XR.y q c S F Z.Z.c.L.mXMX@X1 1.%.&.X.T T T { { } %.0.9.2.G R.[.=X+XS.f.s.d.k.c.$X&XAXDXLXBXL.h.#X*X&XB.M.M.I.MXVXMX                                                                                                                                                                                                                                                                                                                                                                                                                                                                                                                                                                                                                              ",
"                                                                                                                                                                                                                                                                                                                    3 g.j.w.w.w.w.e.i.p.g.g.X 3 m.jXjXzXzXhXhXjXgXMX@X=.W W R W Q Q Q ! W X.o.t  .9.0.%.#. .+.+.&.0.8X9X8X8X&.W ! ! Q Q 8X8X8X%.X.} } #.#.%.0.8X} 4 4 O O @ z < < , , : 1 !.!.W.c.a.j.j.V.U.&X*X@Xc.c.OX+XQ.B r e n A.Y.Y.Y.T.c.L.$XW.D 4.$.@.W R R R R T X.&.%.5.;.D _ [.[.Q.Z.s.< s.d.S.@X*X:XDXSXU.@X@X*X&XL.x.k.c.B.&XMX$X                                                                                                                                                                                                                                                                                                                                                                                                                                                                                                                                                                                                                              ",
"                                                                                                                                                                                                                                                                                                                      a.x.p.w.w.w.w.w.p.a., 2 * x.gXjXhXhXkXkXkXgXMX&X!. .E f E Q Q Q Q Q X.o.u } 8X0.&.@.X.&.&.%.8X8X8X8X8X! Q ! ! Q Q 8X8X4X! W W &.&.&.%.8X8Xd 4 . . . + w > = * * * ( (.!.Y.C.< d.k.c.OX@X#XW.f.h.S.T.A.l j F Y.T.T.Z.T.T.S.OXL.Z.' 8.$.X.T g d f d R W &.%.8.) n _ [.[.R.F < < < C.Z.#X#X,XFXMXL.@X:X*XOXc.a.k.z.M.&X&XW.                                                                                                                                                                                                                                                                                                                                                                                                                                                                                                                                                                                                                              ",
"                                                                                                                                                                                                                                                                                                                      , g.a.w.w.w.w.p.p., 2 1 2 , U.gXkXkXsXsXsXI.I.&X@XR.{ s T E W E E E X.$.g T 8X4X@.! W @.@.4X8X8X8X8X8X! Q Q Q E ! 8X8X3X! Q W ! @.! 4X4X4Xp 4 . . . + @ = , j.c.c.E.(.E.R.Z.< f.l.S.!.#X!.F < 1 F D D F A.T.T.F Z.Z.Z.T.S.W.W.T.R.6.#.{ g g g g g g T O.%.4.N k '  X(.R.F z A A A R.[.>X,XNXMX@X#X*X#XS.f.a.d.l.F.@X@X                                                                                                                                                                                                                                                                                                                                                                                                                                                                                                                                                                                                                                ",
"                                                                                                                                                                                                                                                                                                                        a.g.a.w.w.3 , , , 2 b b : x.dXdXsXsXN.N.N.P.I.$X#X;.d f T T f s f E $.d T 8X4X! Q Q ! 3X3XqX8X8X8X8X! Q Q Q s @.8X8X3XQ Q Q ! ! 3X4X8X@.r 4 . . . + > l.mXBXSXVX*X#XE.R.F A F Z.R.[.[.(.b b b b n F R.T.Z.F F F Z.W.W.L.L.I.L.W.(.:.[ p q q p p g T X.%.$.i a -.}._.;.G n S S J R.(.XX>X@X@X!.=X#XQ.Z.< s.f.l.OX@X~.                                                                                                                                                                                                                                                                                                                                                                                                                                                                                                                                                                                                                                ",
"                                                                                                                                                                                                                                                                                                                        , g.g.a.w., , , 2 2 b m w h.U.I.P.N.N.N.N.N.I.$X#X!.| d f f f f s f o.T W 8X3X3XQ Q ! 3X3X8X8X8X8X4X@.E E s g 4X8X4X! E E Q ! ! 4X4X8X{ 4 . . . O @ f.&XVXVXSXSXBXMX#XR.G V G _ ^._. X;.m m k k D R.Y.Z.F F A Z.W.J.L.L.I.I.I.I.@XR.P q q q q q p f X.$.#.d p 4.9.8.=.^ C V H ) 1.9. X[.W.W.[..X[.T.C.< < f.Z.W.!.T.                                                                                                                                                                                                                                                                                                                                                                                                                                                                                                                                                                                                                                ",
"                                                                                                                                                                                                                                                                                                                          g.h., , , : 2 2 m m m a > L.I.P.N.n.b.n.n.m.L.OX!.^.| d d f f g g { T W 8X3X3XQ E Q ! 3X8X8X8X8X4XO.s s g g 8X8X4XQ s E W @.@.4X4X6XM 4 O . $ O > OXMXMXdXkXjXfXMXMX#X_ C | ..4.9.9...C M e D E.E.Z.F A A A T.W.M.M.I.dXdXdXI.$XQ.M q q q q q p d o.4.4.L d 5.9.%. .[ | ..|  .4.9.}.E.Z.R. X X(._ D F 1 A R.!.E.                                                                                                                                                                                                                                                                                                                                                                                                                                                                                                                                                                                                                                  ",
"                                                                                                                                                                                                                                                                                                                          : 1 1 : 2 2 b V V m a p r Z.$XI.N.m.v.n.n.n.M.W.~.[.;.i d d L d u d d T 8X4X3XQ Q ! ! 3X4X8X8X6X%.X.g g p d 9X8X4XE s T X.@.@.4X4X$.r 6 O O . # A &XmXB.N.sXsXkXMXMX&X!.C [ } %.0.%.{ [ y m E.E.R.F A > < Z.W.c.M.B.N.sXdXdXgX$XW.v 0 0 q q y p P /.[.#X!.].`.5.%.@.} } }  .#.%.0.}.R.D 2.}.}.2.] ' D D _ (.(.R.            F W.&X%X                          L.$X&XMXBXMXMXU.                                                                                                                                                                                                                                                                                                                                                                                                                                                                                                                                                                    ",
"                                                                                                                                                                                                                                                                                                                            2 ( D m m M q.q.p p p a S OXI.B.m.j.j.j.j.c.c.Q.[./.N y u d u y u d R 4X8X4X! W @.@.! 4X8X0X#.} } g q q [ 9X9X%.T g T X.&.$.6X9XL 6 8 + O O # Z.MXmXB.N.N.N.P.I.$X@X~._ M [ $.%.X.T u a R.[.R.J z > > < S.S.c.M.N.N.aXdXdXdXI.W.l 7 7 y y y M R.%XCXVXMX*X[.5.%.&.T E X.+.&.%.0.7.G ) 9.9X9.4.=.| ^ / 3.2./.            A Y.@X&X*X@X                  c.L.&XMXSXSXHXHXHXHXBXL.                                                                                                                                                                                                                                                                                                                                                                                                                                                                                                                                                                  ",
"                                                                                                                                                                                                                                                                                                                              b / / i p q.q.q.i i p t S.OXL.M.n.j.j.j.c.S.Q.[.oX..y y p p y y u d 4X8X4XW W @.O.X.@.9X0XL Z L p 0 7 | }.9X$.d g g { o.$.7.6Xt 8 8 + O O O Z.MXmXI.N.b.N.N.B.L.W.T.T.T.R.(._. .d a ^ (.(.R.F > = > Z.W.c.M.V.m.N.N.aXdXI.L.~.j 7 7 7 e S Z.@XMXBXSXSXSX*X_.%.&.E W X.X.@.%.8X7.Z 4.9X9X0.&.X.#.+.+.4.5.1.          F Y.~.@X&X&X@X              J.OX&XMXBXVXHXHXHXLXKXKXHXMX                                                                                                                                                                                                                                                                                                                                                                                                                                                                                                                                                                  ",
"                                                                                                                                                                                                                                                                                                                              % m / i i q.q.q.i R g y F OXL.M.j.j.j.j.k.h.W.!.'.8.a r y y r y u i %.8X@.W X.O.O.o.$.6XyXu e Z e 4 5 C `.8.o.d i L L | 6.`.6.6 j j 8 + O o 1 &XmXI.N.N.N.m.V.g.h.W.@X&X&X&X*X!.V t 1./.(._ z > = 1 W.W.c.c.m.M.M.B.B.B.I.OXZ.w 4 7 j Z.W.L.dXfXBXSXHXHXNX_.%.X.E W X.W O.%.9X4.i 0.8X8X4X@.@.&.&.$.%.$.          Y.#X*X*X*XAXAXNX@X          @X&X&XMXMXBXBXHXHXLXLXKXKXHXMX                                                                                                                                                                                                                                                                                                                                                                                                                                                                                                                                                                  ",
"                                                                                                                                                                                                                                                                                                                              $ % N i i q.i i i g g p l W.OXc.c.a.a.d.f.h.T.E._.9.L r r 7 7 r r t 8.6X5.X.{ o.$.o.$.6XtXt 5 e e 6 + C 6.:.| N Z L P ..:._.C @ z > @ @ + o > @X&XI.N.N.m.j.a., c.$XMXMXBXBXMXNX#X/.6.6.;.V j + = T.W.J.c.c.x.V.V.M.M.L.OXW.S 5 5 z Z.W.L.I.dXdXfXjXBXBX*X/.#.{ T W W W &.4X9Xo.#.9X8X4X@.X.@.@.$.%.@.R       T.!.#X*X*XNXCXFXFXSXFX&X    W.OX@X&X&X&X$XMXMXVXHXHXLXHXLXSX                                                                                                                                                                                                                                                                                                                                                                                                                                                                                                                                                                    ",
"                                                                                                                                                                                                                                                                                                                          h.2 X X a p p i i R R g g g a D ~.W.c.f.< < < Z.( ;.7.9.#.y 7 7 7 7 r r 1.9.5.} { } } } 4.7.tXy . 9 7 6 6 V >.*.N t t M P | >.2.e @ > % + 8 + O X W.@X$XB.V.V.j.- a.@X&XMXBXHXSXSXFXNX[.8.4...M w + z Y.W.c.c.c.x.x.c.c.M.W.W.~.x . > T.W.L.L.P.dXsXdXfXBXMX#X).#.} { E X.O.$.9X9X#.5.8X4X%.O.X.@.&.$.$.} i k D E.=X#X*X*XNXCXVXSXSXSXHXDXAX%X#X@XOXOXF.M.M.I.dXBXHXHXHXHXSXMX                                                                                                                                                                                                                                                                                                                                                                                                                                                                                                                                                                    ",
"                                                                                                                                                                                                                                                                                                                        a.@X#X~.: & a p p R R g g g g a l R.Y.T.Z.1 2 2 D _ 3.8.9.8Xp 4 7 7 6 6 w =.`.8.o.L L L [  ._.}.y . 6 6 6 6 V ) C y r e t t Z *.C + w % % 6 6 5 . o 1 #X@XOXc.c.d., W.@XMXjXlXHXHXHXSXFX#X(.4.[ t 7 6 G E.Y.S.c.c.k.c.c.c.W.W.W.R.+ @ F W.J.M.B.N.N.N.N.dXmX&X!.6.#.{ { { O.X.#.5.5.#.9.5.%.&.W X.O.#.#.} d Z ` [.[.#X#X@X&XMXMXBXVXHXHXSXDXDXAX#XOXS.c.k.z.V.M.I.fXSXHXHXSXMX                                                                                                                                                                                                                                                                                                                                                                                                                                                                                                                                                                      ",
"                                                                                                                                                                                                                                                                                                                          ~.:X>X.XE._ m a p g g g g p y r G R.R.T.( D n ) ) 1.%.8X8X{ 4 4 6 5 + + ) _.6. .N u L P | :.).e . 5 6 6 8 l c t r 7 7 r e c Z r O w w 6 6 6 6 5 o > !.#XQ.S.c.f.< OX@XMXfXjXHXcXHXSXFX*X[.4.R y r r ` R.T.Z.c.f.k.c.c.c.W.W.~.J # D ~.W.M.M.N.N.N.N.B.I.$X@X[.6.o.{ { } } X.o.8.4.4.9.5.$.X.E X.X.o.} q.i =.oX[.[.#X@XOX$XI.gXMXVXHXHXSXFXAXAXOXc.l.d.j.j.j.V.I.MXBXSXFXMX                                                                                                                                                                                                                                                                                                                                                                                                                                                                                                                                                                        ",
"                                                                                                                                                                                                                                                                                                                          2 ~.:X<X<X>X.X3.p a p p p y a r l ;./.;.' ) V ^  .&.%.8X8X@.7 4 6 5 O O V _.6.[ t t u t Z >.:.r O O 6 6 6 e e 7 4 4 4 4 7 e e 6 5 6 7 5 6 6 6 5 o o R.[.E.T.F 2 Z.@X&X&XMXBXjXjXSXSXCX*X[.1.d q 4 t ;.E.R.Z.Z.h.c.c.S.Z.W.Q.E.l l R.Q.W.M.M.B.B.B.B.B.$X$X@X(.1...L L I I { o.4.} 4.5.#.} T T T T T d i  .9. X[.!.Q.OXF.B.B.dXdXBXSXSXBXCXDX*XS.f.s.s.d.a.k.M.$XMXMXMX&X                          M.&XMXBXBXMXI.                                                                                                                                                                                                                                                                                                                                                                                                                                                                                                                                  ",
"                                                                                                                                                                                                                                                                                                                            1 1X<X<X<X<XXXoX| p a a a r r + ^ 6.6.1.=.[ { } &.&.8X8X8Xp 4 5 5 O O x /.>.N y t e e c C *.t 5 5 6 6 6 e e 7 4 4 4 4 4 6 7 O 4 6 4 6 6 5 6 5 O . B /.(.` G n T.@X@X&XmXdXfXfXBXMXNX*X#X3.i q 7 N 3./._ _ F h.Z.Z.Z.Z.T.R.R.r _ E.~.W.M.M.M.M.M.B.I.$XOXE./.=.N u d u u L [  ...,.8.} d d d T T g p { 5.9. X(.Q.W.F.M.M.B.B.dXMXBXSXSXDXAX#XF < < < s.d.z.F.$X&X$XJ.                        $XMXBXSXHXHXHXHXMXL.                                                                                                                                                                                                                                                                                                                                                                                                                                                                                                                                ",
"                                                                                                                                                                                                                                                                                                                            , !.>X<X<X<XXX X X9.+.a q r r r a #.%.&.&.} R E &.@.4X8X8X{ 4 4 5 O O @ ;.:.Z y y 7 e e c Z e 6 5 5 6 6 e 7 4 4 4 4 4 4 4 4 4 4 5 4 7 6 5 6 5 5 . w 6.6.1.*.B R.!.@X$XI.I.dXdXmXMX&X*X#X;.p q q [ 1.2.' ' _ F F Z.T.R.R.(.*.B E.E.~.W.c.M.M.M.M.I.$X@XR.G *.C t y y y t u u L [ .. .[ d d d d d p d 5.0.9.7./.R.Z.S.c.M.G.B.$XMXMXFXFXAX#XR.F > < < f.f.c.S.OXOXOXc.M.                  $XMXBXSXHXHXcXvXvXvXSXU.                                                                                                                                                                                                                                        1 h.1                                                                                                                                                                                                                                                                                   ",
"                                                                                                                                                                                                                                                                                                                              Y.>X<X<X<XXX X|.9.9X#.p r 7 4 4 { %.~ &.~ E E ~ ! 3X4X8X@.4 4 5 5 O # G ) Z e 7 7 7 7 e c l 8 5 5 6 6 7 4 4 4 4 4 4 4 4 4 4 O 5 6 6 6 6 6 6 5 4 . ..8.4. .M R.!.@XOXI.I.I.I.I.&X&X*X#X^.y q y { #.4.1.=.=.) _ ' ` ` ;.).| =.2.(.!.W.W.S.M.M.OX$X@X!.b c C c e e y y e y t p i L L u u u u u y u #.5.0.0.6.;.R.Z.D.S.F.M.OX$X&XNXNX:X[./.] G b z A C.h.S.W.@X*XFXFXSXFXFX&XU.L.c.c.OX&XMXMXBXSXHXHXvXvXbXvXlX                                                                                                                                                                                                                                        ( Y.~.W.T.h.1                                                                                                                                                                                                                                                                             ",
"                                                                                                                                                                                                                                                                                                                              1 [.<X<X<XXX X X9.9.0X9.q.4 O . a &.! ! ! W E Q @.4X4X8X4Xy 4 4 5 5 O l V e 7 4 7 4 6 6 e l w 6 6 5 6 7 4 4 4 4 4 4 4 6 6 6 8 + w 8 w w w 8 6 4 . Z 5.$.X.N ^.!.+XOX$XL.M.L.$X$X&X*X#X^.a q q } $.$.&.#. .....-.-.2.6.6.[ 1.3./.E.E.W.S.S.W.OX~.E.E.w c c t e 7 7 7 7 7 e y t M M t t t t y y  .5.%.%.5.4.;.J Z.Z.D.D.S.OX+X*X#X=X(.1.+. . .^ G D T.Q.#X*XNXFXFXSXSXHXJXJXDXMX$X&X&XMXMXMXBXSXHXHXHXbXvXHXfX                                                                                                                                                                                                                                      ( Y.Y.Y.W.W.H.h.1                                                                                                                                                                                                                                                                           ",
"                                                                                                                                                                                                                                                                                                g.x.x.x.x.x.g.g.                1 .XXXXX X X XyX0X0X0X0X+.r . . T ! ! ! ! Q Q ! @.4X4X9Xu 4 4 5 5 O 8 x 7 7 4 4 4 4 5 e e e e 8 6 7 7 4 4 4 4 4 4 4 6 8 j z F Z.Z.Z.F F x 8 + . r ,.$.O.L /.[.!.OXOXF.M.OXOXOX%X#X=X(.y q q X.$.@.@.@.X.+.#.o.o.4.8.o.{ 4.1.3./.(.E.Y.Q.Q.!.E.(.) 5 t t r 7 7 4 4 7 r l l V V v l r t e r N 8.5.%.%.%.4.=.` J Z.Z.A.Q.Q.!.=X[.).#.@.@.X.&. .) (.[.=X*X*XMXMXFXSXHXHXLXLXLXJXMX&X&X&X$XI.gXjXHXHXHXHXHXBX                                                                                                                                                                                                                                      D Y.Y.Y.Y.Y.Y.T.H.h.2                                                                                                                                                                                                                                                                         ",
"                                                                                                                                                                                                                                                                                              m.P.P.P.P.P.m.x.x.g., :         X 1 .XXXXX X|.}.9X9X0X0X0X9X#.u + a W ! Q ! Q E W @.@.%.9X .. 4 4 5 5 5 e 6 6 4 4 4 4 5 9 e e w w w r 7 4 4 4 4 4 4 5 @ > F W.OXOXOX@X@X@X!.R.x 5 4 ..5.X.[ /.[.!.Q.S.S.S.OXOX+X#X#X.X/.r 7 p #.$.@.@.W W @.&.X.o.$.8. .} #.4.4.4.2.(.E.(.(.(.(./.t 4 e e 7 4 4 6 e B G R.E.~.!.!.E.R.b e r -.7.%.&.&.@.$.+.=.' _ R.R.E.[.[.[.6.$.&.@.W &.&.#._.XX=X#X#X@X$XmXMXSXHXHXLXLXLXJXDX&XL.M.M.M.I.fXcXHXHXHXSX&X                                                                                                                                                                                                                                      Y.~.~.Y.Y.Y.Y.T.T.T.h.,                                                                                                                                                                                                                                                                       ",
"                                                                                                                                                                                                                                                                                            x.P.P.P.P.P.m.m.x.x.j.a., : & X X * x.~.oX X|.yXyX0X9X0X0X0X0X0X9X8.u R W Q Q W T f X.@.$.9X7.5 . O 5 5 5 9 6 6 6 4 4 4 6 7 e w w w w w 7 4 4 4 4 4 5 5 > Z.W.OXOXL.U.$X@X@X@X#XE.l + Z 5.X.[ 6.{.[.Q.A.Z.S.W.W.+X!.[.oX2.7 4 u $.%.@.! Q W ! O.X.$.%.4. .o.$.$.%.5.4.1.2.7.7._.}.C 4 4 r 7 4 4 4 l G R.E.~.@X@X@X#X#X#X!.F V 3.8.5.&.@.@.@.$.+...=.2.(./.'._.8.$.&.X.W ! &.&.9.|.XX[.Q.OXF.B.I.mXBXSXHXLXLXLXJXSXL.k.j.k.V.P.gXlXHXHXHXFX                                                                                                                                                                                                                                      ( ~.~.Y.Y.T.T.T.T.T.T.T.1                                                                                                                                                                                                                                                                       ",
"                                                                                                                                                                                                                                                                                            x.P.P.P.P.P.m.i.i.p.p., : & % % % : L.U.!. X}.0X0X0X0X9X0X0X0X0X0X0X9.#.} E E W T d { } 4.7.`.t . O 5 O O 8 8 5 6 4 4 4 4 7 l w w w w 6 7 4 4 4 4 4 5 @ Z.W.OXU.U.I.U.U.$X&X@X@X!.E.k r 8.X.R 8.'.{.(.R.R.Q.Q.Y.!.[.oX|.4.r 4 i $.4X4X4XQ Q W W @.$.5.o...#.$.%.4X%.%.%.%.0.5.7.8.r 4 4 7 7 4 4 t ) ` E.!.@X@X@X$X$X&XNX*X#X!.(.2.4.#.@.X.@.@.#.} #.5.9.9.`.8.X.X.X.X.O.@.@.0.9X|.{.^.A.D.l.z.M.I.MXVXHXHXLXLXLXMXk.d.a.j.n.I.fXlXHXHXHXSX                                                                                                                                                                                                                                      Y.~.~.Y.Y.Y.T.T.T.T.Y.T.Z.<                                                                                                                                                                                                                                                                     ",
"                                                                                                                                                                                                                                                                                            g.L.P.P.P.N.v.i.i.p.p., : % w r % > L.gXL.E.}.0X0X0X0X9X9X0X0X0X0X0X0X9X9.5.X.T d i L ..-.:.).C . 5 4 5 O 6 8 5 5 4 4 4 4 6 l m l e r w w 4 4 4 4 4 5 A W.L.U.U.I.I.I.dXU.$X&X@X#X.XE.6 [  .R 5.9._.(.R.R.R.R.E.(.'.}.tX8.a 4 L 5.%.4X@.! ! @.@.&.$.5.[  .4.$.%.4X@.%.%.%.%.5.8.[ 4 4 4 4 4 4 r ^ ] R.E.W.OXOX$X$X$XmXMXMXMX#X[./.4.o.X.X.@.X.X.+.%.5.5.8.,.} { T T T X.X.4X9X9X`./.A.C.f.l.l.M.L.mXCXDXJXJXJXFXc.s.s.a.j.x.U.fXSXHXKXKXHX                                                                                                                                                                                                                                    Y.~.~.~.Y.T.T.T.Y.T.T.T.Y.T.Z.A D F A z z S                                                                                                                                                                                                                                                       ",
"                                                                                                                                                                                                                                                                                              x.P.P.P.N.n.i.i.p.3 : : % a r 6 % c.U.U.W.oX9X9X0X9X9X9X9X9X0X0X0X0X0X9X0X9X+.i p p M C *.>.H + O 5 5 5 O 8 6 6 4 4 4 4 6 v S m l e r r 4 4 4 4 5 = Z.OXU.I.dXdXdXdXdXI.U.$X@X@X#X.XV r [ d %.0.9.8.3./././.2.6.9.9X9X5.y 4 L 5.4X$.&.W @.@.&.$.$.4.N -.8.$.$.@.@.&.%.$.$.$.4.t 4 4 4 4 4 4 M ^ ' E.~.W.OXOXI.I.dXdXMXBXBXNX#X(.:. .} X.X.E X.$.5.7.8...[ { [ d d T W %.8X8X9.6.*.K A C.C.l.l.OXmXNXDXDXDXAXW.< < < s.k.M.I.BXSXHXKXKXSX                                                                                                                                                                oX<X<XpXXXXX                                                      ( !.~.~.~.Y.Y.T.Y.T.T.T.W.T.T.T.T.R.R.R.J R.R.T.1                                                                                                                                                                                                                                                   ",
"                                                                                                                                                                                                                                                                                                m.P.P.N.m.i.i.p.3 : 2 k a a q 6 > L.U.L.Y.9.9.0X0X9.9X9.0.9.9.9.0X0X0X0X0X9X+.p r r t M H V w O 5 5 5 5 8 9 6 4 4 4 4 7 l B m l l e e 7 4 4 4 5 > W.U.I.gXdXkXsXdXdXI.I.$X&X#X#X.X/.r a d %.8X8X9.8.4.1.4.5.9.9.8X9X9Xy 4 L 5.5.$.X.X.&.O.&.#.8.*.M -.8.4.o.X.X.X.$.$.5.8...4 4 4 7 7 4 r N ..] E.~.W.OXL.B.I.dXfXjXVXBXCX*X(.>...{ { { f o.4.8.8.[ L L d d d d T &.8X8X8X5.-.C B K A C.C.S.+X*X*XAX:X#XR.A A < < f.c.OX&XMXSXHXKXLX                                                                                                                                                                [.XX<X>X<X<XXXoX                                                    E.!.!.~.~.~.W.T.W.T.T.T.T.T.T.T.T.Y.Y.R.R.R.R.R.T.1                                                                                                                                                                                                                                                 ",
"                                                                                                                                                                                                                                                                                                  m.P.m.m.i.i.p.3 : 2 m p p a q w 1 L.L.h.3.9X0X0X9X9.9X0.0.9.0.9.9X9X9X9.tX}.1.N r w r M l l 5 5 5 5 5 6 e 6 4 4 4 6 7 j n l l l r e 7 7 7 6 + 1 W.U.gXfXjXjXkXdXdXdXI.$X$X#X#X[. Xt 4 i %.8X8X8X5.#.#.5.0.0.8X8X8X6Xy 4 L 8.$.#.o.} o.#.o.4.6.^ M ..8.4.o.{ L { #.$.8.6.M 4 7 7 7 7 4 y | =.] E.~.W.L.I.I.dXkXfXjXVXBXVX*XQ.H P N u d [ -.6.6.L N N u u i d d +.8X8X8X4X$.} L M v b F R.Q.;X=X=X>X[.;.G S A A < h.W.@X&X&X&XFXHXSX            L.U.dX                                                                                                                                            .X>X.X.X[.[..X[.XXXX(.                                              E.!.!.~.~.~.W.W.J.J.H.T.H.T.Y.T.T.T.T.T.Y.T.R.T.T.R.T.1                                                                                                                                                                                                                                               ",
"                                                                                                                                                                                                                                                                                                    g.K.m.m.j.p.p.: 2 k p p p a q w h.J.c.F  XyX0X0X0X0X0X9X9.9.9.9.}.9.9.}.|.}.9.1.Z w 8 8 j 8 5 5 6 5 O 8 9 7 4 4 7 7 9 v l l l l l e 7 7 7 @ Z.OXI.gXjXjXjXjXkXdXdXI.$X@X@X!.[. X1.a p $.4X8X8X8X@.@.0.8X8X8X8X8X6Xp 4 Z 6.8.4.[ L } } .. .=.M r t L [ d u u d [ ..-.*.r 7 7 7 7 7 4 M | =.;.E.Y.W.OXI.I.gXfXjXjXVXVXVXNXR.V N t t N | -.=.N y Z Z u u u p [ 5.4X4X4X4X@.X.L N C ) ^.(.{..X[.oX7.4.-.*.H G G _ E.#X#X@Xh.h.L.MX&X          U.SXHXHXdX                                                                                                                                        [..X.X.X[.[.[.[.[.[.[..X[.                                        E.[.!.!.!.!.~.~.W.W.W.W.H.T.T.H.T.T.T.T.T.T.T.F ( ( ( T.T.F                                                                                                                                                                                                                                               ",
"                                                                                                                                                                                                                                                                                                      g.x.m.x.x.g.1 b p p p p p a r w 1 J.h.( 9.0X0X0X0X9X9.9.9.5.9.9.9.9.9. X X}.9.tX6.e + 8 w 6 5 6 6 6 8 e 7 4 7 7 7 7 c B l l l l c e e r j Z.OXgXfXjXcXcXjXjXgXI.I.$X@X#X!.[. X7.i y $.4X8X8X4X! @.%.8X8X8X8X9X9Xp 4 M 2.2.-.P Z N P P N Z r 6 7 r r r 7 e t M Z V B 6 7 4 4 7 4 7 N ..-.3.R.R.W.OXOX$XmXfXjXVXVXVXFX*XF v c t c C P *.N y y t t t t u i  .5.%.4X4X@.&.X.{ {  .:.).'.|.|.9.%.%.#. . ...| ;.(.[.[.!.1 * : h.L.L.        L.BXcXvXbXcXP.                                                                                                                                    (..X.X[.[.[.[.[.[.[.[.[.[.[..XXX'.                              E.[..X1X#X!.!.!.~.~.~.~.W.T.T.T.H.H.H.H.T.T.T.T.T.( ( ( F ( T.T.2                                                                                                                                                                                                                                             ",
"                                                                                                                                                                                                                                                                                                          g.g.x.g.1 / q.q.i p p q a r @ 1 H.2 ] 9.0X0X0X0X9X9.}.9.9.9.9.2.3.3.2.6.6._.yXtX*.w j w 6 6 6 8 j l e 4 4 7 7 7 c V l l l l l l l e z Z.@XMXBXjXcXcXjXfXgX&X$X@X@X#X[.'.}.}...a #.9X8X4X%.~ ! %.%.%.4X8X9X6Xa r l ) ) C Z M M Z c y 7 6 5 5 5 6 w j b F S b b l 6 6 7 4 4 4 7 N ..-.1.] R.E.W.OX$X&XgXfXBXVXCXAXQ.j l e e c C H C t e y t y y t Z N 4.5.%.%.@.@.W W } +.#.8.9.}.}.5.%.&.@.&.X.#.#.#.8._.'.(.z # * < J.&XL.      OXMXlXcXvXvXKXHX                                                                                                                                    [..X.X[.[.[.[.[.[.[.[.[.[.[.[..X.X[.(.                        E..X[.!.!.!.!.!.!.!.~.~.~.Y.T.T.H.H.T.Y.T.T.T.T.T.T.F F ( F ( ( T.D                                                                                                                                                                                                                                             ",
"                                                                                                                                                                                                                                                                                                            3 a.g.h.( / q.R R R i a r r + 2 1 m 1.yX0X0X0X0X9X9.}. X X X2.3.3.3.2.3.3.2. X|./.B j w w w w l l l 7 7 r e e l m m m l l l l l l k A OX&XBXVXHXSXjXMXmX&X@X@X#X!.[. X}.9X8.a } 9X8X4X%.@.@.%.%.%.%.9X9X7.a r m G ) V B l M r e 6 6 6 O + j J R.~.Q.~.~.~.Y.S # 6 6 7 4 4 7 N .. .-.3.^.E.E.Q.@X@X$X&XMXMX*XQ.x e e e e c V N t e e e e e y t Z *.3.4.%.$.@.W W W &.&.%.0.9.9.5.%.&.W X.&.&.@.%.5.9.9./.b X * h.&XFXDXFX&XL.c.$XfXjXlXvXvXKXHXI.                                                                                                                              R.[.>X.X[.!.!.!.!.!.!.[.[.[.[.[.[.[..X.X.X[.!.                E.[..X[.!.!.!.~.~.~.~.~.Y.~.Y.Y.H.H.H.H.T.Y.Y.T.T.T.( ( F F F F F F ( (                                                                                                                                                                                                                                             ",
"                                                                                                                                                                                                                                                                                                            g.x.x.x.J.T./ R T } } d p a 4 + > k m 1.0X0X0X0X9X9.1.3./.oX(./.(.(.(./.2.3.3.3.(.^.G b j w j l l l e e e e l B n B m l l l l l l l m T.@XMXBXBXBXMXMX&X@X#X#X!.[.'.}.9.9X9Xp L 9X9X8X5.%.$.%.%.%.5.7.}.2.r r B m m l l r w w 5 4 5 6 j J R.E.~.@X@X&X@X@X#X@XF w w 6 4 4 4 t L } X.-.3.(.R.E.!.~.@X@X@XQ.Z.j w e 9 e c V V t e 0 q e y y M Z Z ) 1.4.#.#.X.T W @.%.%.0.9.5.8.5.$.X.X.X.&.@.%.%.9.9.6.m # : W.AXSXHXHXJXSXFXMX&XdXfXfXlXcXHXSXU.                                                                                                                            [.>X>X.X[.!.!.!.!.!.!.!.[.[.!.[.[.[.[.[.[.[.[.[.[.!.E.R.R.R.E.[.[.[.!.!.!.!.~.~.~.Y.~.Y.Y.T.T.T.H.H.H.H.Y.Y.T.H.T.( F ( ( F F F F ( F F                                                                                                                                                                                                                                             ",
"                                                                                                                                                                                                                                                                                                          p.K.P.P.P.P.K.J.( / ..} } [ N r 6 + + w / 9.9X0X0X9X}.9.3.3./.2.3.;./.(.(././.;.` ` _ G m b x j x k k l l l l m n n n m l l n G _ G m b S ~.@X&XMX&X&X&X@X#X#X!.[.(. X9.9X9XyX[ t 7.yX9X5.5.$.$.8.8.8._.|.=.r l m l l w 8 w 6 O . . + m ` R.Q.+XOX$X&XmXMXmXMX&X#XJ e w 7 7 4 7 y u d L { -.;.E.E.E.E.E.J x 8 8 9 9 e l B V c e 7 0 y y y M Z Z Z ^ -.-. .{ d R X.&.%.%.5.7.5.4.o.{ { X.X.@.$.%.4X8X5.N w z !.:XAXSXHXLXLXLXJXSXI.B.B.I.fXjXBXMX                                                                                                                          .X>X>X>X>X[.!.!.!.!.!.!.!.!.!.!.!.!.!.E.E.[.[.[.[.[.[.[.[.[..X.X.X[.!.!.E.E.E.~.~.Y.Y.Y.Y.Y.Y.T.H.H.H.H.H.H.T.T.H.H.H.1 F F F F F F F F F D                                                                                                                                                                                                                                             ",
"                                                                                                                                                                                                                                                                                                          p.P.P.P.N.N.m.x.g.1 / { [ / V m b k w % w ..9.9.9.9.9.9.1.=.] =.;.] ] ;.;.' ' ' ` ` _ G k w j b b x k b m l l m n n m l b S R.[.[.(.` m b D E.!.#X#X#X!.!.!.[.[.(. X9.9.9X9XyX-.a -.}.tX9.8.4.8.6.6.6._._.) r B m l w 8 6 6 5 . . + B R.R.!.+X@X$X&XgXfXfXfXBXMX*XQ.z r r r 4 4 e c M M V H *.;././.;.B l 9 9 9 7 9 e B V B e 7 7 0 e y M Z Z M M C P | L i i d } #.$.8.8.8.8. .R R { X.#.$.%.%.%.5. .a w R.#XAXSXSXHXLXKXLXLXHXU.j.j.M.I.I.&XL.                                                                                                                        .X<X>X>X!.!.!.!.!.!.!.!.!.!.!.E.!.!.E.E.E.E.E.!.!.!.E.!.!.!.!.!.!.[.!.!.E.E.E.~.~.~.Y.Y.Y.Y.T.T.T.H.H.H.H.H.H.H.T.T.H.H.1 F F F F F F F F F D                                                                                                                                                                                                                                             ",
"                                                                                                                                                                                                                                                                                                          p.P.P.m.m.i.p.p., 2 i R R { ^ _ F F S m w r ..9.9.9X}.}.2.] ' ' ' ' ' ' ' ' ' _ ` ` ` _ G n j w x l b b l l l m m m m m b R.#X#X#X[.(._ l m ' /.(.(.[.[.[.(.(._.}.9.9.9X9XyXuX4.a C _._.`.6.-.:.).).)././.V l B l e 8 6 6 5 . . . M ^.R.R.Q.@XOX$XdXfXjXjXjXBXBXMX#XJ w r w 8 j S R.R.Q.Q.Q.Q.E.^.^.V l 7 7 7 7 7 9 x B B t r 7 7 7 e M B M M a M Z C C N u u [  .-.1.1.1.-. .L i d { } #.#.5.8.5.#.[ r V [.#X*XBXSXHXLXLXLXHXHXI.j.j.k.M.L.c.<                                                                                                                       E.>X>X!.!.!.!.!.!.!.!.!.E.E.E.E.E.E.E.E.E.E.E.E.E.E.E.E.E.E.E.!.!.!.!.!.!.E.~.~.~.Y.Y.Y.Y.Y.T.T.H.H.H.H.H.H.H.H.H.T.T.H.T.2X1 F F F F F F F F D                                                                                                                                                                                                                                             ",
"                                                                                                                                                                                                                                                                                                            x.m.x.a.p.p.3 : % a p p g d N G F F b m r l 1.}.yX}.}.6.=.) ) ) ) ' ) ' ' ' ' ' ' _ _ G G G j 8 w x B B l l m m m m m F #XAXNX*X[.[.` B l V =.3.2./././._.6.8.5.9.8X8X9XyXuX6.a B ;./.).2.-.*.>.:./.^.` V M l l w 6 6 5 5 4 . r =.^.R.E.Q.@X$XI.dXkXjXjXlXcXlXVX*XR.r r l G R.R.W.W.W.W.OXOXOX+XQ.J S j j j j 8 j v l c r r 7 r e l m l M t r M Z Z M t t u P | | =.| ^ P i i i i [  . .4.8.5.5.#.p a /.=X#X&XMXBXBXHXHXHXSXDX&Xa.a.f.f.h.< :   H.OX&XgXMXgXgXU.                                                                                                  E..X!.!.!.!.!.!.E.E.!.E.E.E.E.E.E.E.E.E.E.E.E.E.E.E.E.E.E.E.E.E.E.E.E.!.E.~.E.E.Y.Y.Y.Y.Y.Y.Y.T.H.H.H.H.H.H.H.H.H.H.T.T.H.H.H.1 1 1 F F F F F F S                                                                                                                                                                                                                                             ",
"                                                                                                                                                                                                                                                                              j.v.m.N.N.m.m.m.x.x.m.x.x.a.p.a.g., , 2 > & % a p p p a a a t l b k k r r r ^ }.}. X2.] ' ) ) ^ ) ) ) ) ) ) ) G G G G D G G v 8 8 e l M B l m m n n Z.NXDXDXAX,X[.` V m V =.1.4.8.8.5.5.5.%.%.8X8X9X9XyXyX1.M B ) ;.2.:.*.Z H U H ) H G M M M e 6 5 5 4 . w | ;.E.R.Q.W.OX$XI.dXkXhXjXcXHXHXSX*XT.m V _ E.Q.W.S.S.c.c.M.M.I.$X$X#X#X[.[.#X#XQ.Q.R.J j 9 e e e c M l M t r e M M t y e y t C C C C C Z u u u L L | =.-.6.7.7.4.{ a / oX[.#X@X$XdXfXBXBXSXFXAX$Xa.< < < 1 Z.W.OX&XMXBXSXHXHXHXSX                                                                                                  !.!.!.!.!.!.E.E.~.E.E.~.E.E.~.Y.Y.Y.Y.Y.Y.Y.Y.E.E.E.R.R.E.E.E.E.E.Y.E.E.~.E.~.Y.Y.Y.Y.Y.Y.Y.Y.T.H.H.H.H.H.H.H.H.h.H.T.Y.H.H.h.1 1 F F F 1 F F F F                                                                                                                                                                                                                                             ",
"                                                                                                                                                                                                                                                                            i.P.sXkXkXsXP.P.P.N.m.m.m.m.m.m.x.h.1 D V q.R R R R T d p p a r e w r w r w w w l B M m ^ / ) ) ^ V V ) ) G V G G G G G n D G G B 6 7 7 e c V n n n S Z.AXLXLXDX>XR._ H n _ R.3.8.8.5.%.%.%.%.%.8X9X9XyXtX}.=.Z B H ;.;.:.H M Z Z B V G H B B B e 6 6 4 4 4 N 3./.R.R.Q.W.OX$XI.dXdXjXjXjXHXHXSX*XT.G R.E.Y.W.S.c.c.c.c.M.B.B.dXMXMX*X*X#X*X*X*X*X*X*XQ.Z.v e t M t t r r r t c y e r e e t M M B Z M u t t u i N | =.3.2.6.8. .u a 1. X[.!.W.OXI.$XmXMXCXCXAXOX< > > F Y.!.@X@X&XMXBXHXHXKXKXHXSX                                                                                              R.!.!.!.E.~.E.~.E.E.~.~.~.Y.Y.Y.Y.Y.Y.Y.Y.Y.Y.Y.Y.Y.E.E.E.E.E.Y.Y.Y.Y.Y.Y.~.~.~.Y.Y.Y.Y.Y.Y.T.T.T.H.H.H.H.H.H.H.H.h.H.H.T.H.H.2X1 F F F F 1 1 F F b b                                                                                                                                                                                                                                           ",
"                                                                                                                                                                                                                                                                            m.sXhXkXkXsXsXP.N.N.n.m.n.v.i.j.g.1 2 m p q.R R R g g p q q 4 4 4 + + + + # # o o o o + w V G G V V V G G G V V V B B B n n D G G B 7 7 7 e V G G G n Z.CXLXUXGXE._ H G A.#X!./.6.8.5.0.8X%.%.0.9X9XtXtX|._.^ Z V V *.*.>.V c Z c c c V H B B B r 6 4 4 4 y -.3.(.^.R.Q.W.OXOXI.I.dXfXfXBXBXMXNX!._ R.E.R.W.S.c.c.x.x.V.m.N.sXkXjXBXCX*X*X&XMXMXCXCXAXNXNX#XF v l r e 7 7 7 t y e e e e r M B l M M c t t t t u C ^ =.=.2.6.1.L p p 8. X(.E.W.S.c.G.$X@X*X*X>XZ.> > D [.!.@X@XOXI.dXfXjXcXHXKXLXSX                    L.U.U.L.                                                                  E.E.E.E.E.E.Y.Y.E.E.~.Y.Y.Y.Y.Y.Y.Y.Y.Y.Y.Y.R.Y.Y.Y.Y.R.Y.R.R.Y.Y.Y.Y.Y.Y.Y.Y.Y.Y.Y.Y.Y.Y.Y.T.T.H.H.H.H.H.H.h.h.h.h.h.H.T.H.H.2X1 1 1 1 1 1 1 1 F F >                                                                                                                                                                                                                                           ",
"                                                                                                                                                                                                                                                                              P.kXkXkXsXsXN.N.b.v.i.i.i.e.w., : > k p g R g g p g q q 0 4 4 4 O O O o o X * * : > > % w V ) V V V V V V m n G n n n n n D G G G V e e e V G G G n F %XPXPX=X_ G G G W.DXZX[./.7.9.9.9X9X9X9X9XtXtX}.'.;.B B B B H H C Z c c c c c V H V M M t 7 4 4 r [ +.1./.^.R.Q.Q.OXOXOXI.mXdXMXMXMX&X#XE.(.^.R.R.Z.S.c.k.x.j.n.n.N.aXkXjXVXMXMX&X&XmXMXMXVXVXCXCXAX*XR.x w w 6 7 r a r r 7 r e l l e l M e y y e y t Z C C N | -.-.L p a d 5.9._.E.R.Z.h.F.OX+X#X>X>Xb % ' .X[.!.W.F.M.M.I.dXjXcXHXHXLXSX              U.fXlXcXcXcXjXm.                                                2 1 2         T.E.E.E.~.Y.Y.Y.Y.Y.Y.Y.Y.Y.Y.Y.Y.Y.Y.Y.Y.Y.R.Y.Y.Y.Y.Y.T.R.Y.Y.Y.Y.Y.Y.Y.Y.Y.Y.Y.Y.Y.Y.T.T.T.T.T.T.H.H.H.H.H.h.h.h.h.h.H.T.H.H.h.1 1 1 1 1 1 1 1 1 F 2                                                                                                                                                                                                                                           ",
"                                                                                                                                                                                                                                                                              m.sXsXsXsXsXN.b.v.i.i.w.w.w.w.3 : & w p i g g p p q q q q 4 4 4 . O O o * x.P.I.L.h.S w + k V V V V V n n n D D n n m n n V G G G G G V m V V G G G D R.=X=X_ _ G G D @XDXDX!.;._.}.tXtXtX}.}.tX}.|.'./.` V V V B C H N c c c c c c V H C Z M t 7 4 4 u  .#.4.2.^.R.Q.Q.W.OXOXOX$X$X&X&X@X#X!.(./.E.R.T.Z.h.c.x.j.j.n.n.N.N.sXjXBXVXMXI.I.I.dXMXBXBXVXSXDXDXNXQ.G V C C C Z t r w 6 e l k l M r e r e e c Z C N u u L | N t y y { 5.5.6.^.R.F Z.A.Q.E.[..X(.l =. XoX[.Y.S.l.k.V.B.gXjXHXHXHXHXjX          L.gXSXcXvXvXvXvXlX                                                T.#X#X!.~.    F Y.~.~.~.~.~.Y.Y.Y.Y.Y.Y.Y.Y.Y.Y.Y.Y.Y.Y.Y.Y.Y.T.T.T.Y.Y.Y.Y.Y.Y.Y.Y.Y.Y.Y.Y.Y.Y.Y.Y.Y.Y.T.T.H.H.H.H.H.H.H.h.h.h.h.h.1 h.H.T.H.H.H.1 1 1 1 1 1 1 1 1 F b                                                                                                                                                                                                                                           ",
"                                                                                                                                                                                                                                                                                m.sXsXsXsXN.b.v.i.e.e.w.3 3 3 : & a p p g p p q q q q q 4 4 4 O O o - dXcXlXgXL.h.b w % @ k D V m m n n n D D n n n m n B V G G G G G H G G G G _ _ _ ` ` ) ) G H G #XGX,X_ V ;. X|.}.}.}.}.|.'.'.(.^.) C V C C V H C Z c c c c c V H C Z Z t r 4 y } #.#.4.2./.R.Q.Q.W.W.W.OX@X@X@X#X!.!././.3.R.R.Z.Z.h.f.k.j.n.n.m.N.N.dXfXVXMXmXI.I.I.dXdXfXVXSXHXJXJXDXAX[./.:.1.1.1.3.=.^ m l w w l l e e r e t Z Z Z t t u C Z t a r q [ 4.#.1.) G G J R.R.(.'.oX^ =.9.9._.E.T.f.f.k.V.B.dXfXSXSXSXSX&X      J.&XBXcXvXvXvXbXKXvXlX                                              Y.#X#X#X#X#X!.~.Y.~.~.~.~.!.~.~.Y.Y.Y.Y.Y.Y.Y.Y.Y.Y.Y.Y.Y.Y.Y.T.T.Y.T.T.T.T.T.T.Y.Y.T.Y.Y.Y.T.T.T.Y.Y.Y.Y.T.H.h.H.h.h.H.H.H.h.h.h.h.h.1 h.H.T.H.H.H.1 1 1 1 1 1 1 1 F F b                                                                                                                                                                                                                                           ",
"                                                                                                                                                                                                                                                                                    P.P.P.N.N.v.v.i.i.e.w.3 3 : > a p i g g p q q q q 0 7 4 4 O o * B.KXKXHXgXM.h.b k % + % n D m m n n n n n n G G B B B V G G G G G ) ` _ _ ) ) ` ` ` ` ` ) ) ) ) R.].R.G V C 2.'. X X'._._././.^.` ) ) ) H H H H H N c c c c c H H Z Z Z t r r L #.$.%.#.4.3.E.R.R.Q.Q.!.Q.Q.Q.!.!.^.;.3.3.;.' _ F Z.l.k.k.z.c.V.M.M.B.I.mXmX&X$XI.U.I.dXdXfXVXHXHXJXJXJXDX,X(.4.#.#.#.1.2./.(./.` b l e e e e e M B c y e y t t a r 7 7 a / ......' G G _ R.(._. X/.1.9.9.8.1.' F h.f.k.c.M.U.MXBXFXFX&Xg.    J.&XBXlXcXvXvXbXbXvXjX                                              T.!.#X#X@X@X~.!.!.!.!.~.~.~.~.~.~.Y.Y.Y.Y.Y.Y.Y.Y.Y.Y.Y.Y.T.T.T.T.Y.T.T.T.T.T.T.T.T.T.T.T.Y.T.T.T.T.T.Y.Y.Y.T.h.1 1 1 h.H.H.H.h.h.h.h.h.1 1 2XH.H.H.H.1 1 1 1 1 1 1 1 1 F b                                                                                                                                                                                                                                           ",
"                                                                                                                                                                                                                                                                                      m.P.m.N.b.v.i.i.i.e.w.3 : : k p i g p p q q q 0 0 4 4 5 O # * c.BXFX&XL.h.2 > % + @ # k n m m m m n n n D G G G V V V V G G G G ) _ ` ` ` ` ;.^.^.;.;.:.>.*.*.) ` *.) H B ^ 3./././.:.;.;.;.` ` ) ) ) ) ) H H U H Z c c c v U *.Z Z u p a u } #.$.%.@.$.1.;.R.R.R.E.E.E.E.!.(.(.-. .,.4.:.=.' _ Z.Z.h.l.c.c.c.M.M.F.OX%X%X@X$XI.I.I.dXMXBXVXSXJXJXJXJXDX,X(.#.$.#.#.4.2./.(.[.[.].G j 9 7 e l V l r e e e a r r r t | 1.8.9.}.oX.X.X[.[.!.[.(._.3.8.7.4.+.+.] _ Z.f.f.S.OX@X&XMXNX&Xc.< h.W.U.I.gXfXHXvXvXvXcXlX                                                Y.~.#X#X@X@X~.~.~.~.~.~.!.!.!.!.~.~.Y.Y.Y.Y.Y.Y.Y.T.T.T.T.T.T.T.T.T.T.T.T.T.T.T.T.T.T.T.T.T.T.T.T.T.T.T.T.T.1 1 1 1 1 h.h.H.h.h.1 h.h.h.1 1 2XH.H.H.H.1 1 1 1 1 1 1 1 1 1 b                                                                                                                                                                                                                                           ",
"                                                                                                                                                                                                                                                                                            x.m.m.n.i.i.i.p., , 2 b p p p p p p p p u p y 7 6 + + > > > > > > % @ + + + + # @ l n n m n m n n V V G G G G V G G G H _ ` ` ` ^.^.^.^.^.^.^.;.;.:.*.*.*.*.*.) ) C C *.;.:.>.*.*.*.*.) *.>.*.) ) ) ) H *.*.C Z Z Z Z >.>.C Z i p p | #.$.%.%.@.&.%.4.3.^.R.^.E.E.(.(._.2.#.#.#.4.4.-.=.` _ Z.Z.Z.Z.S.S.S.W.W.Q.!.!.#X@X$X&X&XmXMXCXCXDXDXJXJXDXDX,X2.#.$.#.4.2.2.(.E.!.!.!.[.R.z w x n l e e r r r r 7 r ..8.8.5.9.}. X.X.X[.=X:X:X:X:X#X[.).4.+.+.1.] _ J F Z.Y.+X#X*X*XOXJ.J.W.W.c.M.B.B.dXjXcXcXcXjX                                                  ~.#X#X#X@X@X@X~.~.~.~.~.~.!.!.!.~.~.~.Y.Y.Y.Y.T.T.Y.T.T.T.T.T.T.T.T.T.T.T.T.T.T.F T.T.T.T.T.T.T.T.T.T.H.T.h.1 1 1 1 1 h.J.L.L.c.h.h.h.h.1 1 H.H.H.H.1 1 1 1 1 1 1 1 1 1 1 2                                                                                                                                                                                                                                           ",
"                                                                                                                                                                                                                                                                                                x.x.x.x.x.x.x.g.1 ( / q.R R R R R { [ L N t r w w @ # # # # # @ @ @ + + + + . + n n m n m n n V V G G G G G G G ) ) ` ` ` R.^.^.^.^./.(.(./.^.;.:.>.>.*.*.*.*.) ) C *.>.>.>.*.*.U *.:.:.*.*.*.) ) ) *.*.*.P C Z P >.*.C Z N Z Z 4.8.%.%.%.%.%.%.%.4.2././.(.(._._.8.4.#.#.$.#.#.+.1.=.' ` R.Z.Z.T.W.Q.E.(.(.[.[.!.#X%X*X*X*X*X*XNXAXAXAXAXAX,X{.1.#.#.#.4.1.;.R.R.Y.~.!.!.#X!.F S n k l e w r r 7 r -.8.8.5.0.0.8.(.[.!.!.#X#X*X*X*X*X*X[./. . . .=.) ` R.R.!.[.=X#XW.W.~.W.W.c.c.k.j.V.I.fXjXjXfX                                                  !.#X@X@X@X~.~.~.~.~.Y.W.Y.Y.Y.~.~.~.~.Y.Y.Y.Y.T.T.T.T.T.T.T.T.T.T.T.( T.T.T.T.F F F T.Z.T.T.T.T.T.T.T.H.1 1 1 1 1 1 2 1 W.jXlXjXm.g.h.1 1 1 1 H.T.H.2X1 1 1 1 1 1 1 1 1 1 2 2                                                                                                                                                                                                                                           ",
"                                                                                                                                                                                                                                                                                                        g.g.g.g.1 F / q.R R R T { [ [ [ N t r 6 + O . o o o o O # % w + + O . . k n n n n n n n n n V G G G G _ G ) ` ` ` ;.^.^.^.^./.(./.)././.;.>.>.>.>.>.*.*.H C C *.>.>.>.*.*.*.>.^.:.*.*.*.) ' *.>.>.*.P P *.>.*.C Z Z Z | 8.5.%.4X4X%.4X4X%.%.5.8.4.6.6.}.9.5.$.$.@.@.X.@.#.#.+.1.;.` R.R.E.E.^./.9.9.}.oX.X[.=X=X=X#X#X#X!.#X=X=X[.[./.4.o.X.#.#.1.=.` R.T.T.W.W.@X#X#X#XT.z j l l w w r r N 1.8.4.%.%.5.2.E.E.W.OX@X@X&X&XMXNXFXAX*X(.=... .-.1.2._.'..X[.R.Y.E.E.~.Z.f.a.a.j.x.B.dXgXI.                                                  F !.#X@X@X@X~.~.~.~.~.~.Y.Y.Y.Y.Y.Y.~.~.~.Y.Y.Y.T.T.T.T.( ( T.( T.T.( 2XH.1 T.1 1 1 1 1 h.h.H.J.J.H.h.1 1 1 1 1 1 2 2 1 ~.FXcXcXcXP.x.h.1 1 1 h.H.H.H.1 1 1 1 1 1 1 1 1 1 1 2 b                                                                                                                                                                                                                                           ",
"                                                                                                                                                                                                                                                                                                                                  m m p p a q 6 O . . . o $ o # w w + + O O . O # m n m m n m m n n V G G G G G ) ) ` *.;.;.;.^.^.^././.)././././.>.>.>.>.>.>.*.*.*.| *.>.>.>.*.U U >.:.:.=.>.>.*.=.=.=.=.>.*.*.>.>.*.C N N N -.7.9.5.4X4X4X4X4X4X%.%.%.%.5.5.5.$.#.$.&.&.@.X.X.@.@.#.#.1.=./.(.(./.6.9X9X9X}.|.|.oX(.E.R.A.J S z _ ^./.2.6.4.#.#.#.$.4.1.' R.T.Z.h.c.S.W.OX@X#X#XZ.j l l w w r M =.4.4.$.%.&.1.;.R.T.S.S.L.L.I.I.MXMXVXSXDXAX!.;.1.#.5.9.}. X/.] 3.3.E.Y.T.h.< a.a.a.x.M.I.U.L.                                                  ( ~.@X@X@X@X@X~.~.~.~.W.W.Y.Y.T.T.Y.Y.~.Y.Y.Y.Y.T.( ( ( ( F ( T.H.Z.T.( 1 1 1 1 1 1 1 1 1 H.&XBXMXL.h.1 1 1 1 1 1 2 2 H.FXcXcXcXcXsXx.g.1 2 2 h.H.H.h.1 1 1 1 1 1 1 1 1 1 2 2 2                                                                                                                                                                                                                                           ",
"                                                                                                                                                                                                                                                                                                                                      m q.q.a q + . O o $ # j w 8 + O O 5 5 5 5 O % n n m n n m m V V G H H G ) ) ) *.*.*.;.;.^.^./././.).).).).:.:.:.>.>.>.>.*.*.*.*.*.>.-.-.*.*.>.)./.:.:.>.>.-.=.=.=.=.=.=.=.=.=.*.^ C N N 3._.9.9.8X4X4X%.4X4X4X%.$.%.6X6X$.{ $.&.X.@.@.W X.&.&.@.#.o.#.2.6.6.7.9.9X9X9X9X}.2.V l j j j j l x G ^.3.6.8.4.#.#.$.$.4.;.` R.Z.h.c.c.c.c.M.OX@X&X@XA j w w w l ^ -.4.#.$.%.#.1.` T.Z.c.c.M.M.B.dXgXBXVXSXSXDXAX[.2.4.5.8.6.=.=.1.1.1.) _ F 1 , , a.a.g.L.$XL.                                                1 h.H.W.&X&X@X@X@X~.~.~.~.W.W.W.T.T.T.T.T.T.T.Y.T.T.H.1 1 F 1 1 1 H.T.T.H.1 1 1 1 1 1 1 1 1 H.&XSXHXHXgXc.1 1 1 2 2 1 1 H.&XSXcXvXvXcXkXx., 1 2 1 L.U.L.H.h.1 1 1 1 1 1 1 1 2 2 2 2                                                                                                                                                                                                                                           ",
"                                                                                                                                                                                                                                                                                                                                        k a a r 6 . $ X > D l 6 + O . . 4 6 5 6 6 + k G n m m m m n V V G H ) ) ) *.>.:.;.;.;.^.^.)./.).).).).).6.6.6.:.:.>.-.-.>.>.*.*.>.>.:.:.:.).).).).).:.:.>.-.=.=.=.=.=.:.=.=.*.| | C ^ 2.}.}.9X9X4X%.%.4X4X%.%.%.4X6X5.[ { $.&.O.@.! ! ! @.@.&.@.@.$.4.8.`.tX9X9X9X}.`.=.B l l j j x x b l B *.3.8.8.5.$.#.$.%.4.;.R.Z.Z.h.c.l.k.z.M.M.$X$X&X@X@X1 > k V *.3.4.#.%.$.#.=.' T.Z.c.c.c.V.B.I.dXfXVXHXHXHXDXAX[./.2.^ V =.1.1.+. .^ V G A < < s.g.c.L.@XW.H.W.~.Y.T.T.                        c.L.OX$XL.L.&XU.U.&XMXFX&X@X@X~.~.~.~.W.W.W.W.T.T.H.T.T.T.T.T.H.1 1 1 1 1 1 1 h.h.h.h.h.1 1 1 1 1 1 1 H.&XHXHXvXvXfXc.1 1 1 2 2 1 h.W.&XlXcXvXvXcXkXx., , 1 L.fXlXgXJ.h.1 1 1 1 1 2 2 2 2 > > >                                                                                                                                                                                                                                           ",
"                                                                                                                                                                                                                                                                                                                                          # + O . $ # _ ` B 6 + + . . 4 4 5 6 6 6 6 w n V m m m m V G G H H ) ) *.*.>.:.;.;.^.^.).).).).).).).).6.6.6.6.:.:.>.-.-.>.>.>.>.>.:.:.2./././.).).).:.:.:.:.=.=.=.=.>.=.=.=.*.| C ^ /.|.}.tX9X9X5.5.6X4X%.4X9X9X9X .N  .#.$.O.! @.! ! @.@.! @.$.%.8.7.}.|.}.}.`._./.) H B x j j x v v l l ) -.6.8.9X%.$.$.#.#.2.R.Z.Z.c.k.k.k.z.V.M.B.$X&X*XDXW.> n G ;.3.4.4.%.$.#.1.] R.Z.S.c.c.M.B.B.dXfXjXHXHXHXHXDX*XR.b k ' =.1. .} [ | ^ V b 2 < < h.h.W.W.~.Y.Y.Y.Y.Y.Y.T.1 2         H.W.OX$XU.I.MXfXBXSXSXSXSXSXSXSXSXMX@X@X~.~.~.~.W.W.W.W.Y.T.H.H.T.T.T.H.h.1 1 1 1 1 1 H.J.$XU.L.h.1 1 1 1 1 1 H.&XSXHXKXbXcXjXx.1 1 1 1 1 H.@XMXBXlXcXvXvXcXkXx., 2 J.U.gXlXjXP.g.h.1 2 1 1 : : : > > > &                                                                                                                                                                                                                                           ",
"                                                                                                                                                                                                                                                                                                                                      e a r . $ o b (.'.=.t 6 6 + O . O O O 6 6 w w w k V n n n V V G G G H ) *.*.*.>.:.;.;.^.^.).).).).).).).`.).6.6.6.6.<.:.:.:.-.>.>.-.-.:.:./././.).).).).2.2.:.:.:.-.>.>.>.:.-.-.-.| C C /.|.}.}.}.9.9.5.9X6X6X9X9X9X6.C P  .o.$.X.O.4X@.@.@.@.@.$.%.8.7._._.'.'.'. X'.{.^.*.H B c x x B n m m ) =.:.8.9X5.$.$.%.8.2.^.R.Z.S.c.c.z.n.V.B.B.I.$X&X*XF k D J ` /.6.4.#.#.+.1.;.R.T.Z.c.c.M.M.B.dXfXBXHXHXLXLXJXNXF b _ ] =.| [ R [ L N M l k z 2 1 F Z.Z.T.T.T.T.T.Z.F F ( ( T.T.W.OX@X$X$XI.I.gXgXjXlXcXcXcXvXvXvXHXHXBXOXW.~.W.W.W.W.W.W.W.Y.T.T.H.H.T.H.h.1 1 1 1 1 h.L.FXSXHXcXgXc.h.1 1 1 1 H.@XSXHXvXvXbXcXjXx.2 2 1 h.J.&XSXHXvXvXvXcXcXcXkXj., J.fXlXlXlXjXU.g.g.1 2 2 : : : : : : : &                                                                                                                                                                                                                                           ",
"                                                                                                                                                                                                                                                                                                                                % a p y 7 . . @ ' XX|._.=.M e w 5 5 + + + + + % k k w % n _ n n V V V G G H H ) *.*.;.;.;.;.:.).).).).).)._.`.`._.7.6.6.6.<.<.<.,.:.>.:.,.:.:.<.6.6.).6.).6.).).6.6.2.:.:.:.:.:.:.:.:.-...P V /. X|.|.}.9.8.8.5.9.9X9XtX`.C B C -.,.#.o.O.@.@.&.X.&.$.%.5.6._.)._._.'. X|. X'.(./.^.*.H B c B B B n G ) =.:.7.5.5.5.4.8.6.(.E.Y.S.c.c.V.V.B.B.B.I.$X&XOX> b G G ` /.:.-. .} } +.3.R.E.T.S.S.M.B.I.mXMXSXJXHXHXLXDXNXZ.S _ ' ^ / N i p y a a r M V ( ( T.T.Y.Y.~.T.Z.F F D ' 3.E.E.~.W.L.L.L.I.I.I.dXfXjXcXvXvXvXvXbXbXKXLXSXU.J.W.W.W.W.T.W.T.W.T.H.H.h.h.h.1 1 1 1 2 1 J.MXSXcXHXKXHXjXx.h.1 1 1 H.OXFXcXvXvXvXcXjXP.g.g.J.&XMXMXSXcXvXvXvXvXcXcXcXkXx.J.SXKXvXcXlXjXU.x.g.2 2 : : : : : : : :                                                                                                                                                                                                                                             ",
"                                                                                                                                                                                                                                                                                                                        3 : : > a a q 4 . . r 1.}.|. X2.| M r r w 6 6 6 8 + > z b k w % k G G V V V V G G G H ) ) *.;.;.^.:./.).).).)._._.`.`.`.`.`.`.`.`.6.<.<.<.<.:.,.,.<.<.<.6.6.6.6.6.6.).6.2.2.2.:.:.:.:.:.:.:.:.-.| C C ;._.oX X_.6.6.6.8.7.`.`.`.*.Z M V -.6.4.#.o.$.$.X.X.#.%.5.8._._._.'.'. X X X XXXXX{.{.(./.*.H V G G G G ' ' =.2.8.8.8.8.8.6._.[.!.W.S.c.M.M.B.B.N.dXmX&X+XS S S S n H ) C | |  .+.2.2.(.R.Q.W.W.OX$X&XMXFXDXJXJXJXDX*XF b m l M a a a q r t [  .1.7._.[.[.#X#X#X#X#X#XW.R.(.2.2./.E.~.W.c.c.c.c.m.B.I.gXjXcXvXvXvXvXbXbXbXHXSXU.J.W.W.Y.W.T.W.T.T.T.H.H.h.h.1 1 1 1 2 1 OXFXHXHXKXKXbXHXfXg.1 1 1 h.W.&XSXcXvXcXcXjXI.L.U.MXHXHXcXHXcXcXvXvXvXvXcXcXlXkXI.SXbXbXvXcXjXfXU.x.g., : : : : : : : : X           P.x.                                                                                                                                                                                                                              ",
"                                                                                                                                                                                                                                                                                                              p.x.m.x.x.g., : % a 7 4 . O N 9.9X9.7.6.1.| Z r r r 6 6 8 8 > z b b b k w % l G V V G G G G H H ) ) *.*.:.;.:./.).).).)._.`.`.`.`.`.`.`.`.`.`.`.6.<.<.<.,.:.<.<.:.<.<.<.<.6.6.).6.6.2.2.6.2.:.:.:.:.:.:.-...P C ) /.(.(./.2.2.6.1.6.6.6.:.C Z M Z =.6.8.4.4.4.o.o.} 4.8.7._.'.|. X X X|.|.|.XXXXXXXXXX'.{.(./.^.^.^.^.;.' ` ;.:.2.2././.(.(.[.[.!.!.W.OXB.B.B.N.sXgXMXMXOXF D S n m m V V | =.-.2.2.2./.^.R.R.Q.+X#X&X*XNXDXDXDXDXAX!._ ) ^ N M r w r u | 4.5.5.0.9.'.[.!.#X@X@X&X&XNX*X*X=X[.(.(.E.Y.T.h.g.a.k.x.V.B.dXfXcXvXvXvXvXbXvXvXHXSXU.J.J.H.T.Y.Y.Y.T.T.T.T.h.h.1 1 1 2 2 1 @XSXHXKXKXbXbXbXcXP.a.2 1 h.L.&XFXlXcXcXlXjXdXI.SXlXHXvXvXvXcXcXcXcXcXvXcXcXjXjXjXcXvXbXbXvXcXkXdXU.x.g., : : : : : g.K.x., g.K.I.jXlXlXjXN.                                                                                                                                                                                                                            ",
"                                                                                                                                                                                                                                                                                                            x.N.P.P.P.x.g.a.: # . . . 4 R 4X8X8X%.#.4. .| Z a r r 6 8 w j z b b b b k w w w G G G V V H H H H ) ) ) *.:.>.:.).).).)._.`.`.wXwX`.`.wXwX`.`.`.`.).).6.<.6.6.<.<.<.<.:.,.6.6.6.6.6.).).6.6.6.6.<.:.:.6.:.-.-.*.C C ) ;.;.;.;.=.:.-.6.6.:.| C Z c M C *.:.8.4.,.-.| -.6.6.).'.|.|.|.|.|.|.|.XXXXXXXXXXXXXX'.'.'./.(.(.(.(.(./.;.:.:.;./.[.#X*X,X>X[.!.~.~.OX$XdXdXfXBXBXCX+XF D D n z n G G ) ) *.*.C B l n S D J R.Y.!.#X*X*X:X:X:X.X_.8.6.7.9._._.] ' ;.8.5.%.%.5.8.(.E.Q.W.OX$X&XMXMXBXFXFX:X#XE.R.( T.1 < a.a.j.j.B.dXfXHXcXcXvXvXcXcXcXcXSXU.J.H.H.H.H.T.T.H.H.H.T.H.h.1 1 1 2 1 @XSXcXHXKXvXvXvXvXjXx., h.$XFXHXHXcXlXlXjXgXI.gXlXcXvXvXvXvXvXcXjXhXjXcXcXcXhXjXjXjXcXvXvXcXjXsXP.P.U.x., : : : : , K.U.P.U.U.gXlXcXvXvXvXzXsX                                                                                                                                                                                                                            ",
"                                                                                                                                                                                                                                                                                                            n.P.P.P.N.x.a.: X X $ . 7 E 8X8X4X%.@.@.} [ N N M M l e j b n z b b b b k k k w l _ G V V C C H H ) ) ) *.:.>.:.).).).)._.`.`.wXwXwX`.wX`.wX`.`.`.`.`.`.6.).6.<.,.<.<.,.<.<.6.6.).6.).).).).6.6.<.,.:.6.<.,.-.-.*.H H ) ) *.*.*.=.:.2.:.-.| P C M c M Z C *.>.*.P C C =.:._.|.|.XX|.|.XXXXXXXXXXXXXXXXXX|. X'._._.(.(.(.(.(./.:.=.*.` ` E.*XAXDXAX=XE.E.~.@X$XmXBXBXSXVXCXOXF G G S S D G D V B l e 6 8 l b x x w 8 w w j S R.[.[.'.`.5.8.7.9.9. XoX.X.X[._.8.%.&.4.3.R.Z.h.c.c.B.I.gXfXBXSXSXSXAX#X] ( ( 1 f.a.d.k.V.B.gXBXSXlXcXcXcXlXjXlXlXjXL.h.H.H.H.H.H.H.H.H.H.H.h.1 1 1 1 h.@XjXlXlXcXvXbXbXvXHXdXc.U.SXHXbXKXbXvXcXkXU.U.U.lXcXvXvXvXvXvXvXcXkXsXsXjXhXjXkXfXgXjXlXcXlXfXP.P.K.L.P.x., , : : 2 K.L.U.I.jXlXcXvXvXvXvXvXcXP.p.  U.U.gXjXjXsX                                                                                                                                                                                                            ",
"                                                                                                                                                                                                                                                                                                              m.P.P.m.g.: X X X $ a ~ qXqX8X4X@.@.X.X.{ L | C Z C H G D > > b b b k k k k w w V ) V V C C C H ) ) *.*.:.:.).).).).)._.`.`.wXwXwXwXwXwX`.`.`.`.`.`.`.`.`.6.<.6.<.<.<.<.<.<.6.6.6.6.`.`.6.6.6.6.6.4.,.,.:.-.-.>.*.H C C *.| *.=.>.:.-.-...P C c l c M M M Z M c M V ) /.'.|.|.XXXXXXXXXXXXXXXXXXXX|.'._._._._._.(.(.(.(.(.;.*.*.*.` ` R.!.AXJXAX!.R.E.E.~.@XmXBXVXSXDXNXQ.D n m B D D D n m l e 9 9 l z j k j 8 6 5 + w m ` /./.6.8.8.5.8.9._.(.[.[.>X>X>X[./.1.3.] D Z.f.k.x.M.B.dXfXjXHXHXHXHXNXE._ ( Z.h.g.k.c.M.I.fXBXSXjXSXjXfXdXgXfXjXfXL.H.h.h.H.H.H.H.H.H.h.h.h.1 1 2 h.@XgXjXlXlXlXcXcXcXcXcXfXMXcXcXvXbXbXbXvXkXN.c.@XlXcXcXvXvXvXvXvXcXjXN.N.N.sXkXkXkXgXgXgXgXgXU.P.K.x.x.K.P.j.p., , 1 H.K.L.gXlXlXcXcXvXvXvXvXcXcXkXU.gXlXcXcXvXcXhXm.                                                                                                                                                                                                          ",
"                                                                                                                                                                                                                                                                                                                g.g.g.: : X X $ a ~ 3X3X3X3X! ! ! X.X.} [ [ M ) /./._ b z b b b z k k k k k w l ) ) V C C C C ) ) >.:.;.^.).).).)._._.`.wXwXwXwXwX`.wX`.`.`.`.`.`.`.`.`.7.6.7.7.<.<.<.<.<.6.6.6.6.6.6.6.6.8.6.6.6.4.4.4.,.:.-.>.*.P C P P *.>.:.-.-. ...| C B c l l M Z c r l c V >._.|.|.|.XXXXXXXXXXXXXX|.'._.).:.=.=.=.=.;.2.2.2.2.3.=.*.` H ) ` R.R.#XDXAXE.E.R.R.E.!.*XCXVXCXCX*XT.n l e l m n n m m l e e e x k x b w 6 + 6 w B H ;./.6.8.4.5.8.1.3.E.E.!.#X#X*X:X:X>X[./._ F f.f.f.k.m.B.dXfXSXHXHXLXHXDX#XR.R.T.h.h.c.L.U.U.gXMXMXMXI.m.m.V.M.I.gXgXJ.H.h.h.h.h.h.h.h.h.h.h.1 1 2 1 W.&XgXgXdXgXgXjXcXcXHXlXlXlXvXvXvXbXbXvXcXN.j.J.fXlXcXcXvXvXvXvXvXcXkXn.n.m.P.dXkXsXI.dXI.L.x.x.x.x.a.g.L.U.U.I.I.L.K.K.L.gXjXlXjXjXcXcXcXcXcXcXlXlXlXcXcXvXvXcXcXkX                                                                                                                                                                                                            ",
"                                                                                                                                                                                                                                                                                                                    : : & X # M &.&.&.! ! 3X! ! ! @.X.X.} ..-._. X*.m z z b b b k k z z k k k w V ' ) C C C C H ) *.>.>.:./.).).)._._._.`.`.`.wXwXwXwX`.`.`.`.`.`.`.`.`.`.7.`.7.7.<.<.<.<.<.6.6.6.6.6.6.6.8.8.4.4.4.,.,.4.,.:.-.-.>.>.*.-.:.6.6.,.-.-. ...| Z c c c c c l l c V :.).`.|.|.|.XXXXXXXXXXXX|.|._./.>.*.C ) ) ;.3.2.2.3.3.=.*.) ) V G ) ) ] (.[.#XR.' ` R.R.R.Q.*X*X*X*XY.F m l l l l m l l m l e e l S n m l w 6 6 l m G ` 3.2.6.4.#.4.1.3.] R.T.W.OXOX&X*X*X:X>X[._ F < < f.k.M.B.dXfXSXHXHXKXLXJX*XE.R.Y.~.W.OX@X&X&X@X@X@XU.m.j.j.j.x.I.gXU.c.h.h.h.h.h.h.1 1 1 1 1 1 1 2 H.L.U.U.m.m.B.U.gXjXjXlXlXlXcXcXvXvXbXvXvXhXi.g.MXlXlXjXcXcXcXvXcXcXjXN.j.j.n.N.P.U.P.P.U.m.j., g.g.g.x.U.jXlXlXcXjXfXU.L.I.kXkXkXkXkXhXlXcXzXlXhXjXlXlXcXcXcXcXcXjXI.                                                                                                                                                                                                            ",
"                                                                                                                                                                                                                                                                                                                          & m +.0.&.&.~ ~ ! ! ! ! ! W X.@.#.7.}.=.k b b b b z b b b b l k k k w l ) ) ) ^ C C ) ) *.>.:.:.:.).).)._._._._._.`.wXwXwXwXwX`.`.`.`.`.`.`.`.`.`.`.`.7.7.8.6.<.<.6.<.,.,.-.:.:.<.4.4.4.4.,.<.4.4.,.-.-.,.-.:.<.6.6.<.,.,. . . ...P Z B c c c M V *.:.)._.|.|.XX|.XXXXXXXXXXXXXX'.).>.*.H ) ;./.'.'._.6.6.2.-.*.C V V V C ^ *.;./.(.] ' ' ` _ G D T.Q.Q.T.F S G ) ;.=.] ] ) V B l l l n D n n x w 6 l v n G ) ;.1.4.#.#.+.1.] _ Z.Z.S.M.OX$X&XNXNX:X:X!.R.Z.C.f.c.M.I.gXBXSXHXLXLXHXDX,XE.E.E.~.~.@X@XW.W.h.W.OXL.x.a.a.a.x.L.I.L.h.h.h.h.h.h.1 1 1 1 2 2 2 1 h.W.U.I.U.MXBXSXHXcXcXcXlXlXlXlXcXcXvXvXvXcXN.x.&XfXjXkXkXkXjXjXcXjXjXkXn.j.a.x.m.P.U.L.L.L.x., : 1 c.U.jXlXcXcXcXcXcXjXgXI.P.P.N.N.P.P.sXjXjXhXhXhXhXlXlXcXcXcXcXhXsX                                                                                                                                                                                                              ",
"                                                                                                                                                                                                                                                                                                                          ( ;.5.%.+.&.&.&.! ! ! ! ! &.%.8X9X9X=.w k b b b b b z z b b k k w w l m V ) ) ) ) ) ) ) ) :.:.:.:.2.).).)._._._._._.`.`.wXwXwXwXwX`.wXwXwXwXwX7.`.`.`.`.7.7.8.7.<.<.,.,.*.P N C P *.-.:.,.<.<.4.4.-.-.-.,.,.4.8.8.6.,.4.o.o.}  ...| | C Z c Z H >.).)._.`.|.}.XXXXXXXXXXXXXXXX|.'./.>.) ) ;./.'.`.`.7.9.5.8.8.4.| C C ^ | | =.:.3.3.3.] ' ) G G D F F F F F G ` 3.2.3.3.3.3.3.=.^ V n n S S S k w w b b m n G =.-.+.+.#.+.3.' ( Z.c.c.c.M.I.$XMXMXAXAX=XE.R.Y.T.W.OX&XMXBXSXHXHXLXLXDX>X(.(.E.!.~.Y.T.h.1 T.W.L.c.x.a., , c.L.U.c.1 h.h.h.h.1 1 1 2 2 2 1 h.J.$XMXBXSXSXcXcXvXbXvXbXbXKXHXjXfXjXcXcXcXcXhXj.L.fXgXdXP.N.P.dXfXjXjXfXP.j.a.a.x.M.L.L.M.K.x.a.* : J.gXjXlXcXcXvXvXcXzXjXdXP.N.b.v.j.n.m.P.dXhXhXhXkXsXkXhXhXhXhXhXkXP.                                                                                                                                                                                                              ",
"                                                                                                                                                                                                                                                                                                                        H.E.(.3.3.+. .} X.! ~ ! ! 3X4X8X9X9X| k k b b b b b b z b b k k % w l m B V ;.` ) ) ) ) ) ) =.:.:.:.2.6.)._._._._._.`.`.`.wXwXwXwXwXwXwXwXwXwXwX`.`.`.wX`.`.7.8.7.<.,.,...Z c c c c c Z P -.-.:.<.:.-.-.-.-.-.o.4.4.,.,. .o.X.}  .....*.*.*.*.*.:.).)._.`.`.|.}.|.XXXXXXXXXXXXXX|.`.2.*.) ` /._.}.9.9.0.9.9X9.9.9.5.1.=.1.4.8.8.5.7.7.2.2.3.` G D S S F F F F _ ' 3.3.3.2.2.3.3.2.3.] D D T.T.F b k b b b n S V G =... .+.1.=.' R.Z.c.M.M.B.I.dXMXVXDXDXAX=X(.E.E.~.+X&X*XMXSXSXJXJXDX,X[.'.(.E.Y.T.T.h.1 1 Y.~.W.h.f.s.< < c.OXOXh.1 1 1 h.1 1 2 2 2 1 T.OX&X&XMXMXBXSXcXcXvXvXbXbXbXbXKXHXkXP.gXlXSXcXjXN.c.&XgXdXN.m.m.N.B.dXfXfXgXm.a.a.a.g.c.L.L.c.h.g., , L.gXjXlXcXcXcXcXcXcXjXfXU.P.b.i.i.i.j.m.P.dXgXsXsXP.N.P.sXkXhXhXkXP.                                                                                                                                                                                                                ",
"                                                                                                                                                                                                                                                                                                                      h.~.E.E.( ( / / q.R &.&.4X3XqX8X8X9X| w > b b b b b b b z b b k w % l B B Z V ;.;.*.' ) *.*.] =.:.:.:.2.6.)._._._._._._.`.`.`.`.`.wX`.wXwXwXwXwXwXwXwXwXwX`.`.7.7.8.6.,.>.N c c 9 9 e e e c M Z C P | .... . .} } } o.o.o.} } }  .-.<.:.>.;.^./.).).).)._.`.}.}.}.}.|.|.|.XXXXXXXX|.`.:.) ) ;.).6.7.9.0.8X9X8X8X9.9.9.9.7.8.8.5.5.9.9.}.|. XoX.X[.R.D S S S S D _ ;.3.2.2.1.2.2.2./.(.(.E.R.Q.@XW.2 m b b m n n n m C ^ |  . .=.' R.W.S.M.M.B.I.gXMXVXDXDXDX,XoX/.(.E.!.!.#X#X*X:XAX:X=X=X>X#XY.( ( ( 2X1 1 ( E.E.T.F 1 < 2 1 S.W.c.1 1 h.h.h.1 1 2 1 H.@X@X&X&XU.gXI.fXjXlXcXvXvXbXbXbXbXKXcXN.m.I.fXlXSXfXc.@XMXdXN.m.n.n.n.V.I.&X&XU.x.g., 1 h.W.W.W.h.1 2 h.U.gXjXjXhXjXcXcXcXcXjXfXI.L.x.i.p.a.a.a.x.L.U.I.P.b.v.v.m.P.dXkXkXI.                                                                                                                                                                                                                  ",
"                                                                                                                                                                                                                                                                                                                    x.W.~.Y.T.F F S V / [ &.0.8X8X8X8X8X..l > 2 2 b b b b b b b b b k % w B B B B ) ' ;.;.) ) *.=.=.=.=.:.2.2.).).)._._._._.`._.`.`.wXwXwXwXwXwXwXwXwXwXwXwXwXwXwXwX7.7.8.6.,.U c e 9 9 9 7 7 9 9 9 e r c c Z .. .o.o.O.X.} } X.o.,.<.6./.{.].].^.^.^.^.^./.(.)._.|.|.XX|.|.|.|.XXXXXX|.|._.:.) ) ;.6.8.5.5.%.8X8X9X8X9X9X9X9X9X9.9.9.9X9.9.}.oX.X.X.X.X.XE.F b z S _ ' ;.1.1.4.1.4.2.2./.(.(.[.[.!.*XW.z j l x k z b n n G ) =.-.-.-.;.R.Y.W.M.M.I.dXMXBXSXJXJXDXAXE.) V G ( ( Y.E.!.!.!.#X*XAXSX&XZ.F F 1 1 F D _ ] ' D b > > > b F h.h.1 T.T.J.W.h.1 h.Y.!.@X@X$XL.M.M.M.I.fXjXcXvXvXvXvXvXvXcXN.j.x.L.U.gXMXL.W.@XU.P.m.j.j.j.j.V.L.&X&XW.h.2 2 F ( Y.~.h.2 2 T.U.gXkXkXkXhXhXzXzXzXjXfXMXOXJ.g.a.a.a.a.a.c.L.U.P.m.i.i.p.j.m.P.dXI.                                                                                                                                                                                                                    ",
"                                                                                                                                                                                                                                                                                                                  x.L.L.c.h.g.h.1 F ( ' ..%.0.8X8X8X4X{ m b 2 2 2 2 b b b b b b b b k % k m M M B ) ) ;.;.) *.*.=.=.=.-.:.2.2.6.)._._._._._._.`.`.`.tXwXwXtXwXwXwXwXwXwXwXwXwXwXwXwX6X7.8.<.,.P c e 9 7 7 7 7 9 7 9 6 9 e c P [ } X.X.@.X.X.O.o.4.6.).^.^.R.R.R.Q.A.A.A.Q.R.].].{.'.|.|.|.|.|.|.|.XX|.|.|.`.).=.) =.8.5.5.%.%.8X8X8X9X9X9X9X}.}.}.9.9.9.9.}.oX.X[.=X#X#X>X>X!.F S D ` ;.3.1.1.1.4.2.3.3.(.(.E.!.!.!.!.Y.z w w w k k m m n G ' ] =.-.3.2.^.E.W.OXOXI.gXBXVXJXJXJXJXDXC.@ w w l S F T.T.~.@XFXSXSXMXJ.1 1 2 2 2 2 b V V m k % k k b D ( H.h.h.1 h.h.h.h.T.!.!.~.~.J.c.x.j.k.z.M.I.MXSXcXcXcXvXcXjXm.j.a.g.c.OX$XOXH.~.~.J.x.j.j.j.j.j.c.OX$X@XT.F b D ( ' E.Y.2 2 T.@XgXdXsXsXsXkXkXhXjXjXjXMX#XY.1 1 , , , , g.c.L.U.m.p.p.p.p.x.m.U.P.m.                                                                                                                                                                                                                    ",
"                                                                                                                                                                                                                                                                                                                j.P.I.m.x.x.g.g.1 h.( ' +.0.0.8X8X%.R n 1 1 1 2 2 2 2 b b b b b b k w % l B M Z Z C ) ) *.=.=.=.=.=.=.:.:.2.6.).).).)._._._._.`.`.`.wXwXtXtXwXwXwXwXwXwXwXwXwX`.`.wXwX`.`.7.,.| c e 9 7 7 7 7 e 9 e 9 e M P ..X.W W ! ! ! W O.#.4.6./.^.A.A.A.A.Z.D.D.D.D.D.S.Q.].[..XXX|.|.tX|.|.|.|.}.}.`._.-.) =.8.5.5.8X8X8X8X9.9.9.}.|.|.|.|.}.}.}.}. X.X[.#X#X*X*X*X:X>X!.F D ' 3.3.1.1.4.1.3.3.' R.E.E.~.!.!.#X!.R._ =.=.=.) V m l l l e l l C =./.(.!.@X@X&XMXVXSXJXJXJXJXDX#X_ V B m k > > , h.W.&X&X@XH.1 2 2 2 2 b b / ] 3.3.1.6._.oX.X.X1X#X*X#X@X@XOXc.Y.E.(.(.E.T.h.g.a.a.a.a.k.M.$XMXfXjXjXfXU.a.a.a.a.< h.c.h.Z.( Y.T.g.a.a.w.u.j.k.S.OX@X!.` _ ( / ] ] ] ( 2 T.@XU.I.P.N.N.N.P.kXkXjXfXmX#XE.( 1 2 2 : : 1 h.W.OXJ.g.a.3 p.a.x.M.L.m.                                                                                                                                                                                                                      ",
"                                                                                                                                                                                                                                                                                                              j.m.P.N.n.j.j.j.a.g.g.Z.( ] 1.0.0.&.i b $XBX&XW.1 b 2 2 b b b b b b k % % l B Z Z C C ^ ^ ) *.=.*.>.=.:.>.:.2.2.).)._._._._.`.`.`.`.`.wXtXtXtXtXwXwXwXwXwXwXwXwX`.`.wX`.`.`.7.<.>.Z e 9 7 7 7 e e e e t Z | ..} W ! ! ! ! ! W X.@.4.6.^.R.A.A.C.C.C.C.C.D.D.D.D.F.+X+X;X[.XX|.|.|.}.|.|.|.}.`._.2.*.=.6.8.5.0.8X8X9.9.9.}. XoXXXXXXXXXXX X X[.[.#X#X%X*X*X*X*X:X#XT._ /.2.3.1.4.4.2.3.;.R.R.Y.W.W.W.@X#X!.[.(./.2.1.1.1.3.^ r % 8 6 w + w r l _ !.#X*XNXAXDXJXJXJXJXGX<X}.9.}.}.6./._ 2 2 h.H.h.1 2 2 2 2 b _ ` /.'.}.9.9.9.9.}. X.X.X#X*X*X&X&X&X*X&X*X#X!.E.( 2 2 2 g.h.c.J.OX@X&XMXMXBXMXI.M.x.a., , < 1 h.W.W.@X&X&XMXBXBXgXdXB.M.S.+X#X(.) ^ / / ] ' ^ / E.!.&XU.m.m.n.n.m.N.I.dXdXmX*X(.] ' m 2 b > 2 F T.Y.W.T.1 , , , g.x.L.L.g.                                                                                                                                                                                                                      ",
"                                                                                                                                                                                                                                                                                                            p.m.P.N.m.n.i.i.i.j.a.g.h.Y.E.8.9.#.p r 2 I.HXSX&XT.b 2 2 > b b k l b k % w m V C B C C ^ ^ ^ ) *.*.*.>.=.>.:.6.).).)._._._._.`.`.`.`.`.wXtXtXtXtXwXwXwXwXwXwXwXwXwXwXwX`.`.`.7.7.,.P e 9 7 7 7 e e t t Z [ ..{ X.! ! ! Q Q ! W X.o.,.>.;.J Z.C.C.C.C.l.d.d.z.z.l.F.G.%X*X-X=XXXXX|.|.XX|.}.`.`.`._.2.=.6.8.5.6X9X9X9.}._.{.[.[.[..X.X<X<XXXXX[.=X#X%X&X&X&XMXNXNX:XQ._ /.2.3.1.#.4.3.3.E.R.T.S.S.S.W.OX+X#X#X[.(.4.4.4.8.9._.3.G V ) =.:.2.;.V w b R.[.,XAXDXJXJXJXJXGXXX9X9X9X9X9X}.|.oXE.Y.T._ _ ) ) ] ] 3.;.;.3.3.4.4.%.0.9.}._.(.~.~.@XOX@X$X&XMXMXFXFXAX#XW.E.!.!.#X*X&X&X&XMXFXFXSXSXSXSXSXSXBXU.c.c.OX&XMXFXSXSXSXHXHXKXKXHXHXSXMX%X].;./ / / / / / ] (.1X~.L.m.j.j.j.n.m.m.P.dXI.#X[.3.^ / m m m m ( ( Y.Y.Y.( 2 2 2 2 h.K.K.x.,                                                                                                                                                                                                                       ",
"                                                                                                                                                                                                                                                                                                            m.P.N.N.v.v.v.v.v.i.j.x.c.E.(.2.4./ p a w 1 OX&XW.F b > > > k b b k k k % k ) V V V C ^ ^ ^ ^ ^ ) *.*.*.=.=.:.).).).)._._._.`.`.}.tX}.}.tXtXtXtXtXtXtXtXtXwXwXwXwXwXwXwXwXwXwXwX7.<...t e 7 7 7 e t u Z L  .} X.Q ! ! ! ! Q ! O.X.o. .-.;.J F A C.C.f.d.d.d.d.z.z.V.F.$XNXNX-X=X'.{.'.|.|.|.`.`.`._._.2.1.8.5.%.0.9.}./.(.[.!.!.#X=X=X>X>X<X>X=X#X#X&X$X&XmXMXMXCXAX#XA.R./.3.4.4.4.3./.R.T.S.S.c.c.S.F.OX+X#X[.[.6.4.4.5.9.9.9.2.] 3._.`.}.}.}._.=.m D [.,XGXDXDXDXGX,X|.8X8X8X9.9.}.|.XX.X.X[.'.7.9.9.9.9. X XoX[.(.3.3.1.4.4.1.;.T.Z.Z.c.c.c.M.OX&XMXFXDXDXDXAX:X>X#X*X&X&X&X&XMXMXMXFXSXSXHXHXHXHXHXSXSXBXBXjXlXSXHXHXHXKXKXKXbXKXKXHXCX!.) C Z C N u / 7..X!.~.c.x.j.j.j.j.j.M.P.I.@X[.2...^ N M N V / ' ] ] ] ( D 2 2 2 1 H.J.K.g., h.J.L.L.U.L.x.                                                                                                                                                                                                        ",
"                                                                                                                                                                                                                                                                                                          m.P.N.N.b.v.v.v.v.v.v.n.M.W.~.(.1.+. .[ u a w % A b > > % % % k b b > k % % m ) V m V C ^ ^ ^ ) ^ ) *.*.=.=.=.:.6.).).)._._._.`.`.}.tX`.`.wXtXtXtXtXtXtXtXtXtXtXtXwXwXwXwXwXwXwXwX7.7.4.P e 7 7 7 e t Z N [ | } { E Q Q Q ! Q W O.X.X.-.>.` A.A A C.s.f.d.d.z.d.u.z.V.M.$XNXCXNX-X^.>.:.).'.|.`.`.`.`._.6.1.4.5.%.0.9._.[.!.!.#X+X#X#X#X*X,X,X,X=X#X*X&X&XmXMXBXBXCXAX*XT._ /./.6.4.1.3.;.R.Y.S.S.c.c.c.c.F.OX+X!.[.(.2.4.5.8.8.9.9.8.2.6.9.9.9.9.9.9.}.] ' (.>XZXGXGX,XXX9.%.%.5.5.6._.'.XX.X.X>X.X'.9.0.9.9.}. X.X.X>X>X[.(./.;.) _ F < f.f.d.k.k.M.OX&XMXDXDXDXDXDXAX*X$XOXL.L.I.I.$XmXMXBXSXHXHXHXKXKXHXHXHXlXfXfXjXHXcXbXbXbXbXKXKXKXKXSXQ.V M t a a M 1.oX[.E.T.h.g.a.a.a.a.k.M.L.L.#X(.1.| / / N N / ..+.3.] ] / m b b D ( ( H.J.J.K.L.L.U.U.U.U.U.x.                                                                                                                                                                                                      ",
"                                                                                                                                                                                                                                                                                                        x.P.sXN.b.v.v.v.v.v.v.n.B.L.~.R.^ } } } L i a r w % % + + + % % > 2 2 b k w % m ) V V B B Z C C ^ ) *.*.*.*.=.=.:.2.).)._._._._.`.`.}.tX`.`.tXtXtXtXtXtXtXtXtXtXtXtXtXwXwXwXwXwXwXwX7.7.7.<.Z e 7 7 e c Z |  .-.} { T Q Q Q Q ! Q O.X.o.-.*.J A.A A < < f.d.d.z.u.z.u.V.M.$XNXCXCX*X^.H H >.'.|.|.|.`.`.`._.6.-.4.5.5.7./.[.!.!.+XOXOX@X&X*X*X,X,X,X#X*X&XmXMXfXBXBXVXCX*XW.F ` 3.2.4.1.1./.R.T.S.c.c.k.k.c.M.M.OX+X#X[./.1.4.1.2.8.7. X_.8.9.0.0.8X9X9XtX}._.3.(.[.>X[.'.5.%.%.%.4.3.3.(.(.[.[.>X>X>X>XXX9.9.7.'..X[.[.=X=X=X#X>X!.E.F 1 < < s.d.d.k.z.M.$XMXCXSXHXHXJXJXFXL.c.c.k.z.V.M.I.I.MXBXHXHXKXKXKXbXKXKXHXfXdXfXjXHXKXKXKXbXKXKXKXKXMXC.b k % % l / 3.3.E.T.h.h.a.a.a.a.a.c.M.L.#X[.3.^ ^ N u i / [ +.+.3.] / m m m V ( ( ( ( H.J.K.K.K.L.L.P.U.U.c.                                                                                                                                                                                                      ",
"                                                                                                                                                                                                                                                                                                      j.P.sXsXb.b.v.v.v.v.v.n.N.I.OXT.m p p p p p a q r w w w + + + + % % b b b k w % k V ^ m B B B Z C ^ ) *.^ | *.=.>.:.2.)._._._.`.`.`.}.}.tXtX}.}.tXtXtXtXtXtXtXtXtXtXtXtXwXwXwXwXwXwXwXwX7.`.`.-.Z e e t Z ^ | ..4.} X.X.Q Q Q Q Q Q O.O.o.-.*.` A.F A < s.s.d.d.u.j.j.z.V.M.$XNXCXNX=XJ K v U ).XX|.|.|.`._._.).6.-.4.5.7.{.[.!.+XOXOX$X$X&X&X*X*X:X:X*X*X&XMXBXjXBXSXVXVXNX!.F D ) ;.3.:.=.;.E.R.S.c.l.k.z.l.c.M.F.OX#X=X(.1.1.;./.(._. X|.8.5.%.0.8X9X9X9X9X}.}.3.;.6.8.5.%.&.$.+.=.] _ T.T.Q.Q.#X#X-X,X>X.X(.2.^.E.Q.!.#X#X#X*X*X*X*XQ.Z.< < s.s.d.z.z.M.$XMXDXDXJXHXLXLXJXMXj.j.k.k.z.V.M.I.mXVXHXHXLXLXKXKXKXKXHXjXdXgXjXHXHXKXKXKXKXLXLXSXOXW.W.W.W.OXOX@X~.~.~.Z.1 h.h.a.a.a.g.c.L.OX!.^.) C M p p N [ } +.=./ V m m m m V _ ( ( 1 1 1 g.g.g.x.K.K.K.L.g.                                                                                                                                                                                                      ",
"                                                                                                                                                                                                                                                                                                      N.sXsXaXb.b.b.b.b.b.N.P.I.OXY.m a q q q q q 4 4 4 4 O + + + + + % > k b b > > % r n V V V V B Z C ^ ^ ^ | *.*.=.:.:.2.6.)._._.`.`.}.}.}.tXtX}.}.yXtXtXyXyXtXtXtXtXtXtXtXtXwXwXwXwXwXwXwXwXwXwX`.<.P c c C | -. . .o.O.X.W Q Q Q Q ! @.&.#.-.>.*.J F A < s.s.a.k.j.j.z.z.V.F.$XNXNX-XR.v v B H ).|.|.|.|.'._._.).6.1.-.4.6.{.[.!.+XOXL.I.I.$X&X&XNXAX:X*X#X&XMXBXSXHXHXHXSXAX~.D G V V ) ' ) ;.^.R.W.S.c.k.z.z.V.M.F.OX#X=X[.] ' R.R.^./.XXXX X8.5.%.0.8X9.9.9X9XtX}.2.4.#.%.&.$.+.1.] _ J Z.Z.S.W.+X#X*X*X:X:X#XR.A.A.A.S.W.+X%X%X*XNXNX*X@XS.f.s.s.d.l.M.G.$XMXDXJXLXLXLXLXLXHXB.k.d.l.l.M.F.$XMXDXJXLXHXHXLXLXLXLXHXgXI.I.BXSXHXLXLXHXHXHXSXFXMXMXMXMXBXBXSXSXSXSXFXMX$Xc.h.g.g.h.h.J.W.~.R.G V l M a u N | ..=.] m m k k k m m m b 2 2 2 , , , , g.g.x.x.g.g.                                                                                                                                                                                                      ",
"                                                                                                                                                                                                                                                                                                    x.sXkXsXaXb.b.b.b.b.N.B.I.L.T.( / i p a q q 4 4 4 4 + + 6 + + + + % j > k 2 2 > > % m V V V V C C ^ ) ^ C | | *.=.-.:.2.6.)._._.`.`.}.|.|.}.}.}.}.tXtXtXyXyXyXtXtXtXtXtXtXtXtXwXwXtXtXwXwXwXwXwXwXwX6.*.N P | -.-.-.#.$.O.O.Q Q Q Q ! @.@.$.,.:.>.^.A.Z.C.f.f.d.k.z.z.l.l.F.G.%X%X=XA.x c c B H {.|.|.'.`.'._._.).6.2.-.-./.[.!.!.OXOXI.I.I.I.I.mXMXAXAX*X@X*XCXVXHXHXHXHXDXAXQ.J G G G n m m C ' R.Q.S.c.z.z.V.V.V.M.OX%X*X!.R.R.T.R.R.(.[.XXXX}.8.5.5.5.5.9.9.}.}.|.}.8.5.%.&.&.+.=.' J Z.C.C.h.c.S.OX%X*X*X:X:X#XZ.C.C.D.S.S.OX$X*XNXCXAXAX*XW.D.S.S.F.OX%XmXCXDXJXJXLXLXLXLXJXmXk.d.f.l.F.OX%XNXDXDXDXJXHXHXHXHXSXI.M.F.&XFXDXDXDXSXDXSXBXBXMXMXMXMXMXBXSXSXHXHXHXHXHXHXSXI.L.h.T.Y.W.W.T.D m l r r l M / / / / V l r w w w r k k 2 > 2 : 2 , , g.g.g.g.g.g.,                                                                                                                                                                                                       ",
"                                                                                                                                                                                                                                                                                                  e.N.kXkXsXaXaXaXb.N.N.P.I.W.H.2 2 k a p p y a a r r r w w w 8 + + + + @ % > k z k k % k m G V V C ^ ^ C C C ^ | *.=.-.:.2.6.)._._._.}.}.}.}.}.}.tX}.}.yXtXtXtXtXtXtXtXtXtXtXtXtXtXtXtXwXwXwXwXwXwXwXwXwX`.:.>.*.>.<.8.8.5.$.O.O.@.! @.@.@.4X%.$.8.<./.^.R.A.D.D.S.S.S.S.S.F.+X+XQ.R.K Y j x c v *.{.'._._._.)._.).)./.2.=.=.3.[.!.#X@X$XI.I.I.I.I.I.MXMXNX*XT.#XNXSXHXLXLXHXHXNXT.S n n n m l l l B R.Q.S.S.M.V.V.V.V.M.$X%X*X#XY.Z.Z.Z.T.R.].[.XXXX}.5.1.1.1.2._. X|.|.|.}.8.%.@.@.#.=.' J F f.f.l.k.c.M.OX&X*XNXAX*XOXf.f.l.l.c.M.G.$XMXCXFXDXDXNX+X+X+X+X*XNXNXCXDXDXJXJXJXLXLXDX&Xc.f.D.S.+X%X*XNXAXDXDXDXDXFXSXMXM.c.F.@X*XAXAXAXAXAXNXMXMXI.I.I.I.$XMXBXSXHXcXcXHXvXHXcXHXcXMXOXY.Y.Y.1 > > w w w r M M B ^ ) b > % % % % % a m m ( ( T.T.H.K.L.L.L.L.U.L.L.x.c.g.                                                                                                                                                                                                  ",
"                                                                                                                                                                                                                                                                                                  b.sXhXkXsXaXaXaXsXsXI.U.W.D m r l M [ }  .-...N t r w 6 6 + + + + O O @ % > k k k k k > m m V V C V C C ^ C C ^ *.=.=.:.2.6.).)._._.`.`.`.}.}.}.}.}.tXtXtXtXtXtXtXtXtXyXtXtXtXtXtXtXtXwXtXwXwXwXwXwXwXwXwXwX`.).6.:.8.7.6X5.5.%.$.$.$.$.%.4X6X5.8.6.)././.^.E.Q.Q.Q.Q.Q.Q.Q.].^.J n j j x c c B H /.'._.).)./.)././.2.:.>.) ) /.[.#X@X$X$XI.I.dXdXI.dXMXCX*XZ.Z.*XDXLXLXLXLXDX#XF n z z z z z x k j n R.Q.OXF.F.M.M.B.$X$XNX*X#XT.Z.Z.C.Z.A.Q.[.[.XX X2.3.=.;.^./.(.[.XXXXXX7.$.$.%.&.1.' F F f.f.l.l.c.M.M.$XMXCXNXNX&Xc.d.k.l.z.V.M.L.$XBXSXDXDXAX:X#X#X#X#X*XNXAXAXDXDXDXDXDXDX*XW.Z.Z.Q.+X#X-X-X-X,X:X:X:X*X@XOXc.S.W.#X#X,X,X,X,X=X#X@X$XM.M.M.m.M.B.I.MXBXHXHXKXKXKXKXKXHXHXBX#XE.E.1 * # # # @ @ % w l k l > > % % % w m / =.3.3.E.E.~.~.W.L.U.U.U.U.U.U.I.dXI.U.U.U.c.                                                                                                                                                                                            ",
"                                                                                                                                                                                                                                                                                                i.sXhXhXkXsXsXsXsXdXI.U.W.^ [ [ } $.5.5.5.4. .L t r 7 5 . O O O . . . O # + % > k k k k w k m B V B V C C ^ C ^ ^ ^ =.=.;.:.2.6.)._._.`.`.`.}.`.}.}.}.}.tXtXtXtXtXtXtXtXtXyXtXtXtXtXtXtXtXtXtXwXwXtXwXwXwXtXwXwX`.`.`.7.`.}.tX9X6X5.5.5.5.5.5.8.8.8.8.6._._.'.{.{.[.[.[.{.(./.>.*.K v c x B B K K H ^././././././././.;.:.*.) G _ (.!.#X$X$XI.dXsXdXdXdXMXFXAXW.> W.DXJXLXLXJXAXS.S k j > > j k k z k j n R.Q.OXG.G.$X$XmXNXNXNX#XA.Z.C.f.C.D.W.!.=X>XXX2.;.` R.R.R.Q.].[..XXX X7.%.$.%.5.3.R.Z.Z.l.l.l.z.M.M.$X&XMXNXCXAX$Xz.k.k.z.V.M.OX$XMXSXDXJXDXAX,X[.[.[.=X#X=X=X#X*X:X=X=X!.E.R.E.!.[.=X=X=X=X>X>X>X[.!.!.W.Y.T.Y.Q.#X=X>XXXXX[.E.W.c.c.c.k.j.j.n.V.I.mXBXSXHXHXLXLXLXHXHXHXAX[./.F * X # o # # # @ % % % % % # % l V ) =.1.1.3.] E.E.~.W.J.L.L.L.U.U.U.I.I.gXgXfXfXfXgXdXL.                                                                                                                                                                                        ",
"                                                                                                                                                                                                                                                                                                b.kXhXhXhXhXkXkXdXdXU.Y.3.#.@.@.%.4X4X%.$.o.I u y 4 4 4 . O O O O O . . + # % w w w k k w w l V V V B B V C ^ ^ ) ) *.=.=.:.2.2.).)._.`._.`.`.`.`.`.`.}.}.tXtXtXtXtXtXtXtXyXyXtXtXtXtXtXwXtXtXwXtXtXwXtXtXtXtXtXtXwX`.`.`.`.`.`.7.7.5.8.8.8.8.8.8.8.8.6.`.`.|.|.XXXX X'._.).2.=.*.C B S G G G G G ` ^.^.^.;.^.^.^.^.;.:.;.) ) G B _ !.#X%X$XdXdXdXdXdXgXBXDXAXOX> A *XDXDXDXAXW.F z j > > j j j > > x k z J Q.Q.OX%XmXNXCXDXCXNX*XQ.D.C.f.f.l.S.+X#X=X>X(.R.R.R.Y.A.Q.Q.!.=X>XXX X7.5.%.5./.(.R.Z.S.c.c.c.M.M.B.$XMXMXCXAXNXM.c.M.M.M.M.$XmXMXDXJXJXDXDX,XXX|.XXXX>X=X!.E.R.^.2.6.6._.[.[.[.[..XXXoXXX|.XX.X<X<X>X:X:X*X*X*X#X=X[.{.(.E.T.h.c.f.f.k.j.j.z.M.B.$XMXSXSXHXHXHXHXHXDX*XE.3._ : X o # X X o # # # & & & % k m ^ ' =.=.=.3.3.] ] Y.T.H.c.c.x.x.m.m.m.P.P.dXkXjXhXhXhXhXjXsXm.                                                                                                                                                                                    ",
"                                                                                                                                                                                                                                                                                                sXhXzXzXhXhXjXfXgXU.~.3.#.&.! ! ! ! @.X.X.f g y r 4 4 4 . . O O + + + + O # % w w w w w % w l ) ) ) C B V C C ) ) ) *.*.=.:.2.2.6.).).`._.`.`.`.`.`.`.`.}.`.tXtXtXtXtXtXtXtXyXtXwXtXtXtXwXtXwXwXtXtXtXtXtXtXtXtXtXtXwXwXwX`.`.`.`.`.8.8.8.8.`.`.7.`.`.`.`.}.|.|.|.|.}.`._.).:.-.*.H G ` R.R.` _ _ R.^.R.` ` ;.;.;.;.;.*.` ` ) G S n _ !.%X&XmXdXdXkXfXBXBXVXFX+X< A T.*X:X:X#XF z k j j > = = = = > j x z n _ E.+X%XNXNXDXDXCX*X=XQ.D.C.f.f.l.S.S.%X*X>X=XE.R.A.Z.S.S.W.Q.#X=X>X.X/.-.8.9. X/.^.Q.Q.S.S.F.M.M.M.$XmXCXDXDXAX&XF.F.F.$X$XmXMXDXJXJXJXJXJXGXXX|. XXX<X<X,X,X,X=X[._.7.}.|.|.|.}.}.9X0XyXyX|.XXXX>X>X*X*X*XNXAXNXAXAX:X#XQ.Z.h.h.k.d.k.k.k.c.F.$XmXMXSXSXSXFXSXSXMXOXF D D : * X X X X X X # * : : : : 2 b b m m V V / / / ( ( ( 1 1 g.g.g.x.x.x.x.m.m.I.gXjXjXjXzXzXjXhXkXN.                                                                                                                                                                                  ",
"                                                                                                                                                                                                                                                                                              b.hXzXcXcXzXjXjXgXL.Y.] +.+.~ ~ ! Q Q Q W T d g p y r 4 4 5 . O O + + + # @ @ % % % % w % % % V ) ^ V V B B Z C ^ ^ ) *.=.=.=.:.:.2.6.)._.`._._._.`.`.`.`.`.`.`.wXtXtXtXtXtXtXtXtX6X6XtXtXtXtXtXwXwXtXtXtXtXwXtXtXtXtXtXtXtXtXwX`.`.`.7.8.8.7.}.}.}.`.}.}.yXyXyX|.|.|.|.}.`.).<.-.*.) R.(.(.[.(.E.R.R.^.R.` ;.^.^.;.` ` ` ` ` _ G G S S R.#X&XmXgXfXfXjXBXVXVXCXOXA F R.(.[.[./.^.G x % @ w 8 @ 8 j > j x m H =.` ].=X*XNXDXAXAX,X=X[.Q.D.l.l.l.l.S.OX%X*X=X!.R.Z.D.S.S.D.S.+X#X=X>XE.v B *.2.'.'.[.Q.Q.+XOXG.G.$X$XmXCXDXDXDXAX%X+X+X%X&XNXCXDXDXJXLXJXJXDX<X XoX.X.X>X,X,X,X,X,X>X[. X}.tXyX9X9X9X0X0X}. XXX[.[.#X#X%X%X&XNXNXMXAXFXDXFX&XOXc.h.f.d.k.l.S.OX@X*XAXAXAXAXAXAX:X@X@X@X@X@X$XOXc.c.h.h.H.W.L.L.OXOXU.L.L.OXW.W.h.1 F F S F 1 2 2 2 , , , a.g.j.j.j.n.m.P.dXkXjXzXcXzXzXzXhXkXm.                                                                                                                                                                                ",
"                                                                                                                                                                                                                                                                                              sXhXzXcXcXcXjXgXU.W.( ] ] [ W W Q Q Q Q Q T f g p y y 7 4 6 5 O + + + + @ # # @ % + + + % % k V V m m m m V B B C ^ ^ ) *.=.=.:.:.:.2.6.6.).).).).).`.`.`.`.`.`.`.wXtXtXtXwXwX6X6X6X6XtXtXtXtXtXtXtXtXtXtXtXtXtXtXtXtXtXtXtXtX`.`.`.`.7.8.4.`.yX}.9.9.9.}.yXyXtX|.}.|.|.}.`.).<.>.*.;.(.[..XXX.X[.(.(.^.R.R.R.^.^.R.` ` ` ` _ _ J G G S D Y.@X&XMXBXBXSXHXHXDXCX+XF _ ^././.).6.2.6.-.B w + @ @ @ 8 w x m V ) =.=.^.[.-XZXZXZX,X[.XX.XQ.S.S.l.l.S.M.F.%X*X=X!.Q.S.S.S.c.S.S.OX#X*X:X#XF b l l M 2..X[.!.+X+X%X$X$XmXMXCXDXDXDXAX*X=X-X*XNXNXAXDXDXJXJXJXJXDX-X(.(.E.E.Q.#X#X*X*XAXAX:X>XXXyX9X9X9X9X9X9X}._.(.E.R.A.S.S.F.OX$X&XNXCXFXDXSXSXSXMXL.k.l.l.S.+X#X*X,X,X,X,X,X,X:X:X:X*X&XNXMXMXFXFXBXMXgXI.I.U.U.gXgXgXfXfXfXfXfXgXI.U.OXOXOXL.L.J.c.g.g.a.a.a.a.a.j.x.m.P.dXkXhXhXzXzXzXzXxXhXN.                                                                                                                                                                                ",
"                                                                                                                                                                                                                                                                                            v.hXxXcXcXcXjXgXU.c.h.1 ( / / R W Q Q Q Q Q W T f d u y 7 4 6 5 + + + # O o o o # @ + + + + % m V n m m m V V V V H C ) ) ) *.*.=.;.:.:.2.2.).).).).6.`._._._.`.`.`.`.`.`.wXwX6X6X6XwXwXwXtXtXtXtXtXtXtXtXtXtXwXtXtXtXtXtXtXtX}.`.`.`.`.8.8.4.}.tXtX9X9X9.9XtXyXyX|.|.|.|.'._.).:.*.:.(..X.X.X[..X.X.X[.(.^.` R.R.R.R.R.` ` _ _ ` _ _ J D S F ~.*XMXBXSXHXHXHXJXCXOXR.;./.).6.8.8.8.4.4.4.-.M w O + 8 j m V B =.3.1.1.2.{.[.=X[.oX6.7.'.[.Q.S.S.S.F.F.F.OX%X*X#XQ.S.S.S.c.c.F.OXOX*X*X:XT.F G G B l V ^.[.=X*X%X%X&XNXNXCXDXDXDXAX,X<X>X,X,XZXAXDXDXDXJXJXJXDX#XR.A.Z.Z.D.S.OXOX%X*XNXAXAX,X<X'.7.9X8X0.5.6.;.R.A.Z.C.f.f.k.c.M.OX&XMXSXDXHXJXJXJXSXmXOXW.#X=X=X>X<X<X<X.X.X>X#X#X@X&X&X&XMXMXCXVXSXSXSXlXlXjXfXgXgXgXfXjXjXjXjXjXjXjXfXfXgXI.U.I.I.gXgXdXU.P.m.j.j.m.N.P.dXfXkXhXhXhXhXhXhXkXN.                                                                                                                                                                                ",
"                                                                                                                                                                                                                                                                                            b.hXxXzXjXfXU.L.x.g.1 2 2 / / R W ~ ! Q Q Q W W f g u y y r r 6 6 + o $ $ $ # # @ @ + @ + @ k D V m m m m m V V G H H G ) ) ) *.*.;.:.:.:./.2.2.6.6.6.).`._._.`.7.`.`.`.`.wX6X6X6X6X6XwXwXwXwXwXwXwXwXwXtXtXtXtXtXtXtXtXtX}.}.}.}.`.`.`.7.8.4.9.yX9X9X9X9X9XyXyXyX|.|.|.'.'._.).:.*.2.oXXX.X.X.X.XXXXXXX[.^._ ` R.R.R.R.` _ _ _ _ _ _ G G D S T.@X&XBXHXHXHXHXJXCXW._ 3./.6.4.4.4.$.&.$.$.4.4.*.l 6 + l V V C ^ =.-. .4.8.8.8.8.6X6X5.7.{.].+XF.F.F.G.G.$X&X*X*X#X+XOXF.M.M.M.OX$X%X*X,X#XR.^./.'._.6.:.'.[.=X-X*X*XNXNXCXDXDXDXGX<XyXXXXX<X>X,XGXGXGXGXDXDX*XQ.F F A C.f.l.c.S.OX%XNXNXAXAXGX,X'.5.%.$.4.-.' J F A < s.f.d.k.c.M.$XMXSXSXJXHXLXLXHXHXFX*X=X>XoX|.yX|.9. X[.E.~.W.OXM.M.M.L.$XmXMXBXlXHXcXcXcXcXjXsXsXdXfXjXjXjXlXlXlXjXjXjXjXgXgXfXlXlXlXjXjXjXkXP.P.P.U.dXdXsXkXkXkXkXkXkXkXsXm.                                                                                                                                                                              ",
"                                                                                                                                                                                                                                                                                          p.N.kXhXhXgXU.x.a.a.a., , 2 m / [ W ~ ! ! ! Q Q W T d d d u t r r . o $ X : F ( b w @ + + + % n D n m m m m m m n V G G G G ) ' *.` ` ;.:.;.:.:.2.2.2.6.6.).).).).6.`.`.7.7.7.6X6X6X6X6X6XwXwXwXwXwXtXwXwXtXtXtXtXtXtXtX}.tXtX}.}.`.`.`.`.7.8.4.9X9X9X9X9X9X9X9XyXyX}.XX|. X'._.).:.*.2.XXXXXXXXXXXXXXXXXXoX(._ _ _ _ R.` _ _ _ _ _ _ _ J D D D F T.@XMXSXHXHXHXJXNXQ._ 3.2.6.#.#.o.X.O.$.$.#.#.4.4.*.l l H ) V ^ =. .4.#.$.$.$.4X6X6X6X5.`.{.;X+XOXOXG.$X$XNXNXNX*X+XOXF.M.M.M.G.$X&X*X,X,X]._.}.}.tXyXtX}.|.XX=X-X*XNXNXCXDXDXDXGX<XyXyXtX|.XXXX.X>X>X,X,X=XE.J A A A f.f.f.k.l.M.OX&XNXAXDXDXGX,X{.4.1.1.;.) G F A < < f.d.k.l.F.$XmXAXDXJXLXLXLXLXHXDXZX>X|.9.9X9X9.9.2.R.R.T.Z.c.k.x.x.V.M.I.mXBXlXcXcXcXcXcXcXjXsXsXdXgXjXjXcXcXcXcXcXcXcXjXgXgXjXcXcXcXcXcXlXhXdXP.P.U.P.P.P.P.P.sXsXkXsXsXm.                                                                                                                                                                              ",
"                                                                                                                                                                                                                                                                                        a.j.m.P.sXP.m.i.e.p.w.a., , 2 b / [ X.~ ! ! ! ! ! W X.X.o.} { d a 4 . o * h.~.Y._ m % + + + @ b n n m m m m m m m n n G G G _ _ ' ` ` ' ` ` ;.;.:.:.:.2.2.2.6.6.6.6.6.).6.).7.7.7.7.7.6X6X6XwX`.wXwX`.`.wXwXtXtXtXtXtX}.}.`.}.`.}.}.`.`.`.`.`.8.4.9X0X9X9X8X9X9X9X0XyXyX|.|. X'.'._.:.*./.XXXXXXXXXXXX|.|. X_.(.` _ _ _ _ _ _ _ _ _ _ _ _ _ G D D S F T.#XMXHXHXHXDX*XY.R./.6.4.#.o.O.E O.$.@.$.#.#.8.8.6.:.*.) C *.-. .$.%.$.@.$.$.4X6X6X9X7._.[.=X+X%X$XmXNXCXCXAXNX*X+XF.F.M.M.B.$X%XNXNX,X[.'.}.9.9X9X9X9X9X}.XX>X,X,XAXAXDXDXDXGX<XyX9XtXyX|.XXXX/.6.2.3.1.] G F A A < s.d.d.k.c.F.$XNXCXDXDXGXGX,X{.1.-.=.) G S A A < f.f.l.D.F.OXNXDXDXJXJXLXLXLXLXJXAX=X8.%.%.%.4.1.] _ F h.f.f.k.j.j.j.V.B.dXBXcXcXcXvXvXvXvXcXjXsXsXkXjXjXzXzXcXcXcXcXzXjXfXgXjXcXcXcXcXcXcXjXsXU.L.K.m.m.n.N.N.sXsXkXsXsX                                                                                                                                                                                ",
"                                                                                                                                                                                                                                                                                      m.m.m.m.N.N.n.i.i.e.e.p.p.a., 2 2 / [ X.! ! ! ! ! 4X%.%.$.o.{ g p q 4 O * L.&X$XW.F k % @ + o > n m m l m m m m n n V D D D G _ _ _ _ ' ) ) ` *.:.:.>.>.:.:.:.:.2.6.6.6.).6.6.7.8.8.7.8.7.6X7.wX7.`.`.`.`.`.wXwXwXwX}.}.`.`.`.`.`.`.`.`.`.`.`.6.8.4.9.0X9X9X9X9X9.9X0XyXyX|. X X X'._.=.^ _.XXXXXXXX X|.|.|. X_._.R.G G J _ _ G G J G J J J J D D S S S F T.@XFXSXSXAX#XY.R.;.1.#.o.O.X.E O.&.&.$.#.$.8.6.6.6.6.2.=.*.-. .$.$.$.@.@.O.@.$.5.5.5.8.).[.#X%XNXNXCXDXDXDXAX*X+XOXF.G.G.G.$XmXNXNX,X>X|.`.9X9X8X8X9X9X9X9.|.XX,XZXGXDXDXGXGX<X}.9.}.}.|.XXXXXX_.4.+.#.1.=.G F A < f.f.l.l.c.F.$XNXCXDXDXDXDXGX,X).2.1.=.) G J Z.Z.Z.Z.A.Q.+X*XNXAXDXDXJXJXJXJXJXJXAX=X;...} }  .=.' ( F < f.d.k.k.j.k.V.B.dXBXHXHXcXvXvXvXbXvXcXdXdXdXjXjXjXzXzXzXjXzXjXjXjXfXjXcXcXcXcXcXzXhXgXJ.g.x.x.m.N.N.P.P.sXsXP.m.                                                                                                                                                                                ",
"                                                                                                                                                                                                                                                                                    N.sXnXsXP.b.b.v.i.i.i.i.i.p.p.a.1 1 ' +.&.&.~ ! @.%.%.#. .C u a q r 7 O X M.SXBXgXJ.1 k r + o # n n m m m m m n m n n n G D G _ G G G G _ ) ) ) ) *.*.=.=.>.:.>.:.:.:.:.2.6.6.6.8.8.8.7.6.8.7.7.7.7.7.`.`.`.`.`.`.`.`.`.`.`.`.`.`._._.`._._.`._.6.8.4.8.9X9X9X9.9.9.9.}.tXyX|. X'.'._.).=.^ _.yX|.|.yX|.|.|.}.|.|.XX(._ G J G G G G G G G G G D n S J S S S J T.@XNXNX*XY._ ` :.-.o.$.&.X.E X.&.@.&.#.+.1.2.).6.).`._.6.:. .#.$.$.&.O.X.O.$.$.5.4.4.6.(.=X*XNXCXDXDXJXDXAX*X#X+XOX$XG.$X$XmXNXNXZX>X'.`.5.6X4X4X8X8X9X9X9.|.XX>XZXGXAXGX,XXX8.6._. XXXXXXXXXXXoX1.#.5.2.;.R.A.Z.D.D.S.S.F.OX&XNXCXDXJXJXJXDXGX.X6.6.2.3.;.^.^.].Q.!.[.=X=X,X,XZXGXGXDXDXDXDXDXDXAX,X=X!.E.` *.=.' ( F 1 f.f.f.k.k.l.M.$XMXBXSXHXcXcXcXcXHXHXlXgXdXgXfXjXjXjXjXjXjXjXfXgXgXjXjXjXjXjXzXjXjX&XW.H.H.x.x.m.m.P.P.P.P.N.                                                                                                                                                                                    ",
"                                                                                                                                                                                                                                                                                v.N.sXsXkXnXsXb.b.v.v.v.i.i.i.j.x.x.h.T._ 3.+.#.&.&.#.-.      X o r r 6 . $ - fXLXHXMXL.1 > + $ o b n n m m m b m m n n n D G G G G G G G G G G G G ) ) ) *.*.>.=.=.-.:.-.:.:.:.<.6.6.6.6.8.8.8.8.7.7.7.7.7.`.7.`.`.`.`.`.`._._._._._._._._._.).).).6.6.,.8.tX9X9.9.7._.}.|.|.}.|. X'. X'.).=.^ 6.yXyXyXyXtX}.9.}.}.|.|. X` G D G G G G D D D D S z n S x j j x S J R.R.R.Z.F _ ' =.-.4.$.O.E E W X.@.#. .-.=.;.2././.)._.|._.,.o.$.$.&.X.X.X.X.o.#.1.3.2./.[.=X*XNXDXJXJXDXAX#X!.#X%X%X$XmXmXNXNXAXGX,XXX7.5.%.%.4X4X8X9X9X9.|. XXX>X>X>X>X[.2.3.3.^.(.[.[.>X<X<X<XXX_.9.9._.(.E.R.Q.W.OXOX+X%X*XNXDXDXJXJXJXJXDX,X'.8.5.7._.'.[.[.[.[.>X>X>X>X,X,X,X,X,X,XZX:X:X:X:X:X:X:X:X*X#X~.T.F Z.1 < f.f.C.S.OXOX&XMXMXBXSXSXHXHXSXSXSXfXgXfXfXgXgXfXfXfXgXdXdXI.dXgXfXjXjXjXfXfXMX@XE.( ( H.K.m.K.L.P.P.m.                                                                                                                                                                                        ",
"                                                                                                                                                                                                                                                                              v.aXnXkXnXkXnXaXN.N.b.b.b.b.n.m.m.m.x.J.H.( ' ]                 % r r 6 + O o a.SXKXLXMXJ.2 @ $ $ k n b n b b m b m n n n B G G G G G G V V V V V V V H H H ) ) *.>.*.=.-.-.-.-.-.<.<.6.6.4.4.4.4.8.6.6.8.6.8.6.7.7.7.7.7.`.`.`.`.`.`.).).).).).).).).6.6.-.4.}.tX}._._.'.'. X|.|.|.|. X'._./.*.^ 6.yXyXtXtX9X9.9.9.9.9.}.}./.G D G G G D D D D S z z n j Y Y j Y j S J J G n S G ;.=.-.#.#.O.E E X.X.+. . .=.) ' ` ;.;.;.2._.`.`.4.$.&.&.X.} { [  .-.1.=.:.;.(.[.=XNXAXDXDXDX,X!.E.!.#X%XNXNXCXCXDXAXGX>X|.7.5.%.&.%.5.5.5.9.}.|. XXXXX.X/.2.2.3.' R.R.R.Q.Q.[.>X>X>X<XXX/.2.6.[.[.[.!.#X#X#X*X*X*XNXGXDXDXJXJXJXJXGXXX9.9.7.'.'.XXXXXX X X X X|. X XoXoX.X.X[.!.!.#X*X*X*XNXNXAXAXAX*XQ.Y.Z.Z.Z.Z.W.OX@X*X*X*XMXBXBXVXBXBXMXMX&X&X&X&X&XU.U.I.U.P.B.N.P.I.gXgXgXfXfXgX&XW.T._ ' ( T.H.c.c.x.                                                                                                                                                                                                ",
"                                                                                                                                                                                                                                                                            b.sXsXnXhXkXkXnXnXsXN.N.N.b.N.m.m.x.x.g.                      V B l r 7 O + O o - MXLXSX@X2 o $ $ > n b b b b b b m m n n n S S G D S S S V B B n B B V V V V H H ) *.*.*.*.>.-.-.-.-.<.<.,.,.,.,.,.4.6.6.6.6.8.6.8.8.6.7.7.6.6.`.6.6.).6.6.6.6.).).).6.6.<.-.-.}.|.XX/.(.(.[..XXXXXXX X'.'._.:.| | 6.yXtX9X9X9.%.5.6X9X9.9.}.'.` D D G G D S D D n k m j j Y Y 8 8 Y j J *.H V n G ) =.-.#.#.X.X.X.X.X.+. .^ ) ) H G _ ` R.^.(.'.|.`.$.@.&.X.} [ i [ | =.*.*.` R.(.[.=X-XAXAX,X=X(.(.(.=X*XNXNXDXDXDXDXGX>X|.8.%.%.%.%.5.8.6./._.'.XXXX<X<XXX_.3.;._ Z.Z.Z.A.W.Q.#X=X>X>X>XQ.z l G J ^.(.[.[.=X=X-X-XZXGXGXGXDXJXJXDXGX[.) ^ =././._._._._.8.8.5.5.5.8.1.1.2.^.R.R.T.W.W.OX%X*XNXNXAXAXAXFX:X*X*X#X@X@X@X@X#X*X*X*X*X*X*X*X&X@X@X@X#X&X@X@XOXJ.c.c.x.M.L.U.U.I.gXgXgXgXgX$Xc.F m D 1 1                                                                                                                                                                                                         ",
"                                                                                                                                                                                                                                                                          i.P.kXnXkXhXkXnXnXnXsXP.N.N.m.m.x.                        r N [ L t r r 6 + . . o X , c.< # $ $ $ % n n b b b b b b b n n n n S G G D n n B B m m m B B V V B V V C H H *.*.>.*.*.>.-.-.-.:.-.-.:.,.4.,.6.6.6.6.6.8.6.6.6.8.8.6.8.8.6.6.6.6.6.6.6.6.6.6.6.:.<.:.=._.XX[.].E.R.E.[..XXXXXXX'.'.).:.| | _.tXyX9X8X0.%.%.%.4X%.8X9X}.2.G D G D D D D D b x b j 8 8 8 8 8 8 Y l U *.H H V C ^  .5.%.X.X.X.X.X.+. ./ ) ) G G J R.R.R.^.{..X|.7.$.X.X.X.} [ ^ ^ ) ) G J R.R.E.!.=X-X=X[.(./././.[.=X-XAXDXDXDXDXGX<X|.5.%.$.%.%.4.-.` R.R.!.[.[.>X>X<X<X(.R.R.Z.C.C.Z.D.S.+X#X#X-X,X*X1 > x j l V ;./.(.[.=X=X,X,XGXGXGXGXGXGX,XQ.m k B =.:.-.6.2.-.,.#.#.#.#.4.1.=.' J F Z.C.Z.S.S.F.OX&XMXNXFXDXDXSXFXAXNXNXNXNX*X*X+X!.E.E.[.[.[.[.[.=X=X=X!.E.Y.T.T.H.h.J.J.L.L.U.U.U.U.U.I.I.U.U.L.J.1                                                                                                                                                                                                             ",
"                                                                                                                                                                                                                                                                        i.b.nXkXkXkXkXnXkXsXsXP.P.m.x.                          p [ { T g p y q r 7 5 . . . o $ $ $ $ $ $ # n n n b b b b b b b n n D S S S S S S S n n m m m B B B B B V V V V H ) *.*.*.*.*.>.-.-.-.-.-.-.:.:.,.<.<.<.<.,.4.4.<.<.6.6.6.6.6.6.6.6.<.<.6.6.6.6.6.:.:.<.-.*./..X[.!.R.R.Q.Q.=X>XXXXXoX{.(.:.C | `.9X9X8X8X%.&.%.%.%.4X8X8X9X`.) D D D _ J G D b l l j 8 8 8 8 8 8 Y j B *.*.H H C ^ ..8.4.X.{ { X.X. ...^ _ _ _ J J J A.R.R.(.[..X'.8.$.@.@.#. .| ) ) G D F Z.A.R.!.!.[.=X[./.2.6.2./.[.-XGXGXDXDXGXGX>X}.6X6X%.$.#.-.] _ R.T.R.Q.!.=X=X>X>X>X!.R.Z.C.C.l.l.S.S.OX#X*X*X:X#XA k w w M *.-.)._.{.[.[.>X>X,X,X,XGX<XXXyX}.3.^ Z C | -.-.....} } } o.}  .=.' D F A f.f.l.c.c.c.OX$XMXSXSXSXHXSXSXSXBXBXFXFXFXNX*X[.[.oXoXXXXXoX X|.}. X X.X[..X#X@X@XOX$XL.L.J.J.K.L.U.U.I.gXgXgXU.L.h.1                                                                                                                                                                                                       ",
"                                                                                                                                                                                                                                                                        v.sXnXnXnXsXsXsXP.P.P.m.                            V R R W R g q a y y r r 4 . . . o o $ $ $ $ # b b b b b b b b b b n n n S D S S S S S n n m n m m m m m B B V V V V C H H P | *.*.*.*.>.>.-.-.-.-.:.-.,.,.-.:.:.,.,.<.<.<.6.6.6.6.6.<.6.<.<.<.:.:.:.:.:.:.>.-.*.;.[.=X+XQ.D.W.+X#X=X[.[.{./.(.*.C | 9.9X8X8X4X%.%.%.%.%.&.4X8X9XyX=.G _ J _ _ J G b l l 8 8 8 8 8 8 8 8 Y x H *.*.*.) ^ ^ -.8.o.} { { }  .| ) ` _ J J F Z.Z.Z.R.R.].[.[.'.5.%.%.%.1.=.' _ D F F F Z.Z.R.Q.!.[.[.(.>.,.8.8._.[.,XGXGXGXGXZX[.`.6X6X4X%.#.1.` A.Z.D.D.S.W.Q.#X=X,X,X=XE.A.Z.D.l.l.l.c.M.OX%X*X:X,X>X'.:.^ M Z | =.-.:.2.4.8.9.}.}.|.yXyXtXyXyX|. X/.' ) C | | [ [ { { } ..| *.' D A < f.f.f.l.k.c.M.OXmXVXSXHXHXHXHXHXSXVXBXCXFXFXAXAX,X>XXX}.tX}.9X9X9.9. X[..X#X#X@X&XU.U.I.U.L.x.j.x.n.m.P.I.dXgXgXgXI.L.H.H.h.g.                                                                                                                                                                                              ",
"                                                                                                                                                                                                                                                                        i.N.sXsXP.P.m.m.                                m / R T s g p q p p p y 7 r 7 . . . . $ $ $ $ X b S b b m b b b b b n S n b S S S S S S S S n m m m m m m l m m B V V V V C C C C P P | *.*.*.*.>.>.-.-.-.-.-.-.:.-.:.,.<.<.<.<.:.:.<.:.<.<.<.<.:.2.:.:.:.:.>.>.>.*.) [.#X+X+XS.F.%X*X#X[.[.(.(./.*.Z N 7.9X8X8X@.@.@.! @.@.! @.4X8X9X6._ _ _ _ _ _ D k x j 8 8 8 8 8 8 8 8 8 j B ) *.*.*.*.) ^ -. .o.X.X.O.} | *.` J D F Z.C.A Z.Z.R.Q.Q.[..X}.8X8X%.4.=.) G F A A A C.C.Z.R.Q.!.[.[./. .o.$.5._.>X,XGXGXGX=X^.6.5.6X6X5.5.1.' A.Z.D.l.l.S.S.+X*X*X:X,X#XQ.S.D.l.l.c.M.M.G.&X&XNX,X<XpXyXtX`.-.^ | =.-...} #.%.5.0.9.9X9.9.tX}.|.XXXX.X^.G B N L L { } { }  .| ^ D A A f.f.f.l.l.l.F.OX$XMXSXHXHXHXHXHXHXBXmXMXCXSXDXDXDXAX>XXX9.9.9.9.9.9.(.E.!.#X@X&XI.U.gXgXgXgXgXP.v.p.j.m.N.I.dXkXhXhXfXI.L.K.g.x.g.                                                                                                                                                                                          ",
"                                                                                                                                                                                                                                                                        p.x.x.x.                                    2 m q.R R g g p p p p p p a r q r O . . . . . o o > S n b b b b b b b n S b n n S S S S S S D n n n m m m m m m m l B B B B V V Z Z Z C C C P P | *.*.*.*.>.*.-.-.-.-.-.:.:.:.-.-.:.:.:.:.:.:.6.<.:.:.:.:.:.:.-.-.>.>.*.C E.*X%XOXM.F.&X*X*X=X[.(./.;.) Z N 5.8X8X4X@.@.! ! ! @.4X4X4X8X8X9.;._ _ R.R._ D k x j Y 8 8 8 8 8 8 8 8 8 j H *.>.>.*.) ) H *.-.o.X.#.#.4.:.` J F F f.f.f.< f.Z.A.Q.Q.[.'.9X9X8X5.2.*.G S A A C.< f.C.Z.A.Q.[.[.{.1.o.#.5.8.6.XX>X>X<X[.) | 4.5.6X9X8.6.^.R.Z.f.f.l.c.S.F.$X*XNXNX,X!.Q.S.D.S.M.M.M.G.$XNXNXAX,X<XtXtXtXyXtX`.-.[ N { X.$.$.%.%.5.8.8._.'. XXXXX<X>X[.R.H P | { X.o.+.+...=.' A.F A C.f.l.l.c.F.$XmXVXSXHXHXHXLXLXHXHXdX$XmXMXDXDXDXDXAX,X[.6.5.9.9.3.] E.~.W.OXL.U.U.U.dXgXgXfXjXfXP.v.v.n.N.P.kXhXhXhXhXkXP.x.x.x.x.a.                                                                                                                                                                                      ",
"                                                                                                                                                                                                                                                                                                                  m / / R i p p q p p p p p g p y 7 4 . . . . . o o % n n b b b b b b b n S S S S n S S n S S S D S n n n n m m m l l l m m B B V Z B B B Z Z C C C P P | | *.*.*.*.*.-.-.-.-.-.-.-.-.-.:.-.:.:.:.:.:.:.:.>.:.>.>.-.>.>.*.C V R.*X*X$XB.B.mXNXNX=X(.^.^.' ) M N 4.9X4X4X%.! 3X3X! ! 3X4X4X8X8X8X2.` _ _ R.( S > j j Y 8 8 8 8 8 8 8 8 8 8 v *.*.*.*.*.*.) H H | ..o.4.4.:.;._ J Z.C.f.s.f.f.f.Z.A.Q.!.[.`.9X9X5.8.:.` J A A < < f.f.C.Z.A.Q.;X[.).o.o.$.$.%.5.8.7.9.9X7.*.C ..8.9X9X6.(.R.Z.D.l.l.l.M.M.$X%XNXNXAX-X+X+XF.F.M.M.M.G.$XNXNXAXZX<X|.9X9X9X9X0XyX9X#. .} #.&.#.#.o.-.-.:./.(.[.[.>X>X>X>X[.^.-. .@.$.%.#.1.1.2.^.R.R.A.A.S.W.OX$X&XMXVXSXHXHXHXLXKXLXHXfXI.$XMXCXDXDXJXSXDXAX!.3.1.3.' _ F h.c.c.x.m.m.N.N.P.dXdXkXjXjXkXN.b.N.N.sXhXhXhXhXhXhXN.x.x.x.x.g.                                                                                                                                                                                    ",
"                                                                                                                                                                                                                                                                                                              1 D / / i i p p a q p q p p p p q 4 4 4 . . . . o # > b n b b b b n b b n b S S S n n S n n n S S S D D n n n n m m m l l l l m B B B B B B B B B C C C C C C C *.*.*.*.*.*.>.-.>.-.-.-.-.-.-.-.-.>.>.>.>.>.>.>.>.-.>.*.*.| C B J =XNXmXI.I.MXVXAX#X^.R.` ` H M t  .8X4X%.@.! 3X3X! ! ! ! 3X8X8X8X7.;._ R.R.( D > x j j 8 8 8 8 8 8 8 8 8 8 j V *.*.*.*.` _ J G G V C ..1.2.^.R.A.Z.f.f.d.f.f.f.D.D.S.Q.!.^.6.7.7.`.).^.R.F < < s.s.s.f.Z.D.Q.Q.[.{.,.o.o.$.$.%.$.%.5.9.9X9.:.c t  .9.}.'.].Q.D.l.l.c.M.M.B.$XNXNXNXZX#X+X+XOXG.G.G.$XmXNXCXGXGX,X'.5.8X9X9X9X0X0XyX9.4. .} }  .| ^ ^ ) ` R.E.].[.=X>X,X,X>X(.4.5.%.5.5.5.9.7._.[.[.[.].!.#X#X%X*XNXMXFXSXHXHXHXHXHXHXBXI.$XMXDXDXJXJXJXJXSXNXE.] ' ( F 1 f.g.g.x.j.j.n.m.N.N.dXkXjXhXjXjXsXN.sXsXhXhXxXzXzXzXhXsXn.j.x.m.j.                                                                                                                                                                                  ",
"                                                                                                                                                                                                                                                                                                          , h.1 / / i p p p p p p p p g g g q q 4 4 4 . . . o # z S n b b b b b b n b b b S S S S n n n n n S S S S S S D n m n m m l l l l l l l M M B B B B M Z Z Z Z Z Z C ^ *.*.| *.*.*.>.>.>.>.>.>.>.>.=.-.=.-.-.>.>.>.>.>.>.*.*.H C C B S #XNXMXdXgXBXSXAX!._ _ _ _ V M a  .8X8X&.@.! ! ! ! ! ! 3X3X8X8X8X9.3.R.R.R.J D k x x > @ @ 8 8 8 @ @ @ 8 Y j v H *.>.*.` _ J J G D n m C :./.^.R.A.Z.f.a.a.d.f.l.D.S.Q.Q.R.G *.:._.'.(.R.Z.Z.s.s.s.s.f.C.D.Q.Q.=X[.4.#.o.X.&.$.$.%.5.5.9X9X9X-.e 5 M 6.'.[.Q.Q.S.c.V.V.M.B.$XmXNXNXNX-X#X#X%X$X$X$XmXNXCXDXGXGXGXXX5.%.8X8X9X9X9X0XyXyX7.4. . ...C V G F F Z.A.Q.!.#X,X,X,X,X.X_.8.0.9X9.9.9. X X{.[.[.=X=X=X#X*X*XNXMXFXSXSXHXHXHXSXMX$X$XNXDXDXJXJXLXHXJXDXAX#X~.T.Z.h.g.g.x.j.j.j.j.n.m.N.N.sXkXhXhXhXhXkXsXkXhXhXzXzXzXzXzXhXsXN.m.m.m.x.                                                                                                                                                                                ",
"                                                                                                                                                                                                                                                                                                      , g.g.1 2 b m a p p p p p p g g p p p q a 7 4 4 4 . . # b D S n b b b S n b S n b S S S S S n b b n S S S S S S S S n n n n n m m m l l l l l M B B B B M M M B Z M B C H H *.*.*.*.*.>.>.*.*.>.>.>.>.>.>.*.>.=.=.=.=.=.=.>.*.*.C V B l x W.AXSXBXjXSXHXDX!.J G G G V l r L 0.%.%.4X! ! ! ! ! ! ! ! 8X8X8X9X6._ ( D J S k x x % @ @ 8 8 8 8 @ 8 8 j x b B ) *.` ` _ _ _ J D D b k ) ;.(.^.R.Z.f.d.d.d.k.l.l.S.W.Q.E.J n B ) /.(.^.R.Z.f.f.d.f.f.l.D.S.+X#X[.).o.X.$.$.$.#.#.$.5.9.9.9X9X:.w O 7 *.{.].Q.+XF.M.M.M.B.G.mXCXCXNXZX#X#X#X%X%XmXNXCXCXDXDXGXGX=X4.$.4X8X8X8X9X9X0XyXtXyX_.1.*.H G S A A C.C.Z.S.+X#X,X,X,X,X.X_.1.1.+.1.2.2.6./././.[.{.[.[.=X=X*X*XAXAXFXAXFXFXCX&X$X&XNXDXDXJXJXLXHXHXHXDXAX:X*X@XJ.x.g.a.j.j.j.j.n.n.m.N.sXkXhXxXzXzXhXhXkXhXhXzXzXzXzXzXxXkXsXP.N.m.x.g.                                                                                                                                                                              ",
"                                                                                                                                                                                                                                                                                                  a.g.g.a., , : 2 k a a p p p p p g g p p q q a q 4 4 . . o > F S n b b S b b S n b b S S S S b b n n n S S S D D D D D D G G S S S n n m m l l l l l l M B B M M M M M B B C H *.*.*.P H *.*.*.*.*.*.*.*.>.*.*.>.>.>.>.>.>.*.>.>.*.H C V B l z W.AXDXHXHXHXHXFXW.S D G V B e 6 t 5.%.4X! 3X! ! ! &.&.&.@.4X8X8X8X9.` F F S S k j x j w 8 8 w j j l l l G _ G G ) ) ) ) _ _ J J D D S z n B _ (.Q.W.D.f.k.d.k.k.f.l.S.Q.Q.A.S S n m ;.(.E.A.Z.l.d.d.f.f.l.S.Q.+X=X'.#.$.%.$.o.#.o. .4.8.5.9.6X9.2.e 5 6 C (.].+XOXF.F.G.G.$XmXCXDXCXNXOXR.=X*X*XNXCXDXDXDXDXGXGX=X6.$.$.%.%.%.0.9.9.9X}.yX|. X(.R.J F A A < f.C.Z.S.+X*X-X,X,X,X<X).Z M M ^ |  .-.4.8.8.8.9.9.9./.[.!.#X#X#X*X*X%X%X%X*X*XNXAXDXDXJXJXJXLXHXDXNX*X*X&X&X&XL.n.j.j.j.j.n.m.N.N.dXkXjXzXcXcXzXhXhXhXhXhXzXxXzXzXhXkXsXdXI.P.m.x.                                                                                                                                                                              ",
"                                                                                                                                                                                                                                                                                                g.x.j.a., , : : > 2 k a p p p p p g s g p q q q 4 . . . . o b S n n n S S S S S b n S S S n S b S S S S S D D D D J D D D S G G G G S S n m m m m l l l M M M M M M M M M B V Z C *.H H H H *.*.*.*.*.H *.*.*.*.*.*.*.*.*.*.*.*.*.) H V V B v j h.AXJXLXLXKXLXDXW.S S n n m j + r #.%.4X4X3X! ! ! &.! &.&.&.%.4X%.0.1.m S b b z j x k j 8 w w l B H ) ] ;.;.;.;.;.) V V V D D D D D S z x j > S ].Q.S.S.k.k.k.k.k.l.S.S.Q.Q.F S n l l ` ].R.D.l.l.d.d.l.l.S.S.+X=X[.4.$.$.#.}  ... . .4.4.8.8.7.|./.w 5 6 v ^.!.+X+XOX$X$XmXNXCXDXDXDX*XC.R.=X*XNXCXDXDXJXJXDXGX>X6.o.#.$.#.#.4.8.9.9.}.|.XXXX>X[.T.Z.A < < s.f.l.S.S.OX*XZXZX,X<XpXtX6.*./ |  .8.8.8.5.5.0.0.0.8._.(.[.[.!.#X#X#X#X*X*X*X*XAXAXAXDXDXJXJXHXVX&X@X&X&X&XgXgXgXI.V.j.j.V.m.N.B.dXfXjXcXcXcXzXhXhXkXkXkXhXhXhXhXhXsXP.sXsXsXP.P.x.                                                                                                                                                                            ",
"                                                                                                                                                                                                                                                                                            a.j.j.j.a.p.3 , : : : > % w a a p p g R R s p q 4 . $ $ . . . w n n n n n n S S S S S S S S b b S S S S S F D D D D n k % % j k z b n G G G D n m m m m l l M l l t y r c B B V V V C H H H H C C H ) ) C H H H H ) ) H ) ) ) ) ) ) ) H C V V m l j < NXJXLXKXKXLXDXS.S S n m k > # + } 4X4X4X3X! ! ! ! ~ ~ &.&.&.%.%.0.5.V b z b z > x z k j w j l V *.;.=.=.=.=.-.-...^ V M l m n S S S z j j j > b R.Q.S.l.k.k.z.k.l.l.F.+XQ.Z.S n m l b _ Q.Q.D.l.d.d.l.k.l.S.+X+X=X).$.5.#. . . . .-.=.=.:.2.).'.|.^.8 6 6 j R.!.+X%X%X%XmXCXCXDXDXDXNXZ.S E.=X*XNXDXDXJXDXGXGX>X<.} o. . . .-.-.2.)._.'.XX>X>X>X#XW.C.C.f.s.f.l.l.D.F.%X*XZXZXZX<XyXyXyX_.;.=.6.8.9.9X9X9X9X9X9.}. X'.[.[.[.=X=X=X=X=X=X-X-X*X*XNXNXNXMX$XL.S.S.OXOXU.gXfXgXMXmXI.B.M.I.I.dXfXjXjXzXcXcXcXjXkXdXdXsXsXsXsXaXb.N.N.N.sXsXsXdXP.j.                                                                                                                                                                          ",
"                                                                                                                                                                                                                                                                                        g.x.j.j.p.w.w.3 3 3 : : : : % % a p p i R R s p q           $ . w n n n S D D S D D D D D S S S S S b S S F F F D D D k # o @ j w j > > > z n D G D n n n m l l t r r r r t M V G H H H H H H H C V C H C C C C H H H C H H H H ) ) ) ) ) H V V V m k > : $XLXKXKXKXLXFXZ.A b b z z > # o u %.0.%.@.! ! ! W ~ @.&.&.%.%.%.0.0.| % k 2 z k x k j j w l B C ) ;.3.-. . .} } }  .| N M e k k z n k j x j j @ k R.W.D.l.z.z.z.k.l.F.+XQ.A.S D B m m n R.Q.S.D.l.d.d.k.k.l.F.+X=X.X8.$.#. . ...*.*.) ' ' ;./.(.'.XX;.9 6 6 9 ` !.+X%X%XNXCXDXJXJXDXZX[.J S ].-XAXAXDXDXDXGXGX>X6.o.o.}  .=.=.) ` ` E.(.[.=X>X>X,X*X+XD.C.C.l.l.l.l.F.%X*XZXGXGXZX<XXX|.XXXX/.' G C Z N N C C C ) ) ) G ` ;.;.` ;.;./.^.(.].].!.#X!.W.c.c.h.c.g.x.M.M.I.I.fXfXMXMXgXI.I.dXdXfXjXjXjXzXzXzXhXdXm.j.x.v.v.v.v.v.v.n.N.P.sXsXkXsXN.                                                                                                                                                                          ",
"                                                                                                                                                                                                                                                                                    j.x.n.j.j.i.w.w.w.3 3 3 3 3 * : : % m u i i p p a               $ % m n n n S S S D D D D S S S S D S S S S S F F Z.T.( b % % b b % % w % # % % > > b n n D D n l l r r r r M B C H H ) ) H H J J ) H V V H V C C H C H H C H H H H H ) ) H H H G V m l k > > J.JXKXKXKXKXMXh.A S b z z > @ o % #.8X0.%.&.&.&.} X.} &.#.%.%.%.0.9.8.r w z z x k x j j l l l V ) =.-. .{ } X.X.X.o. . .-.*.C M k l x w l x k z j n R.S.S.l.z.z.z.l.F.+X;X].G B V B B m S R.Q.D.l.z.z.z.l.l.F.+X=X[._.8.#.#.} ..| ) ) G G J ;.^.(.{..XR.j 9 6 9 J !.#X*XNXDXDXJXJXDX,X<XXX*.V ].,XZXGXGXDXGXGX.X4.#.#. .-.*.) G G J A.R.Q.!.#X#X-X*X*X#XQ.D.D.D.S.D.F.%X%XNXNXAXGXZX<XXXXXXXXX[._ m w + o + 8 w e B m B B ^ | N N [  . .-.-.=.' R.( Z.h.f.f.f.k.k.x.m.M.I.dXfXMXfXfXgXMXgXdXgXfXfXfXfXfXfXP.m.x.a.p.i.i.i.v.v.v.n.N.sXsXkXkXkXdXN.                                                                                                                                                                        ",
"                                                                                                                                                                                                                                                                                x.x.m.m.v.i.i.e.w.w.3 3 3 3 3 - - : : > m m a a a                   % m V m n D D D S S D D D S S D D S S S S S D F Z.W.W.F > > T.E._ b > j # o @ @ % % % % k l n l l w w r e B ) =.;.;.;.;.:.` J J _ G G V V G V V V V C C H V V V V C V C H H H G V B m m z > > h.SXKXKXKXLX*XF z b b z z > % # o [ %.8X%.&.&.&.+.} +.+.+.1.4.4.5.9.9.M # w l l j x j l l m B B ^ =. .} } X.O.O.X.X.o.o. .-.:.-.*.B k @ j x n S S m J Q.S.F.M.V.V.M.F.+X;X[./.) V V V B v J Q.W.S.l.z.z.l.l.F.+X=X[._.8.$.#. . .*.) ) G S K J R.R.^.[.[.R.x 6 7 0 J Q.#X-XCXDXJXDXGX<XyXuXyX).G R.>XGXGXGXGX,X'.$.$.$.#.-.) _ G F F Z.Z.Z.A.Q.#X*X*X*X-X*X+X+XS.F.F.F.%X%XNXCXDXGXGX,X>XXXXXXX<X<XXX|.2.C M l t M B M M Z N L [ [ [ {  .}  .=.' _ F Z.h.f.f.d.k.k.k.j.V.M.I.dXfXfXjXjXBXMX&X&X&X&X&X&X&XOXh.g.x.x.j.i.v.v.v.v.n.N.N.sXsXkXhXhXkXsXm.                                                                                                                                                                      ",
"                                                                                                                                                                                                                                                                              x.m.m.n.v.i.i.e.w.w.w.3 3 3 w.3 - , : : > > %                       > n m m n D D D D D D D D D D D D D D n n S D D 2 L.MXW.< < W.@X#X~.R.S % # @ # # @ % @ % % % k w w w w w l ) ] =.;.2.2._.2.;._ J J G V V V V V V V V V V G V V V V V V C V H H G V V n m z > > < MXKXKXKXLX@X< z z b b z > > # o a %.0.0.%.&.+.+... .....=.3.3.2.7.}.;.+ @ w l x x x l m B B ^ | | } } } X.O.O.X.o.o.o.4.1.1.2.2.2.;.B j b n n H *.H R.Q.OXF.F.F.G.$X%X=X.X'.).>.H V V B x A.Q.F.F.l.l.S.F.G.%X-X=X'.8.$.#.,.-.=.' _ J K S S J R.R.E.[.[.^.B 9 0 9 B Q.=X-XAXDXGX-X.XtXyXyXyX|.) S =X,X,X,XXX6X5.%.%.5.2.' _ J F Z.C.C.Z.D.S.OX+X*X*XNXZX-X#X+X+X%X+X%X%XNXCXDXDXDXAX,X=X>X>X<X<X<XXXyX9X9.7.7._.}.`.7.4. .[ [ R { } }  .+. .^ ' _ Z.Z.f.f.d.a.j.k.z.V.V.B.I.dXfXjXjXjXBX&X#X~.@X@X&X&X@XJ.J.x.x.n.m.m.m.n.N.N.N.N.sXsXkXhXhXhXhXsX                                                                                                                                                                      ",
"                                                                                                                                                                                                                                                                          x.m.N.N.N.v.i.i.e.e.w.w.w.w.w.w.w., , , , : :                         2 D V n m D D D D G J J D D D S D S S S D D G m > c.SXSXL.g.L.FXDXAX@X[._ # o o o o % > % @ # % k w r 6 + w V ) =.=.-.1.2.6.6.2.;.) G G V V n n V V V V V B G V V V V V V V V V G G V B m b z z > > L.LXKXKXLXW.< > z b b > > > % o + +.0.0.5.+.+.=.=.^ ^ ) ' ' ;././._./.w o @ j b x l b n ) ) =.| | } } X.X.X.X.o.#.4.1.-.=.:.:./.(.(.(.^.G n G ) :.-.*.R.+X+XOX$X$XNXNX*X[._.6.6.:.) H V l x Q.+X+XF.F.F.G.%XNX*X-X{.8.5.5.8.4.=.` J S A A A F Z.R.Q.!.[.[.{.*.c 9 e B R.[.,XZX-X=X{.9.9X9X9X9XtX:.c S R.^.).6X6X6X9X9.8.:.R.A.Z.Z.C.f.f.l.S.S.OX%X*XNXNX-X-X=X=X-X*X*XNXNXDXDXDXJXDXAX*X+X#X>X,X,X,XXX|.9X9.9.9.}.`.}.yXyXyX9X5.%.$.#.#.+.1.=.' _ A.Z.C.f.f.d.j.k.z.V.M.B.I.dXjXjXcXjXjXVX%X~.W.OX&X&XU.I.U.K.m.m.m.N.N.N.N.N.N.sXsXsXkXhXhXhXhXkXN.                                                                                                                                                                    ",
"                                                                                                                                                                                                                                                                      a.m.P.P.N.N.n.v.i.e.e.w.w.w.w.w.w.w.a.a., , :                         m D / ^ V V G D D D D _ _ G D D D D D D S D D G B 6 # $XKXLX&Xc.FXLXLXDX*X!.z o $ > 1 Y.~.R.k @ % l l l e w w l Z / =.-.-. .1.1.6.2./.;._ G n G D n V G G V n n n n V V B B B V V V G G V B m z k k > > g.SXKXKXSXh.2 z z z b z > > % # o N 9.0.8.4.1.=.' ' ) _ ' _ R.R.^.(.{.G o # + j b l b n _ ;.:...[ R { E X.X.X.o.-.1.=.=.;.;.;.^.(.(.(.(.(._ J ) 2.,.} >.Q.+X%XNXCXCXNX*X[.6.8.6._.;.) H B j K Q.+X+XG.OX%XNXNXNX-X[.).5.5.8.8.=.) D S A A A A C.C.A.Q.].[.{.`.6.P c c Z U ^.].].^.6.8.5.8X8X9X9X0X8.c 7 9 y L o.6X9X9X7.).^.R.Z.Z.C.C.f.l.l.D.F.OX%XNXZX-X-X-X=X-X-X-XNXCXDXJXJXJXDXDXmXOX+X#X-X,X,X>XXX}.9.9X}.|.}.}.7.9.9X9X9X0X9X9X0.5.4.2.3.^.R.T.Z.f.l.l.k.k.c.V.M.B.dXgXjXlXcXcXcXjXfXL.c.L.U.I.gXgXI.U.L.m.m.m.N.N.N.N.N.sXsXsXkXkXhXhXhXhXm.                                                                                                                                                                    ",
"                                                                                                                                                                                                                                                                    x.m.P.sXsXN.N.b.v.v.i.e.w.w.w.w.a.a.a.a., ,                         / 3.2.3.) ^ G _ _ _ ( _ _ _ _ _ G D D D G D D D G B r 6 # U.LXLX*Xc.MXJXLXDX#X( @ o , &XAXMX@XY.S % k n m l l l l M Z ^ |  . . .+.+.1.4.2.;._ n m n D D D G G G G B n n B V V B B B B B B B n B n b z k > > < &XHXSX$X1 b b z b b z > > > % X % +.9.7.2.=.] ' _ D S D F A.T.E.!.[.(.@ o # 8 j j l m V ;.3. .{ T X.W X.X.} -.-.=.=.;.` _ R.R.R.^.^.(.(.[.^.` :.6.o. .^.Q.*XZXNXDXNX-X[./.6.6._._./.) V x j K Q.+X%X%XNXCXCXNXZX].>.,.5.5.$.-.) D F A < A A A C.Z.A.Q.[..X`.7.7.-.C Z P N C *.-.4.#.#.%.4X8X8X9X9X7.Z 7 0 0 y u o.6XtX`./.E.R.A.Z.C.f.l.l.l.S.F.%X*XNXZXZX,X>X=X=X-XZXAXDXDXJXJXJXJXMXF.S.W.#X*X,X,X,X<X|.9.}.|.|.|. X|.9.9X8X9X9X9X9X9X9.7.6./.(.!.Q.W.S.S.S.F.F.B.I.I.gXfXBXcXcXcXcXcXjXdXm.m.L.U.I.gXgXdXU.m.m.m.m.N.N.N.B.P.P.sXsXsXkXkXkXP.                                                                                                                                                                      ",
"                                                                                                                                                                                                                                                                  x.P.sXsXnXsXN.N.b.v.v.i.i.i.i.i.i.j.g.a.,                         1.8.9.}.9.=.^ ^ _ _ _ _ _ _ _ _ _ _ G G G _ _ _ D b b r r 7 6 < @X@XZ.: J.AXDX*XT.> # X &XLXLXSX&X~.D % n D m l l l r M N ^ | |  . . . . .-.3./.) k k k k k b b n G G m l l l B B l l B B B B B n n n b z > > > > h.&X@XZ.b b b z z b b > k > > X o / 8.9.2.3.` _ F F F F F Z.Z.W.!.!.[.F # # @ j l l b n ;.2...{ { X.E X.X.}  .=.=.` ` J A.A.R.R.R.R.^.].[.[.;.:.6.4.$.,.^.=X-XNXNXZX-X[.;.:.2._._.'./.H B j Y J Q.+X%XNXCXDXCXZX;X;...4.6X8.6.=.G F A < < < < C.C.D.Q.[.[.).5.6X5.6.:.:.*.*.....o.o.X.@.%.4X4X8X9X9X9X..y r r 7 y p ,.`.'.[.Q.Q.D.D.C.l.l.l.S.F.$X*XNXNXZX,X<XXX[.=X-XAXAXDXJXJXJXJXVXM.D.S.OX+X*X,X,X,X<XoX X XoXXXXXXXoX}.7.9X9X9X9X9X9.9.}. X(.[.!.Q.+X+XOXOX$X$X$XmXMXBXBXcXcXHXcXcXzXkXn.j.m.m.P.P.sXfXgXI.N.m.N.N.N.N.P.P.P.P.sXsXI.N.m.                                                                                                                                                                        ",
"                                                                                                                                                                                                                                                                j.N.sXsXnXnXsXsXN.N.m.m.n.n.j.j.j.x.g.g.                          3.9.9.9X}.9.3.] ' ` _ _ _ _ _ _ _ _ _ ( _ _ _ _ G B l t r r r 7 w w l w # # 1 F > % % # * I.LXLXSX&X!._ % S n l l k w M Z / ^ | | .. . . . .-.-.:.) l k w % k x j F A.S x j l l e 9 e r l m n m m n n n n z k > > > > Z.Z.F F b b z z b b z > > > # o r 8._./.] R.T.F Z.Z.1 < Z.S.W.W.Q.!.R.# # # @ j l x m ;.2.=. .X.X.X.X.} }  .=.' ` J F Z.Z.A.R.R.R.R.^.[.[.(.:.<.,.$.#.6.{.=X-XZX-X[./.' ;.^.(.(.{./.;.V j 8 8 K Q.%X*XNXDXCXZX].^.>. .$.5.8.3.` F A A < < s.f.C.Z.S.Q.[.[.`.5.5.8.6.6.4. . ...X.o.@.&.$.%.4X4X8X8X9X9X,.M e e e 0 y P :.(.[.Q.Q.W.D.D.D.D.D.F.OX%XNXZXZX,X<XXX}.XX>X,XNXCXDXJXJXJXBXV.l.l.S.F.%X*XNXZX-X=X[.(.[.[..X>X>X.XXX`.7.9.9X9X9.9.}. X.X[.!.!.!.#X@X@X$X&XmXMXMXBXBXBXSXHXcXcXcXhXb.v.n.n.N.N.P.dXdXdXP.N.m.P.P.N.P.P.sXdXsXsXm.                                                                                                                                                                            ",
"                                                                                                                                                                                                                                                                  m.N.sXnXnXsXsXN.N.N.m.m.n.x.g.g.                              / 1.9.}.9X}. X2.] ' _ _ ' ' ' _ _ _ _ _ _ _ _ _ G B B M y q y y y t M t w + + % o o > + + # , MXSXFX@XE.l o z n l w w w M C ^ ^ | | | =.=.=.=.=.=.:.H k j % % j z W.AX,XZ.@ l l 9 6 6 7 w w l B n n n S n z z j > > k x j z S S S n b b n b z > > > % # @ 3._.(.E.E.T.Z.h.h.f.s.f.c.c.W.W.Q.!.z # # + w j x w B =.-.} } X.X.} {  .-.;.` R.J F F Z.Z.Z.A.A.A.R.Q.[.[.^.:.,.o.$.4.6.(.[.=X[.(.^.R.R.R.^.^./.(.(.H c l e l K Q.=XNXNXZX-XA.U >. . .4.7.).^.R.C.A < s.y.s.s.f.D.Q.Q.;X{.4.$.$.5.7.8.,.,.o.O.O.X.X.X.@.@.4X4X8X8X9X9X8.M e e y e e c ) (.[.Q.Q.Q.S.D.D.S.F.OX%XNXZXZXZX,X<XtXyX|..X>X*XAXDXDXVX$XV.z.l.c.F.F.%X*XNXNX*X#XE.E.!.[.=X=X,X>X.X'.7.5.8.8.7.8.'..X[.#X#X[.[.[.#X@X$X&XmXMXMXBXjXjXcXcXcXcXjXN.v.v.v.n.n.N.sXsXsXsXsXN.N.P.I.P.sXsXdXdXP.                                                                                                                                                                              ",
"                                                                                                                                                                                                                                                                    n.N.P.P.P.N.m.m.m.x.g.g.                                  > =.9.tX}.tX|.|._.3.' ' ' ' ' ' ` _ _ _ _ ' ' ' ' ) C N p p g d d d L L i r . % + + w w + + O o = h.Z.F % $ $ # l l e r r M V / / ^ ^ ' ' ' ' ;.=.=.=.C w + # % z W.DXLXJXW.> x 9 7 6 7 6 8 8 x S n n n n n z x w j j j 8 w j k n n n n n n n z z z > % @ o m (.(.E.E.T.h.c.l.f.f.f.k.c.c.W.W.Q.Z.# @ % + j l k e C =. .} X.X.{ }  .=.` R.F F F F Z.A A A C.A.R.R.Q.[.^.>.-.,.$.#.4.6.).(./.R.R.R.R.R.R._ R.^.{.(.B c c e c K A.;X*X-XQ.K B U >.,.o.,.)./.^.A.C.f.s.s.s.s.f.f.D.Q.].[.<.o.$.5.6X6X5.4.#.} f f E W X.X.@.4X8X8X9X8X9X8.Z t t t t c Z H ^.].Q.Q.+XQ.F.F.OX%XNXNXNXZXZXZX-X^.8.9X}. X.X>X*X*X&XM.z.l.l.z.M.F.%X&XNXNXNX*XW.W.W.Q.#X#X*X,X,X>X.X6.2.6.2./.(.[.[.#X#X#X[.{./.E.W.OX$XMXMXMXfXjXjXlXcXcXhXN.v.v.v.n.n.m.N.sXsXkXkXsXP.sXsXkXkXkXsXN.                                                                                                                                                                                ",
"                                                                                                                                                                                                                                                                            j.g.                                              ] 0.9.9.9.9.}.}.2.3.] ] ] ] ] ] ` ' ' ' ) ^ ^ =.=.=.[ p p g R { { } } { g 4 O r + 6 w + + O O O o o # o $ $ $ $ # w w r r M C / ) ' ' _ _ _ R.R.' ' ;.) w # # > W.FXLXLXLX#XK j 9 9 7 7 7 8 j S D n n n n n k w j j 8 8 8 8 j z n S n n n n n b z z k > % # % E.(.!.~.W.c.c.k.d.d.k.k.c.M.OXOXW.Y.> w w l l l l r r ^ -.o.} } } }  .=.` J F A F A A A A A Z.Z.Z.A.Q.Q.].K -.o.%.5.4.4.6.:.` _ J Z.Z.A.A.J R.R.].[.` x c c c c x K J R.J V H >.>.,.>.I >./.(.Q.Z.C.s.s.d.s.s.l.D.D.Q.[.{.,.$.%.6X6X9X9X6Xo.{ f T W X.W W @.4X%.9.9X9X9X7.P c c Z Z C B B ` ^.].Q.+X+X+X%X*XNXZXGXGXGXZX,X!.m Z 3.'.oX[.!.!.W.S.l.l.l.l.F.G.$X%XNXCXNXNX$Xc.S.S.W.+X#X*X-X,X,X[.(.;.] R.R.!.!.#X#X#X#X[.'._.(.~.OX&XMXFXSXHXHXKXbXvXcXsXb.v.v.n.n.n.N.sXsXkXkXkXsXP.sXsXkXkXsXm.                                                                                                                                                                                ",
"                                                                                                                                                                                                                                                                                                                            m 1.9.9.9XyXyX|.9.3.3.=.;./.(./.(./.3.=.^ N |  .1.1.} i p f T W X.X.} T R p 4 4 r w e 6 O . . O O o # # o $ $ $ o . O O @ r m / / ( ( ( T.T.T.Y.R.R.R.R.` l o # F @XSXHXLXDX+XA 9 7 6 6 6 6 8 j S n n n n n m k w j 8 6 5 8 8 @ j n S n n n n n z z z k > > & X D E.!.W.W.S.c.k.j.j.k.j.x.M.F.OXOXQ.F k l B B B C C M t |  .} X.X.} -.=.` A.Z.f.A C.C.A A C.C.C.Z.Z.D.Q.].K Z -.$.$.4.4.2.=._ J Z.Z.Z.Z.Z.F A.R.R.Q.].B c c t c c c c V H >.:.6.:.>.H P I *.).].R.D.C.f.d.d.d.d.C.D.Q.]..X).$.$.$.5.6X9X9X6X$.o.X.E X.W W X.@.$.5.5.9.9.}.'.H B C Z N C Z Z P ^.].#X;X-X*XZXZXZXGXGXGXGX,X<X'.V n ` /.(.[.!.Q.Q.F.F.F.F.F.G.$XmXMXCXVXMXMXM.c.c.S.S.OX%X*X*X*X*X#XR.R.R.Y.Y.W.W.@X@X@X#X#X[.'.'.!.&XMXSXHXLXKXKXIXbXbXcXaXb.n.n.n.n.N.aXsXkXhXhXdXP.L.P.N.N.                                                                                                                                                                                    ",
"                                                                                                                                                                                                                                                                                                                          1.0.0.0.0.0.9.9.9.8.3.2.2.2.(.(.(./.3.../ R [  .5.5.} g p R W X.@.$.@.} T R a 4 7 r M e 6 5 5 . O + # # # o $ $ $ . . o $ o r m D ( ( F Z.Z.Z.T.T.T.Y.Y.R.R.n o # T.*XFXSXSX&XZ.j 8 6 6 6 6 8 8 j m m m m n m b k w w 8 6 6 + 8 @ @ j n n z b n n b b z z k > % # > R.!.W.OXF.c.x.j.j.j.j.z.M.M.OXOX+XE.G M Z | | -.:.-.Z t [ } O.O.o.-.=.` F Z.f.s.f.C.C.f.f.C.C.C.C.D.Q.].A.+ P 4.4.-.:.:.;._ Z.Z.Z.Z.Z.C.A Z.A.R.R.].R.x c t t c c N C >.6.6.`.`.6.v t y u U /.].Q.D.C.l.l.z.d.f.C.D.Q.[.{.4.o.#.$.$.5.5.9X9X6X$.X.X.X.X.X.} o.o.4.6.`.|.|.{.` H H H H Z Z P *./.].[.;X-X-XZXZXGXGXGXGXGX<XuX}.) z G ` ^.!.Q.Q.+XOXF.F.G.G.$XMXVXVXVXBXVXI.V.z.l.c.S.F.%X*XNX*X*X+XW.T.Z.Z.h.S.W.OXOX$X&X*X=X[.[.=X*XNXSXJXLXKXKXbXbXcXkXm.n.n.n.n.N.aXsXkXhXhXkXgXL.a.                                                                                                                                                                                        ",
"                                                                                                                                                                                                                                                                                                                        =.9.0.0.9.9X9.9.9.1.1.1.2._._. X_.2.+.} T R X.#.5.5.} d p R W ! @.@.%.+.R R a 4 4 r M Z r 6 6 6 5 5 + + + # o $ o o o . . $ o k n D F F F Z.Z.Z.Z.Z.Z.T.Y.Y.R.J @ z R.#XNXMX@XZ.> @ 6 5 5 5 6 6 8 j n m b m m m k j % 8 @ + + + + + @ 8 j b n b m m m m b k k k % % # F !.OXOXOXM.x.j.j.j.j.j.V.M.F.OX+X!.` .. .4.$.#.o.o.o.[ d } X.o.o. .=.` J Z.C.< f.s.s.s.l.l.s.f.f.D.W.+XQ.= 6 -.4.-.:.;.` J Z.Z.C.C.f.C.C.C.Z.Z.R.Q.^.K v c c c Z P C >.<.4.7.tXyX6.e 0 0 y P ].].A.D.D.l.l.l.z.D.D.+X;X{.,.o.X.o.#.4.8.7.}.}.wX8.#.X.}  . . ...=.:.).'.XXXX{.` H ;.^.>.>.>.>.:./.(.;X=X-X-XZXZXGXGXGXGX,XyXyX|.S # w b _ R.Q.Q.+X+X+X$X$XmXMXVXBXVXBXVXMXm.z.k.l.l.F.G.%XNXNXNX*XOXc.h.c.c.l.c.c.F.OX&X&X&X*X=X[.#X*X*XAXAXDXJXHXHXjXsXN.n.n.n.N.N.sXsXkXhXhXhXfX$XT.1                                                                                                                                                                                       ",
"                                                                                                                                                                                                                                                                                                                        +.9.%.0.9.9.9.9.9.1.1.8.}.}.2.7.6.} W T R W @.%.5.[ i i R Q ~ @.%.%.} M r a 7 . 4 t | Z y r 7 4 6 6 6 8 + + . $ . o o o $ $ o k n D F F h.h.c.c.c.c.c.S.W.Y.T.Y.T.Z.T.!.#X+XZ.A Y 8 + 5 5 5 6 5 8 j n n b m m b k j w w @ + O + + 5 5 6 @ j k b m m n m m k k k > % # > T.W.OXOXM.c.k.j.j.j.j.k.M.F.OX+XQ./.4.6X6X6X$.X.{ X.X.{ f { o.o. .*.` A.Z.C.< < ; s.d.d.d.y.d.l.S.W.+XQ.j o t -.:.:.;.R.R.Z.C.f.f.f.f.f.C.C.Z.A.Q.].J v v c c Z Z C -. .,.4.6X9X6X>.7 0 0 y P ].Q.D.D.D.l.l.l.D.D.+X;X[.). .} }  .,.4.8.`.}.}.`.8.#.} | | ) H H ` ^.(.[..X.X[.R.^.^./.^.6.6.6.6.6./.[.=X-XZXZXGXGXGXGX,XXX}.|.XXS o O # > b A.Q.+X+X%X%XmXMXVXVXVXVXBXMXB.j.z.k.l.M.F.G.$XNXCXNXMXL.x.c.k.k.k.k.c.F.$X&X&X&X*X#X#X*X*X[.oX.X[.#XOXL.B.m.m.N.N.N.aXsXkXhXhXzXxXhXfXOXH.H.h.                                                                                                                                                                                  ",
"                                                                                                                                                                                                                                                                                                                      ] 5.9.9.9.9X9.9.+.+.8.9.}.}.}.|.}.#.E T T W W &.%...p p i T W ! &.%.+.        o . a -.-.L t r 7 7 7 6 6 w # # . . . o o . $ $ o k S F 1 h.h.h.c.x.x.c.M.c.c.W.Y.Y.#X#XW.T.J A A j @ + O 5 5 5 5 5 @ j z k b b b b z j w j @ O O O O O + + + @ @ k b m m m m z k k > > % # 2 W.W.OXM.M.j.j.j.j.j.j.M.M.$X+X!.(.8.4X$.&.X.W W W O.O.X.T { o.-.:.R.A.Z.C.< < ; y.d.j.d.t.y.z.D.S.Q.Q.j + 6 c -.-.;.R.T.Z.f.f.f.f.f.l.f.f.f.A.A.Q.R.K v Z N Z Z M L I o.o.6X6X6X6XP 7 0 0 y U ].].D.D.D.l.D.D.S.+X;X;X/...{ { ..-.,.<.6._.`.}.`.8.-.| ^ H H J J A.R.].[.=X=X[.].[.{.).).6.8.8.4.4.6.{.[.-X-XZXGXGXGX>X'. X XXX[.F # # # # @ x R.Q.+X%X&XNXVXVXVXHXVXVXB.z.z.k.l.c.M.G.$XmXMXVXMXmXM.k.k.k.k.k.z.c.M.$X$XmXMXMX*X*X#X=X.X`.7.6.E.Y.J.M.B.B.N.aXsXsXkXhXzXzXzXhXhXU.J.c.c.c.g.                                                                                                                                                                              ",
"                                                                                                                                                                                                                                                                                                                    / 9.%.%.%.0.9.9.9.9X9X9X9.9.tXyX}.#.T E R W ~ @.5.^ r l p q.R ~ &.&.+.          $ + -._.-.L u y 7 7 7 6 e l # + . . o # O . . $ o > S F 1 h.h.c.x.x.x.V.M.M.M.M.W.W.@XAXOXS + o x = + + 5 5 5 5 5 @ @ > k > k z b b z j % j 8 # O O O O O + + + + w b m m m v m b k k > % > > T.W.OXM.M.V.n.j.j.j.j.M.B.$X%X#X(.5.4X@.W W @.@.! ! @.@.O.{ { ..:.^.R.A.Z.f.< ; y.t.u.u.u.u.z.l.F.+XQ.A 8 6 6 t | ;.E.R.Z.Z.f.f.f.k.f.f.f.f.D.A.Q.].J C C N N P I L { o.$.$.@.4X4X6XP 0 0 0 h >.].].S.D.D.D.F.F.%X-X;X{.*.P [ ..-.>.*.>.).)._.'.'./.*.^ H J K J Z.Z.R.Q.#X=X=X!.Q.^.^.).`.`.7.4.#.$.4.6.(.=X-X,XZX-X[.(././.[.[.[.F = # # # @ = F Q.+X%X$XmXVXVXSXVXVXmXM.z.l.l.M.F.G.$XmXMXVXBXMXmXV.k.k.l.k.l.z.M.M.I.$XMXMXMX&X&X&X*X[./.8.8.6.(.~.J.M.N.N.sXkXkXhXxXzXzXzXjXdXP.x.x.x.x.x.h.                                                                                                                                                                          ",
"                                                                                                                                                                                                                                                                                                                  ] +.0.9.0.9.9.9.0.0.9X9X9.9XyXyX9.+.T E Q W W @.5.) > > b / / } ~ &.&.              m `.7.4.[ p y r r r r M e O + . . o # O . . . o % S F h.h.c.c.x.j.n.m.m.B.B.M.L.W.@X&XW.> $ # j @ + 5 5 5 5 5 5 @ @ > > @ = > k n z x @ j w # O O O O O O O O + @ j m l m m m m m b k > > = 2 W.S.M.M.M.V.n.n.j.n.V.B.$X%X#X(.8.4X! Q ! Q Q Q Q @.@.@.$.} N C ^.E.R.Z.C.f.s.d.a.j.j.u.u.z.l.F.S.Q.A 8 7 6 6 e V R.Q.A.Z.l.f.k.k.f.d.l.f.C.D.Q.].^.H H H P U I I } O.O.X.E 4X4X6X8.y 0 0 0 I :.].].+XF.F.F.G.%X-X;X].P L L P P H H U >.^./.{.XX'.^._ G J F C.Z.C.Z.A.Q.#X#X=XR.K H >.`.wXwX5.%.$.$.#.#.6.(.[.[.[.].R.R.E.E.!.!.#Xh.= # # @ # # > Z.Q.OX$XMXVXVXVXVXmXG.F.F.F.F.F.G.$XmXMXVXVXBXMXI.z.l.l.k.k.z.V.M.B.I.dXMXMXMXMX&X&X%X[./.8.8.7._.E.W.L.P.P.sXkXhXxXzXzXzXjXkXP.m.j.j.x.x.c.c.                                                                                                                                                                        ",
"                                                                                                                                                                                                                                                                                                                / 9.0.9.9X9.0.9.9.9X0X0X9X0X0X0X9.} R R W W W @.$.` < : 2 1 F ' ] +. .                2.}.5.4.[ p q y t t M V w O O . o @ + O . . . . # b F h.h.c.x.V.n.n.N.N.sXdXI.L.OXW.Z.> $ $ j j 6 O O O 5 5 5 6 8 @ > F b > > F F z k + + w @ O O O O O O O O + + 8 j m m n m m m b z > > > = Z.W.OXM.M.V.n.n.n.n.V.M.$X%X#X[.8.&.Q ! Q Q Q Q W 4X@.$.$.#...t l R.E.R.Z.C.f.d.d.k.j.j.j.V.V.F.F.Q.A 8 7 7 7 7 e ` Q.Q.D.l.k.k.k.k.z.d.l.C.D.Q.].^.>.>.*.U >.I } O.O.X.X.W @.4X4X4X..0 0 0 h I ).].+X+XF.%X%XZXZX-X[.-.L Z Z N C K K H ;.^.]..X.X[.E.J F C.C.C.C.C.D.S.+X#X#X=XJ x B H 6.tX9X6X6X4X$.#.o.-.=.=.;.` _ T.T.Y.W.+X#X#Xf.= # # @ # # # x A.Q.%XMXVXVXMX$XOXF.F.F.F.G.$X$XMXMXVXVXVXVXmXF.l.l.l.l.c.M.M.B.I.dXfXBXBXMX&X&X&X#X[.2.4.8.5.8.oX~.J.L.P.dXkXhXxXzXzXhXsXP.P.m.i.j.j.x.c.x.g.                                                                                                                                                                    ",
"                                                                                                                                                                                                                                                                                                                3.tX9X9X9.9X9.0.9.0X0X0X0X0X9.4.../ q.R R E X.4.R.< , , g.h.h.( ' '                 ( 9.9.5.o.d u u u u P | C 6 . 5 . # w + O O . . O o > F h.h.g.x.V.m.m.N.aXsXkXdX$XOXZ.o $ $ o j 8 + 6 5 O O + 5 8 @ = A W.OX$XMXSXMXOXA @ @ w + + O O O O O + + + + + + x b b m m m n b z > > > < W.W.OXM.M.V.n.n.n.V.M.$X%X*X=X).X.W W ! Q Q W W &.&.$.#.#.4.-.M k R.R.R.Z.D.l.l.l.z.V.V.V.M.G.OX+XA 8 9 7 e e 7 v R.Q.D.l.k.k.k.k.d.d.k.l.D.Q.].{.>.>.*.P -.} } O.X.E E X.E W @.4X7XI 0 0 0 I ,.{.].;X-X-XZXZXZX-X[.6.{ L N C C K K J J A.R.].[.=X=X!.Z.C.C.C.C.C.C.S.OX+X+X#X#XA x K Z P 8.yX9X6X4X$.#. ...^ ' _ F Z.Z.Z.S.OXOX+XOX< = # @ @ # @ # @ z Z.@X&XNXOXOXQ.Q.OXOXOX%X%X%XMXCXVXVXSXVXMX%XF.S.S.S.M.M.M.B.I.dXBXjXjXfXMXI.$X@X+X].:.:.1.1.2./.E.W.L.I.dXkXhXhXhXkXsXP.P.P.v.i.j.j.j.m.c.g.                                                                                                                                                                  ",
"                                                                                                                                                                                                                                                                                                              3.9.9X0X0X9X9.9.9.0X0X0X0X9X8.^ V m / q.R T } -.R.f.a.a.a.g.c.J.H.F                   2.9.0.$.{ d L { [ [ | =.Z . . . . w w + O O O O O O > F Z.h.c.x.x.m.m.N.sXsXkXdX$XOXF . $ $ @ j 8 + w 5 O + 5 6 + @ = C.OXmXVXHXLXLXSXZ.# @ w 8 + O O O O # 8 8 + + @ @ j b b m m m m b z z > > > < W.OXF.B.M.V.n.n.V.M.$X%X*X*X{.o.W W @.@.X.X.X.X.#.o.o.4.4.6./.G k A.Q.R.D.D.S.D.M.M.M.B.$X$X%X+XK 9 e e e e 7 7 J Q.S.D.k.k.d.d.d.d.z.l.D.Q.].{.:.>.>.-.-. .{ T T E E E E E O.@.4X7Xu 0 0 h ,.).].;X-XZXZXZXGXZX<XwX4.} P C C K K K J J A.A.Q.;X=X=X+XZ.C.f.f.f.l.D.S.OX+X+X=XQ.A x c c M ..6X9X4X%.%.o.-.) _ D Z.Z.f.f.c.c.OXOXOXOX< = # # # # # # # # = > < A < A J Q.Q.+X+X%X%XNXCXVXVXSXDXCXNX%X+X+XF.F.F.G.I.I.fXfXjXjXjXfXdX$X$X$X+X].;.=.=.3.3./.E.W.L.P.sXkXhXhXhXkXsXN.N.N.v.e.u.j.j.x.c.k.<                                                                                                                                                               ",
"                                                                                                                                                                                                                                                                                                            3.9.9.9.9.9.9.9X0X0X0X0X0X9.V b 2 2 b / / [ } -.R.x.j.j.i.x.m.K.J.h.                  / 9.9.%.$.T g d { {  .-.4.c . . . w l 6 5 5 5 5 5 O O @ b F h.c.c.x.V.m.N.aXsXdXdXI.OX> o $ $ k l w 5 O O O + 5 6 + # = f.$XMXHXHXLXHX$X< @ @ @ 8 # O O O O O + w 8 + + + + k b l l m m m b z k > > # F +XOXG.B.B.M.V.V.M.G.mX*X*X[.o.X.O.W X.X.X.X.o.-.-.-.,.:./././.;.S A.Q.Q.S.S.S.F.F.G.mXmXmXNX%XA.l e e t Z C c c R.Q.D.l.k.z.d.d.z.z.l.D.Q.].{.).>.,.<.-.} I T E E E s s E @.@.7X7X$.u 0 0 I <.).{.;X-XZXGXGXZXuXwX6X$.-.H J K K K A A C.Z.D.Q.;X-X-X+XC.f.f.f.l.l.D.S.F.+X+X;XZ.j c Z H Z P $.9X8X5.8.1.=._ F Z.f.f.f.k.k.c.OXOXOXS.; = # = @ # # # # @ @ @ = = @ > n F R.Q.+X+X*XNXCXCXDXDXDXNX=X#X+X+X+X$X$X$XdXfXfXjXcXzXjXdXB.$X$X$X#XE.' ' ] ] ;.E.E.W.L.P.sXhXhXzXhXaXN.N.N.b.e.t.t.j.x.x.c.c.h.                                                                                                                                                            ",
"                                                                                                                                                                                                                                                                                                          ]  X|.9X9.9X0X0X0X0X0X0X0X1.S * , 2 2 b / / ..-.E.M.m.n.j.m.m.P.x.g.                    1.0.%.%.X.f g T { } #.4.4.r . . 6 B c 6 5 5 5 5 5 5 + % z F Z.h.c.c.c.m.m.N.dXI.I.OXZ.# $ $ o x j w 6 O O O + 6 + # # = h.$XMXBXSXMXc.= > = # O 8 @ # # O O # + w 8 + + + + % l m m m n m n n k x > % > Z.OXOXI.B.B.B.V.M.G.mXNX*X[.6.&.O.W W X.o.} ..| ) *.>.>.;.^./.{.^.A.R.Q.Q.Q.W.F.OX$XmXVXCXCX*XA.c c c Z [ ,.-.c C R.A.D.l.z.d.d.z.z.l.D.+X;X{.).<.,.<.,.,.O.X.X.E E E E E O.! @.@.4X,.t 0 y ,.6X).{.=XZXZXGXZXuXwX6X6X6.>.H K A A C.C.C.C.C.D.S.%X-X*XF.D.l.D.l.D.D.D.F.+X+X#X=XK v Z P >.>.U o.9X9X5.6.;._ F h.f.f.d.k.k.c.M.OXOXOXS.= = @ @ # # @ @ @ 8 j j j @ j j m G J R.Q.+X%XNXNXCXCXCX,X[.{.].!.+X%X%X$X&XMXfXjXcXcXzXkXB.B.$X$X&X!.R.' ' ] ' ' E.E.J.L.P.kXhXhXsXb.b.m.N.N.v.e.w.a.j.V.V.m.m.c.                                                                                                                                                          ",
"                                                                                                                                                                                                                                                                                                        b (. X X9.9.9X9X0X0X0XyXyX^.: - , , , 2 b / ^ ] Q.L.N.N.m.m.N.P.m.g.                    V %.%.&.@.W R f E E X.$.5. .4 . . M V M r 7 6 6 5 6 6 @ j > > F Z.c.c.c.c.m.M.B.B.L.W.> $ $ $ % l l M 6 6 6 6 + + + @ @ # 1 S.W.OXW.C.= > > # O o @ 8 # # O O + + 6 8 w l m l w j m m n n m n n z k k > > > W.OX$X$XI.B.B.B.$XmXNX*X=X6.#.X.W { o.o...C V G H H J J A.^.^.].^.^.R.R.R.Q.Q.+X%XNXCXCXCX%XA.c t t Z } 4.4.P t H R.S.D.l.z.z.z.z.l.F.+X].{.).).<.,.,.<.o.O.E E E E E E E W W W @.4X,.y 0 h <.wXeX{.-X-XZX>XuXtX9X6X6X7.^.J A A A < C.C.C.D.D.F.+X*X%XF.D.D.D.l.l.D.F.F.+X%X#XQ.K v c P -.).:. .8.9._./.R.Z.C.f.s.d.d.k.k.c.M.F.OX$Xl.* = @ @ @ 8 j j l l j j j j l l V G V ) R.R.!.*X*XNX*X.X7.8.8.6.(.].+X@X@X&XMXfXjXcXjXfXB.B.$XmX&X&X~._ ' ' ( ( Y.~.~.J.x.x.m.N.m.v.v.n.N.N.N.i.w.w.j.j.m.N.N.N.m.                                                                                                                                                        ",
"                                                                                                                                                                                                                                                                                                        E. X X X X|.yXyX0X0X0X2.F - r.r.a., , 2 F ( _ ~.I.sXP.N.P.P.P.m.x.                      [ %.@.! ! W R R W W @.%.6X[ 4 . + *.Z t y r 7 4 7 6 6 e l j @ b F Z.h.c.c.c.c.J.W.W.A o $ $ o j B B l w r w + + + + + @ @ > # X > Z.F A z # o o O O 8 + + O + + % l r t C ^ V m k n n V V n n n m b z k > > F W.OX$XmXmXmXmXmXCXCXNX=X/.o.X.T { } ..| V G J J J K K A.A.R.R.^.^.;.>.>.>.^.R.Q.%XNXNX*XQ.K c t u L { ,.4.,.L P R.Q.D.D.l.z.z.z.F.G.+X;X{.wX`.<.<.<.<.$.O.X.E Q E E E E X.X.X.&.%.6X .y y I 6XeXeX{..X;XwXyXrXrXwXtXwX_.^.A.A A < < f.C.C.D.D.F.%X%X+XS.D.D.D.l.l.F.F.F.+X%X;XK v c Z P :.`._.-.:.}._.(.R.Z.f.s.d.d.d.z.k.c.F.OX$X$Xf.= = @ 8 8 8 w j b x w k l B V H V M t M Z V *.^.{.).8.#.#.#.%.0.}.(.!.!.@X&XMXfXjXfXdXB.I.$XMXMXMX$XW.Y.( ( F T.T.Y.J.L.j.w.e.e.i.i.v.m.N.N.v.e.e.j.j.m.N.sXsXN.n.                                                                                                                                                      ",
"                                                                                                                                                                                                                                                                                                      > ] oXoXoX X|. X}.0XtX` * - - r.t.a.a., 1 1 T.W.dXkXsXsXP.P.P.K.                          X.! ! ! ! Q R T ! @.@.%.5.p 4 . M -.P M u t 7 7 7 6 9 c M e j j = z F Z.Z.Z.T.T.Z.> # . $ $ . l H B C M l w + # + + + + @ > o o < W.Z.A = # o o O . + + # O + w l Z M M C ^ ^ V m n G B n n n n n m m z > > > Z.OX$XmXmXmXmXMXVXCXNX-X{.o.X.{ { L P H G J A.J K A C.Z.A.A.A.A.R.^.:.,.>.>.U J Q.Q.+X!.R.Z c u L { } o.$.$...I P ^.Q.S.F.F.M.F.G.$X%X;X{.wXwX6X<.<.<.$.$.O.E W E E E E X.&.@.&.$.5.5.I 0 y ,.rXrXrXeXeXeXuXuXuXyXyXtXwX{.].A.Z.C.< y.f.C.D.D.S.F.%X%X+XS.D.D.D.D.S.F.F.+X%X#XQ.K c Z P *.6.`.`.6.-._.{.E.A.D.f.d.d.d.k.k.k.M.OX$X%XOX< = # @ @ @ 8 j x k k k l M B ^ B M c Z N N N { &.$.#.} } #.@.%.5.9.9._.!.OXOXI.dXdXI.B.I.mXMXBXBXMXOXT.T.1 1 h.h.h.J.L.L.x.i.i.i.i.v.v.N.N.N.i.e.u.j.m.N.sXsXsXN.j.                                                                                                                                                    ",
"                                                                                                                                                                                                                                                                                                      E..XXXXXXX X X X}.}.D - - 3 w.t.u.t.a.a.h.H.L.gXhXhXkXsXP.P.K.                          / &.! ! ! ~ R E W ! @.4X4X&.q 4 5 >.:.| N M t r 7 7 r e M Z e c w 8 8 @ > > > > > @ # O . $ $ . B *.) ^ M l w 8 + + + + + % > o o < Z.F z @ O O o o o o + # + % k Z Z / M Z ^ ^ ^ ) ) ) V m n m n n m m m z z > > W.%X$XmXMXBXBXVXDXCX*X[.4.o.o.{ L C V G J F A A A C.C.Z.Z.Z.Z.A.Q.^.,.,.,.U U J J ` /./.C u u L } } f E { I { f P ^.Q.F.G.G.$X$XNX*X;X[.wXwX6X5X<.<.$.7XO.W W E E E T E X.X.X.&.%.6X5.Z 0 u 5XrXrXrXuXuXuXuXuXuXuXuXyX'.{.{.Q.A.C.f.f.f.l.D.D.S.F.%X*X+XS.F.F.F.F.G.G.%X%X*X#XA.c N P | ..,.7.tX6.-.(.[.Q.S.D.f.d.d.d.k.k.l.F.OX$X%XQ.S w @ @ @ @ % j x n m l l M C C C N L L [ { E X.@.X.} } } } o.4.8.8.9. XE.Z.c.x.M.B.B.dXMXBXlXcXBX&XJ.h.h.< 1 h.h.c.c.L.L.n.i.i.i.v.n.m.N.N.n.j.j.n.m.N.sXkXsXsXm.                                                                                                                                                    ",
"                                                                                                                                                                                                                                                                                                    2 !.>X.XXXXX X|.oXR.< - - - w.w.w.w.t.a.g.c.L.gXhXhXhXkXsXP.m.                            [ ~ ! ! ! Q R R ! ! 3X4X4XR 4 4 t `.6...N M t t e e e t C P c c e 6 6 6 6 + + + 6 8 6 O . $ . 5 *.*.C Z t M e w % 8 8 w w j @ o $ X > > = O O o o o o o + + w w r Z / / N N / / / =.1.3.^ m m n n n n n m b z z > 2 W.$XmXMXVXVXVXDXCXNX#X/.4.#.o...C V S S A A A A A C.C.C.C.C.D.A.R.^.,.,.,.U U H >._.).| L u L I { f h s E O.E f >.].+X%XmXNXCXCXNX-X[.wXwXwX5X5X5X7X7X7XW E f T f f R } } X.@.5.6X6X4.t y I eXrXrXuXuXiXiXiXiXiXiXuXyX'.{.[.].A.C.C.f.C.C.D.D.F.%X%X-X+XF.F.F.F.G.%X%X*X*X*XQ.v Z | | P I o.7.9X9X6.(.].Q.S.D.l.k.k.k.l.M.F.F.%X%X#X[.:...M w % % w l V ' B B M Z | P L i [ } { { X.} } } { [ { { [  .1.1.1./.E.W.M.M.G.$XmXMXjXjXcXjXgXc.h.h.g.g.a.a.g.x.M.L.N.v.i.i.v.n.m.N.aXN.n.n.m.N.N.sXsXsXN.                                                                                                                                                      ",
"                                                                                                                                                                                                                                                                                                    ~.<X<X<X<XXXXX(.H.g.a.- 3 w.w.w.w.j.j.x.m.L.kXhXhXhXkXsXP.x.                              +.~ ! ! ! Q Q Q Q ! ! @.@.q 4 4 -.`.4. ...| N Z t t u P ..N Z M e e 7 7 6 6 6 5 6 8 5 . $ $ . r >.^ C Z Z M e w w w 8 + % j # $ $ $ o > # O O o o . O o # w w l M M Z N / N Z N N | 1.2.=.V n n S D n n n n n b z z 1 W.&XMXVXVXSXJXDXNX#X^.4.4.#. .| H J A A A < < A A C.C.C.f.C.D.A.^.^.,.,.>.>.>.:._.6.{ L u d f { f h s s Q ! E ..^.].*XNXCXDXDXCX-X.X`.wXwX5X5X5X7X7X4X@.E T f g g g { { {  .o.#.5.5.,.t u ,.rXrXuXiXiXiXiXiXiXiXiXuXyXwX{.;X].A.C.C.C.C.D.F.G.%X-X-X-X+X+XF.G.%X*XNXNXNX*X+XK c Z P [ { } o.4X9X9X7.(.].Q.S.D.D.l.l.l.V.F.G.$X%X%X;X).8.5.4. .M e e l B G ) *.| C C N p d { { T T T } } { [ L L L | *.] ] ] E.!.+XOX$X$X$XmXMXBXBXfXI.c.h.h.g.g.g.a.a.j.x.m.P.N.n.v.n.n.N.aXsXN.m.V.m.m.m.N.N.N.                                                                                                                                                        ",
"                                                                                                                                                                                                                                                                                                  ~.>X<X<X<XXXoXT.h.x.j.t.w.w.w.w.w.e.i.j.m.P.sXhXhXhXkXP.P.                                m +.~ &.! ~ W R Q ! ! ! ! W 4 4 r 7.8. . . .[ i u u u | :.-.Z P N e e e 7 6 6 6 6 6 9 5 . $ . 4 P ..[ [ N N Z l e e e w w w > o o o $ # @ O O O o o o O . o w w r a M M p u p i N N [ 4.6.2.) n D G D D D n n n n n n b F +X&XMXVXJXJXJXCX#XA.) 4.4.-.*.H J K A A < < < < f.f.s.s.l.C.D.A.^.:.,.,.,.-.2.`.4...I h g f { s s s Q Q Q ! O...^.*XNXCXDXDXDXZXXXwXwXwX5X5X5X$.O.4X@.W E T g g d d d d } { } 4.5.`.>.M I 5XrXuXiXiXiXiXiXiXiXiXiXuXuXXX;X;X;X].D.D.D.D.F.OX%XZX-X-X;X;X;X%X%X*XNXNXNXNX-XA.v N P L I { X.$.%.4X6X7.'.].Q.Q.F.S.S.F.F.F.G.%X%X%X*X[.6.#.$.%.$. .N t l ^ =.:.-.*.| N u d d T T { T } } [ / / N N ^ ^ ) ` _ R.E.!.OXOXOXOX$X$X&X&X$XL.h.h.g.g.g.g.a.j.j.x.m.m.N.N.m.m.N.N.sXsXP.M.x.x.x.x.x.                                                                                                                                                            ",
"                                                                                                                                                                                                                                                                                                H.#X1X>X<X>XE.1 , c.x.j.u.u.e.w.w.e.i.j.m.P.sXhXhXhXsXP.                                    V +.&.&.~ Q R R W ! ! ! @.g 4 4 ..9X5.#.o. ...L i u [ -.6.o.L -.P t e e e 7 6 6 6 e 9 5 . . . e } } { [ L N Z M t t t t w l % o o o o @ @ O O O O o . O O . # l M M N a a p p i i i L o.4.1.:.V D G G G D D D n n S S n b Z.OXmXVXSXHXJXDX%XA.m *.:.:.=.*.J K A A A < < < s.y.y.y.d.s.C.D.Q.^.<.,.,.>.6.`.6.-.I f h f s s s s Q Q Q 3XW E U ].-XCXDXDXCX-X'.wXwX5X5X5X5X<.O.7X4X@.X.E f g d d d d { ..} ,.8.`.`.-.L ..6XuXiXiXiXiXiXiXiXiXiXiXuXpX;X;X;X;X;X;X+X+X+X%X-XZXZX-X-X;X;X-X-X-XNXNXNXNX-X].K M P P { I { X.X.@.$.4X9X_.^.Q.Q.S.F.F.F.G.$X%X%X*X*X=X^...O.@.$.%.%.#.| M V =.:.-.-...[ d f R T T T } { [ N N N Z B ^ _ _ _ _ R.~.~.Z.A J R.(.(.R.Y.Z.h.h.g.g.g.j.a.a.a.j.x.m.m.P.N.N.aXsXsXsXsXM.                                                                                                                                                                      ",
"                                                                                                                                                                                                                                                                                              1 ~.1X1X>X>X      g.M.n.j.u.e.e.e.e.j.j.x.B.P.sXkXsXP.m.                                      / +.+.+.} R q.R ~ ! ! @.@.q 4 r $.%.#.o.4.4.} { u u o.8.7.} { ,.P u t e e e e 7 9 e 7 5 . . 4 d O.X.T { L N Z Z C Z Z M l l # o $ $ o w + + O O O O O O O o . M C | N p p i d i d d { X.o. .6.) G G G G D D D G V n S S F F Z.+XMXVXJXHXCX%XR.B B =.3.:.;.^.J A A A A ; ; s.y.y.y.y.s.f.D.S.].<.,.,.,.6._.6.,.} I f f s s s s s Q Q ! O.O.f I [.NXCXCX-X{.wXwXwX6X5X5X5X5X<.7X7X@.O.X.f d u u u L N | -.:.6.)._.).4.<.,.eXiXiXiXiXiXiXiXiXiXiXuXpX<XGX,X;X;X;X;X;X-XZXZXZXZXZX-X;X].;X-XZXZXZXNXNXZX;XJ P L L L L T E E X.@.4X8X8X6.^.Q.Q.+X+X%X%X%XmXNXNXNX*X!.| { { X.X.#.%.5.4.^ M M =.6.4.} { T T T T T R R [ / / C B l n G _ D F T.Y.~.~.F l Z C *.] ' F 1 1 g.a.a.a.a.a.j.j.j.x.m.N.P.N.sXsXkXkXsXm.                                                                                                                                                                      ",
"                                                                                                                                                                                                                                                                                            , @X#X#XE.        3 x.V.n.j.u.e.e.e.j.j.x.x.m.P.P.P.m.                                        2 ' 3.] / q.q.i R ~ ~ ~ &.R 4 . u 6X$.X.o.o.o.o.{ d } $.6X6X{ ,.4.L u p y r r t e e c 7 4 . 4 7 X.W E T { [ N u Z Z Z C Z B l O . $ $ # @ + + + O O o O O O o . r -. .{ d d d p p g f W X.X.X.$.-.l n G G G G D D G D D D D D F Z.+XMXCXCXCX#XR.) H C =.:.;.^.A.F A A < ; ; ; y.; ; y.y.y.l.S.Q.{.<.<.,.<.`.8.,.o.} { E s s s s s E E ! Q Q E X.,.[.-X-X;X_.`.wXwX6X5X5X5X5X5X$.O.7XO.O.{ L d u t M Z C *.>.-.:.)._.`.7.7.6XuXiXiXiXiXiXiXiXiXiXuXpXGXGXGXpXuX{.;X=X-XZXZXZXGXGX-X[.{.[.;X-XZXZXGXGXZX-XA.P L I L d g f E E W X.@.4X4X8./.].Q.+X+X%X%XNXNXNXNXNX=X;.{ { R T X.@.%.%.5.1.^ M N 4.8.#.X.X.E T R d R R L Z B V m n D F F F F T.Y.~.Q.G Z u M m _ ( Z.h.g.a.a.a.t.t.j.j.p.j.j.m.B.P.P.sXkXkXsXm.                                                                                                                                                                      ",
"                                                                                                                                                                                                                                                                                              W.~.            a.x.n.j.u.e.e.e.e.j.j.x.g.a.m.                                              1 ( ] ( / / / q.q.+.&.&.&.a . .  .4X@.O.X.o.o.X.T { o.6X9X$.T 8.8.[ Z L u y e e t t t 4 4 . 4 y E E s T R d d i [ P N N C *.l . . $ o @ @ O + O O O O O O O O o O ^ 8.} R g p p g g s T W X.&.%.4.Z n G G D G D G G G D S S S F F Z.OX&XNX%XQ.R.` ) ) ^ *.:.^.R.A.A < < ; ; ; y.; ; ; y.y.d.D.Q.].).<.<.,.7.7.8.o.O.X.s s s s s s E E Q Q Q Q W O.,.{.{.`.7.7.6X5X5X5X5X5X5X5X5X$.7X$.O.} I L Z c c B V H ) *.>.:.).`.9.6X5.6XuXiXiXiXiXiXiXuXrXrXpXGXPXPXpXuXeX{.;X-X-XZXZXGXGX-X[.).).{.;X-XZXZXZXZX-XJ ....I I L g d T X.O.W W O.4X6X8./.E.Q.+X%X%XNXNXCXNXNX-X^.| [ [ T } +.#.#.#.#.8.-.M r [ #.5.$.X.E E T T T L N B B V S F F Z.1 < h.T.W.Q.E.;.) B r r V T.T.c.x.a.a.t.j.u.u.j.j.j.n.m.P.P.sXkXkXsXm.                                                                                                                                                                      ",
"                                                                                                                                                                                                                                                                                                              x.m.n.j.e.e.e.j.j.j.x.                                                      1 Y.T.( F m m / / | +.+...+ . w $.4X@.O.X.X.X.X.} O.%.6X9XO.X.9X8...L u u t y t Z Z t 4 4 4 4 p Q E s s T { R d [ [ i L -.>.e . $ $ o 8 @ O O O O O O O O O O # o w 4.X.E f p p g g s s E E O.@.%...B G D D G V G G G D S S S D F F Z.W.W.Q.R.` ` *.*.*.*.) ;.R.A.Z.C.< ; ; y.y.; ; r.y.y.l.S.F.].).<.<.<.,.<.7.$.O.O.f s s s s s E E Q E E E E O.O.o.8.6X6X6X6X5X5X5X5X5X6X5X5X7XO.O.$.O.{ L Z c c B S S H H *.;./._.}.9X6X6X6XuXiXiXiXiXiXuXrXrXuXpXUXPXpXiXrXeX{.;X=X-XZXZXZX-X{.6.4.6.(.=X-XZXNX-X;X>.U I { } } f f T T T X.E W $.4X%.8.:.].Q.+X*X*XNXCXCXNX-X].*.[ [ R R } }  . . .+.2.2.) M t L o.#.&.X.X.X.T [ i M m n S b 1 h.s.< < h.S.W.!.[./._ B M l b T.W.x.j.j.j.j.u.u.j.u.j.j.m.P.P.N.P.P.N.                                                                                                                                                                        ",
"                                                                                                                                                                                                                                                                                                            , m.m.n.n.i.i.i.j.j.x.                                                        h.H.H.1 1 2 b m / ' ] 3.m o $ r %.@.@.X.X.O.X.X.X.&.4X4X9XW #.yX7. .I L u y y u L L q 4 4 4 7 T Q Q E s T T T d d L i [ -.>.+ $ $ $ o 8 + O O O O O O O O O + # # o / @.W s g g s E E E E E Q ! 4X4.Z V m m V V G G D D S S S D F D F F F R._ ` ` *.>.>.*.) ) ;.R.A.Z.C.< ; y.; y.y.y.y.z.z.F.OXQ.{.<.<.<.<.,.$.$.O.O.Q E s s s s s Q E s s E E { X.O.O.7X4X4X6X6X5X6X6X6X6X5X5X7XO.7X$.$.} [ Z c x n n K K K H H ^.(._.9X6X4X4X6XrXiXiXiXiXuXrXeXrXpXPXPXpXiXuXrXeXwX{.;X-X-XZX-X{.,.,.4.6.{.[.=X-X;X].>.P L L ..} } { { T T { X.E O.@.4X4X5.=.R.].#X*XNXNXCXNX-XQ.) [ d d d [ [ [ | |  .=.3.2.' m t u [ X.$.$.X.{ { N B m b z 2 2 < s.< , s.h.Z.Y.!.E.R._ G m b 2 Z.c.j.j.j.u.u.u.e.j.j.j.m.B.M.a.                                                                                                                                                                              ",
"                                                                                                                                                                                                                                                                                                            a.m.m.n.n.n.j.n.n.x.                                                          g.J.J.g., 2 2 1 ( Y._ _ % X $ a &.@.! W W X.W W O.@.4X4X4XE $.9X$.,...I g y y d d u y 4 4 4 q Q Q Q E E s T f g f f d { ,.P . $ $ $ + 8 + O O O O O O O O + + @ + $ y X.W s s s E Q Q Q Q Q Q ! ! $.| V n l m m n S S D D D S S D D D D D J J _ ` *.>.*.>.*.H H ` R.R.Z.C.f.s.y.y.y.y.d.z.M.G.%X%X^.,.<.<.<.<.O.$.7XO.E s E s s s Q Q s E E E E f f X.O.7X4X4X6X6X6X6X6X6X5X5X5X5X7X$.$.$.o...C c v x K K K K K J ` ^.{._.6X4X4X4X6XyXuXuXuXuXrXrXrXuXpXpXpXiXuXuXrX6X6X`.|..X;X]./.-.-.4.6.6.).'.'.{.).>.L d g d { O.X.{ { T T { W X.@.@.4X8X5.| ;.].[.-X*XNX*X;XR.C N i i i N N N N ^ | ^ ^ ] ] R.` ^ u i { $.&.X.{ [ Z m z > > < < , a.a.d.f.c.W.~.!.~.Y.T.( b 2 2 h.c.x.j.j.j.i.e.i.j.n.m.N.B.j.                                                                                                                                                                              ",
"                                                                                                                                                                                                                                                                                                            x.N.N.m.n.n.n.m.x.,                                                         3 x.K.x.g.a., 2 1 h.T.Y.1 X X $ i ! ! ! Q Q E T E Q 4X4X4X4XE 5.9X$.o.} I d y u I d p 0 4 7 q s Q Q E E s E E f f f T W X.} Z O . $ $ 6 8 8 + O . O o O O O O + @ w . 4 { W s s s Q Q Q Q Q Q Q ! ! ! #.) ' n l m n D S D S S S D D D D D D G G _ ` *.*.*.*.*.*.U U *.R.R.A.Z.C.f.l.s.d.z.V.M.$XNXNX[.<.<.<.<.<.O.O.O.O.O.E s s s s E Q E E X.X.X.{ T I } O.O.7X6X6X6X6X6X6X5X5X5X5X5X5X$.8.8.-.C B v x A A A K K K J R.(.{.7.4X@.4X7X6X6XyXtXyXuXrXyXuXpXpXiXiXiXuXrX6X6X6X6X7.<.>.*. .-.:.:.2.6.`.`.`.`.6.{ L d g f X.X.X.T g d T X.O.X.X.@.%.%.4...=.(.[.=X=X=X].;.P i i L N i N N Z C ^ C C ) ' ` R.` ) N u d X.$.X.| C n b > < < < , a.a.a.d.k.c.W.~.Y.Y.Y.T.T.1 , : h.c.x.n.n.n.i.j.j.j.n.B.B.m.                                                                                                                                                                              ",
"                                                                                                                                                                                                                                                                                                          a.m.N.N.N.N.N.m.x.g.                                                          a.x.x.x.j.a.a., g.c.J.H.2 * X X [ ! ! ! Q E E s R ! 4X4X4X! E 6X6X%.X.} { d p u I d q 0 4 q g Q Q Q Q s s s E E E T W X.O.,.c O . . . w 8 8 5 O O O O O O 6 + @ + w O . d W Q E E Q Q Q Q Q Q Q ! 3X3X@.1.3.;.n m n S D D S S D D S S S S D D G G _ ) ) *.*.*.*.*.*.*.) ` R.R.A.D.D.l.l.l.F.G.mXCXNX;X).8.5X<.<.<.o.O.$.O.E E s s s E E W X.E E T T { { { T { o.$.5.6X6X5X6X5X5X5X5X5X5X$.,.6.-.*.V n A A A A A A A J R.^.{.`.7XO.O.7X7X7X6X9XyXuXyXyXuXuXuXuXiXiXuXrX6X6X6X6X6X$.{ P ..-.-.-.:.2.)._.}.}.wX7.,.{ f T X.T T d d d R { X.X.X.@.@.%.%.4. .,.:.:.;.;.>.| i i N N N i N Z B V G G G G G J _ _ R.;.P p d } #.-.) G S < < , < - r.a.a.a.k.c.S.W.T.h.H.W.W.c.g., , f.c.V.n.n.n.j.u.j.n.B.P.N.j.                                                                                                                                                                            ",
"                                                                                                                                                                                                                                                                                                          g.N.aXN.N.N.N.m.g.                                                            x.m.m.x.i.p.a.a.x.x.K.c., X X X } ! ! Q Q E s s E ! 3X4X4XQ T 9X4X@.X.X.{ g g L I q q 0 0 q T Q Q Q E s s s E Q Q E W W X.o.y 5 O . . e 8 6 6 6 O O O O O 6 + + 8 w O $ y W Q E E R Q Q Q Q Q Q ! 3X3X4X#.2._.3.n b n S D S D D D S S S S S G D G G ) ) *.*.*.*.*.*.*.*.*.>.^.^.R.A.D.D.F.G.$XNXCXNX=X{.6.5X<.<.<.,.O.O.O.E E s s E E W O.E s f s s f { T f I } $.4.5.6X6X5X5X5X5X5X5X5X<.O.,.<.>.H S A z A A A A A A J R.].{.o.X.X.X.O.4X4X6XyXuXyXyXuXuXuXrXuXuXuXuXeX6X6X6X6X$.,.*.P H *.) ;.;./._.'.'._.`.8.o.} O.X.f f d T R T T { { X.X.O.@.%.5.#.o.} | [ { T { d i i d i i C B B B n D F A F F F A.R.R.;.P [ d [ | ) _ J F < , - - r.r.r.d.k.x.c.W.h.h.h.c.J.L.c.g.a., a.c.V.V.n.n.n.j.n.N.N.N.j.                                                                                                                                                                            ",
"                                                                                                                                                                                                                                                                                                          j.N.sXsXsXsXB.x.                                                              x.m.m.n.i.j.i.j.m.K.x.g., X X & +.! ! W E R s R Q ! 4X4X4XE W 8X4X&.X.E T g p h h q q 7 q g E Q Q Q R s s s E Q E E Q W X.} e 5 O . . l e 8 e 5 + + O O O 5 5 6 8 j # . 4 E Q Q Q E E Q R R E Q ! ! 3X4X%.4.8.}./.V b S D D D D D D S S S S D D G G _ _ ) ) ) *.>.>.>.>.*.*.>.^.^.^.Q.Q.+X%XNXCXCXNX;X).<.<.<.<.<.,.O.O.O.O.E E s s E E E f s s f f L I I L I  .,.,.8.7.6X5X5X5X5X5X5X5X5X7XO.4.:.*.J A z < A A A A A C.A.^.].,.f E X.O.4X4X4X6XtXtXtXuXuXuXrXuXuXuXuXeX6X6X6X6X6X,...C V H H H R.^.(.(.{.^.) 7.5.#.o.O.T f f T T T T T { { T W &.$.5.5.$.o.} { { T T T R d i p u M B l l n S F A F 1 1 Z.Z.T.R.;. .R d N Z ) J Z.f.f.- r.r.r.t.t.d.k.c.M.c.g.g.x.x.M.L.c.g.a.a.a.c.M.m.n.n.n.m.N.P.sXm.                                                                                                                                                                            ",
"                                                                                                                                                                                                                                                                                                          n.P.sXsXsXP.c.                                                                x.P.m.m.i.i.j.m.m.K.x.g., * X % +.! Q R E R R R Q Q 3X4X4XR W 4X4X@.O.E E g p g p q q q p T E E E Q E E s s s E E s Q Q X.[ r 6 5 . . c l e 6 6 6 6 5 5 5 6 6 8 8 j # $ . g Q Q Q E E E R s R Q Q ! 3X3X%.#.1.oXoXE.D S S D D D D D S S D D S D D D G G ) ) *.*.>.>.>.*.*.>.>.>.:./.{.].].=X*X*X-X;X{.).<.<.<.<.<.<.O.O.O.O.O.E s s s s f f f f L L L I { I L I ,.,.6.`.wX5X5X5X5X5X5X5X5X5XO.o.6.^.J K A < < < < A A A C.A.^.^.{ X.X.X.@.4X4X6X6X`.tXuXuXuXrXrXuXuXuXrXeX6X6X6X6X8.*.B v v J J J J ^.^.].[.S M 4.6X$.o.{ T d d T [ L L [ [ [ [ { X.$.5.5.4.#.} } X.E X.{ d i p u M M l l b S A 1 < < < Z.Z.Z.A.]./.o.T { [ N V A.Z.l.s.r.r.r.t.t.a.z.c.M.c.j.a.x.x.x.M.M.M.x.j.a.g.c.m.N.N.N.N.sXsXsXN.                                                                                                                                                                            ",
"                                                                                                                                                                                                                                                                                                          m.sXsXsXP.m.                                                                  m.P.N.m.v.i.n.N.L.x.g.a., X X w &.~ W R R R R R Q ! 3X4X@.g W 4X4X! Q E s s g g q q q q f W E E E E R R s s s s R s E Q X.L t r 6 4 5 M c e e r e 6 6 6 6 6 6 6 8 j @ $ $ y Q Q Q Q Q E s s R E Q ! 3X4X%.1.3.(.[.[.E.F b A F F D S S S S S S S S D G G H ) *.*.*.>.>.>.>.>.>.>.:.:.6.).).{.{.{.{.).6.<.<.<.<.<.<.<.,.O.O.O.O.! E s s s s f f f L L L I P P P P *.,.<.).`.7.5X5X5X5X5X5X5X5X,.O.<.^.R.A.A < ; < < < A A C.A.^./.,.O.O.X.O.O.$.4X6X7.`.pXuXrXuXuXiXiXuXuXrX6X6X6X6X8.>.V x K K Z.A.A.A.R.].[.T.> r } 6X5.X.T R T d L L L [ [ [ [ [ { o.8.8.2. .4.#.&.X.X.} R i i u M l l k b A 1 < f.f.f.f.f.Z.Z.Z.R.>. .#.o.{ / G Z.D.f.d.t.t.t.t.a.j.z.M.V.j.j.j.x.x.x.M.L.M.n.x.j.g.c.m.B.B.sXsXkXkXN.                                                                                                                                                                            ",
"                                                                                                                                                                                                                                                                                                        3 N.sXsXP.K.                                                                  p.N.P.N.N.v.b.N.N.L.g.3 , : * X k +.X.W T R R R W ! ! %.4X@.p W 4X4X! Q E s s g g q q q q X.E T E E E s g s s s s R R Q W } d p t r 4 4 C t y t t 7 9 7 6 6 6 6 6 8 w + $ $ 4 E Q Q Q Q E s s T Q Q ! ! 4X%.2.E.!.!.#X#X!.~.~.Z.F F F S n S S F S D D D G G ) ) *.*.>.>.*.*.>.>.>.:.:.6.<.<.).6.6.<.<.<.<.<.5X<.<.<.<.,.O.O.O.O.7XW E s s f f f f I L I L P P H C H >.,.6.).`.5X5X5X5X5X5X5X5X<.O. .^.^.A.C.< ; ; < < < A C.A.^.{.<.O.O.X.E E O.O.6X5.7.yXuXuXrXuXiXiXiXiXuXrXeX6X6X8.:.H K K A F Z.Z.Z.A.!.#XQ.A @ w Z 5.4X&.X.T d d d N N N L P P | ..-.4.3.w c ..o.$.&.@.T R d i u M z z z < < < < s., < s.f.f.Z.S.f.> t C  . ...G Z.S.l.d.t.t.t.j.j.V.M.m.j.j.j.a.a.j.x.M.M.M.m.j.j.x.m.B.P.dXsXhXkXN.                                                                                                                                                                            ",
"                                                                                                                                                                                                                                                                                                        p.m.sXsXm.                                                                    j.N.P.P.b.b.N.N.P.m.  3 , : * X m +.+.} R R q.R } &.&.&.%.} a T %.@.! Q W E s g g q q 7 g { T f T E E R s s s R s s E Q W X.I p y y 7 4 P C Z y e 7 e e e 6 6 6 6 e l w . $ $ d W Q E R T R s s T E W ! 4X%.8.E.~.@X@X*X*XAXJXDXAXW.F F S S S S D S S S D G ) ) ) *.*.*.*.>.>.*.>.>.:.:.<.<.<.<.<.<.<.<.<.<.<.<.<.<.<.<.,.O.O.O.O.@.W s s f f g d I I L P P H H J H U >.:.)._.6X5X5X5X5X5X5X5X5XO.O.,.^.A.Z.A < ; s.s.s.f.C.Z.R.].6.o.X.T T { X.} $.5.8.wXyXuXuXuXiXiXiXiXiXiXrX6X6X`.).>.K A A C.C.C.D.S.Q.Q.#XZ.> > + t $.4XO.X.d d d i M ^ C C C C ^ | =./.` j l N | o.$.&.X.} [ N m l z > < < < < < < < s.f.f.h.S.c.- X o w t C ^ F Z.S.z.k.j.j.j.j.m.N.N.i.u.t.t.a.a.j.x.m.M.M.M.n.m.m.m.P.dXdXkXsXN.                                                                                                                                                                            ",
"                                                                                                                                                                                                                                                                                                        3 x.m.x.                                                                      x.P.sXsXN.N.N.P.P.x.    : : * X m 1.+.../ / i / [ [ &.%.#.| a } @.! ! ! Q E s g q q q q [ } R g g R E E R s R E s R Q Q W X.} u p u q 4 P ..P M y e e e t e 7 6 e M V l . . $ r W Q E E T T s f f f T X.%.%.7.[.W.OXOX&X&XMXHXUXUXFXT.F F S S S D S S n S D G G H ) ) ) ) *.>.*.*.>.-.:.,.,.,.,.,.<.<.<.<.<.<.<.<.<.<.<.,.,.o.O.O.O.O.s s f f g L L L P P H U J J K H U >./.).`.5X5X5X5X5X5X5X5X$.O.I >.R.A.C.< ; y.s.s.s.f.Z.A.]./.o.} { I { } } o.8.8.8.wXuXuXiXiXiXiXiXiXiXuXeX6X`.).^.J A A < C.C.D.S.S.Q.+XQ.> > % + r $.4XX.T d i N N Z B G G G V C ) ] (.D k M M L { X.@.#. ...^ B z > < < < < < < < s.s.s.f.c.S.k.* # o . . w k F Z.S.M.j.j.j.n.N.N.N.i.t.t.t.t.a.a.j.x.M.M.c.x.m.m.N.P.P.sXsXN.                                                                                                                                                                              ",
"                                                                                                                                                                                                                                                                                                          a.                                                                          m.P.sXsXN.P.sXP.P.g.    : : : X D 3.] / / / m V / ] +.1.=.V r } ! ! ! ! W T g p q q q a { { R d d R R T Q R E E Q Q Q W X.X.{ g p d q 7 L -...Z p p u t M e r e c Z ) M . . $ . R Q W W T R R R R L [ } o.4.6.[.!.OX$X$XMXFXSXJXHX&Xh.F F S S S S S S n S D G G H H ) ) ) *.*.*.*.>.-.-.,.,.,.,.,.,.<.,.,.<.<.<.<.<.<.<.<.,.,.O.O.O.O.X.f f d d u u u Z C H H J K K v K H ^./.'.<.5X5X5X5X5X5X5X<.O.I ,.^.A.C.s.; y.y.y.d.s.C.A.].].-.{ I d L { X.o.4.8.8.7.wXuXiXiXiXiXiXiXiXuXeXwX)./.^.A.C.f.< < f.S.S.D.S.Q.+X< > > > @ r o.$.X.T d N C B m D D D D S G _ E.R.D B M N L [ } o.4.1.=.G n z < < < s.s.< , s., < s.l.S.S.C.> # + @ + % w F S.M.M.M.V.B.N.sXN.i.t.t.t.t.t.t.a.j.x.m.x.g.x.M.m.P.sXsXsXm.                                                                                                                                                                              ",
"                                                                                                                                                                                                                                                                                                                                                                                      m.sXsXsXsXsXsXP.m.      * : : : ( ] ' D D D b ( ' ' ] =.' S % [ ! ! ! Q W s g p q q q M ..[ q.i i d R R W T T E Q Q ! O.W X.T g g f q q L ,.[ Z u u N Z Z t e r t M C B . . . $ t W W T T R R [ [ P C | | =./.[.#X$X&XMXMXBXSXSXU.h.F F S S S b b S S n S G G G G H H H H C H H *.*.*.>.>.,.<.,.,.,.<.,.,.<.<.<.<.,.,.,.,.,.,.,...} $.$.X.T I L u M c M Z H J J K K K K K H ^.{.).<.5X5X5X5X5X5X5XO.O.I >.A.A.f.y.y.y.y.y.d.C.D.Q.].>.[ L d L [ { .. .,.6.6.`.tXuXiXiXiXiXiXuXyXwX`.<.).^.A.C.s.s.s.f.l.l.S.S.Q.+XD.> > > > # r #.%.X.[ N M m n n S F F A F T.R.R.R.G C C P L [ [ [  .-.=.J J < < < < - - - s., s.f.f.c.S.S.F j + O + + r k Z.S.B.B.B.dXsXkXaXi.w.t.t.t.t.t.t.j.z.m.m.j.a.j.x.m.P.sXsXm.                                                                                                                                                                              ",
"                                                                                                                                                                                                                                                                                                                                                                                    p.N.sXhXkXhXkXsXP.x.      * : : : T.Y.( 1 1 2 2 2 ( ( ' R.F A > [ &.! ~ Q W f g q q 0 a / ^ / / N i i [ T T R T W W W ! ! Q W T p g T g q P 4.L u u L L N N Z t a t t C B . . . $ 7 } X.{ [ [ [ | ^ C V C H ) ^.[.#X&XMXMXBXSXHXJXDX@X1 F F F F S b n n n S S G G B G V V V V C H H H *.*.-.>.>.,.,.,.,.,.,.,.,.,.,.,.,.,.,.,.,.,. ...O.$.$.} { L M M M l B K K S K K K K K J ^.[.{.<.5X5X5X5X5X5X5X<.O.I I ^.A.C.f.y.y.y.y.s.C.D.Q.].;.L L d L L [ [ ..*.-.:.)._.tXuXiXiXuXuXyXwX7.<.>.>.^.Q.D.C.d.z.k.l.l.D.S.S.+XS.< > > > @ O a $.$. .N M m n A A A A < A Z.Z.R.Q.R.H C L d d L d L ..-.;.R.Z.< < ; - - - y.r.s.a.d.k.S.S.Z.G B l 6 6 w r m Z.L.I.dXkXkXkXaXj.u.u.u.t.t.u.u.j.j.M.M.n.w.a.a.j.j.m.V.x.c.g.                                                                                                                                                                          ",
"                                                                                                                                                                                                                                                                                                                                                                                    p.P.sXhXhXhXhXsXK.          : : : T.Y.h.1 1 1 1 1 1 T.Y.Y.h.1 > [ &.! Q E T T p q 4 7 M ' ^ / C V / / / / R d R W W ! @.! W Q E g g E g 4 P 4.I u u d d d N N u u u N P M . . . . . [ } { | | ^ ^ C V B n S J R.!.#X&XMXSXSXSXHXLXKXJX&Xh.F F b S z k z m x b n n n B B B B Z Z V C C P P *.*.*.>.>.,.,.,.,.,.,.,.,.,.,.,.,.,.,.,.,...I } $.o.{ N M c m v n K K x A A K K K K A.^.].).<.5X5X5X5X5X5X,.,.I I >.A.D.D.l.y.y.y.s.C.D.Q.].^.P L L L P P P C C *.=././._.tXuXuXyXeX`.6.<.>.P Z H R.D.D.f.d.k.k.l.l.S.S.Q.W.< > > > > + O y $.#.| Z m b < < 1 < < < h.Z.T.Q.R.` ^ ..[ [ { R d i L ) _ R.Z.< < ; - y.y.r.r.a.d.d.l.D.A.` >.=.*.C t r t D W.I.fXjXjXjXB.n.j.a.u.t.u.u.u.j.j.V.B.n.e.t.t.w.a.j.j.n.V.m.x.g.                                                                                                                                                                      ",
"                                                                                                                                                                                                                                                                                                                                                                                    a.P.hXhXhXhXhXP.x.          * : : H.H.h.a.a.g.g.g.h.H.Y.Y.g.h.> | &.&.~ T } { q 4 4 4 V ` _ D n m ) ^ ^ ^ [ i T X.@.&.@.4X! Q E s Q ! s q P o.I g d d d [ [ L P N N [ | C 6 . . . . M  . .| ^ C V B n S S S F A.Q.#X&XMXSXHXHXLXKXKXKXLXFXW.F 1 > > j b l x n n b v m l l M M B Z V C P P P P U *.>.>.>.>.,.,.,.,.,.,.,.,.,.,.,.,. ...I { O.,. .P Z B n b x x A A j j A A K K A.R.].{.<.<.<.5X5X5X5X,.,.I I U ^.S.D.D.l.z.s.s.C.D.Q.].^.P N L P C Z Z B V H *.:.^./.).wXeXwX`.6.>.*.P Z t c R.A.D.l.y.y.y.z.l.D.S.F.Q.< = > z > % + O a  .=.) n > < < < < < < f.Z.S.Y.Q.` *.| [ [ { R R d i N ) R.Z.Z.f.f.y.; r.r.r.t.t.d.l.D.S.R.>.-.-.:.,...L Z ( OXfXjXjXjXI.c.k.j.j.j.u.j.j.j.V.B.B.N.i.e.w.w.t.a.j.V.m.N.B.B.M.                                                                                                                                                                    ",
"                                                                                                                                                                                                                                                                                                                                                                                    p.P.hXhXhXhXkXP.            X : : c.J.c.g.a.a.a.a.x.c.J.H.a.h.> ^ #.#.} / / N a 4 4 7 G _ D S z b b D ^ / ^ [ } &.%.@.4X3X! Q Q s Q 3XE q d X.f f d d f { { L L N L [ | ..r 6 O . . w -...| C B n S S A A < A Z.W.Q.h.M.MXSXHXKXKXKXUXUXLXFXh.2 > % l x j j k n n n n m B V B B B B V C C P P P U *.| P *.>.>. .,.,.,.,.,...,.,. . .......I ,.-.*.C K n x j A A A A A A A A K J A.^.{.).<.5X5X5X5X<.<.,.I I I >.Q.S.D.D.l.s.l.D.D.Q.].^.| L Z Z Z B M B B V G J ^.^.(.{._._.6.>.*.C Z c e e H A.D.D.y.y.y.z.l.l.D.S.W.< = = > z > % @ O a =.' D A < < , < < s.f.l.S.S.W.R.G L { [ d d R R d i M n T.T.Z.l.d.r.r.d.d.a.t.d.k.D.S.A.*.-...} o.o.o...| ( L.dXdX$XS.c.c.c.k.z.j.j.n.n.N.B.aXN.v.e.w.w.w.t.j.j.m.N.N.sXN.m.                                                                                                                                                                  ",
"                                                                                                                                                                                                                                                                                                                                                                                    j.P.hXhXhXhXsXK.              * : c.K.x.j.j.j.j.j.n.m.L.c.a.h.2 ) 1.+.^ / / M r 4 4 w _ D F A A z 2 S D / ^ .. .#.%.%.4X3X! ! Q E Q 4XE q u X.T f L d d I { [ i N ..{ | -.M w + . . 5 *.*.) G n K A A A A < < C.Z.Q.< * < c.&XSXHXKXUXKXUXLX&X< > j l w @ Y j j j j j l l l M B V V V Z Z C P P P P P P *.*.......*.>.*... . . . . .......I { -.>.U G K x > > < < A A A A A A K A.R.{.).<.5X5X5X5X5X<.,.,.I I U ].A.D.D.D.C.D.D.S.+XQ.^.*.Z B B B B c v v S K J J R.^.].{.).>.H V B c x w 8 l R.D.D.s.y.z.z.k.l.l.S.W.C.= # = = j > @ # . Z ' F F < < < < < f.f.l.c.S.S.T.S u { { g g g d d i u M l ( T.S.c.d.d.d.d.d.d.z.k.c.F.S.J |  ...{ X.X.} } | _ S.W.W.< 2 Z.h.c.x.V.V.m.B.N.sXsXsXv.w.w.w.t.t.j.j.n.N.sXsXsXsXm.                                                                                                                                                                ",
"                                                                                                                                                                                                                                                                                                                                                                                    j.P.hXhXhXhXP.                X : g.M.x.j.j.j.j.j.m.m.M.x.g.h.2 ( 3.3.' ( b k + . O k F F A < < < < 1 D _ ] =. .+.#.%.4X4X! W W T ! 4XQ q y X.{ f g g g d f { d d { } }  .N e 6 5 . . V ;.) G S K A < < < < < < C.W.Z.= # = * , g.U.fXLXKXLXMXf.= j j Y Y = = @ 8 8 8 8 l l l l M V H ) H C N N C C C P P P *.U P U *.*.*....... ...I ....I I ..:.>.H K A A < < < < A A A A A A A.A.].).<.<.5X<.<.<.<.,.,.I I I >.Q.S.D.S.D.S.F.+X+XQ.R.) V V B n b x x K K S K J J R.R.].^.H V B l x j j @ 8 J A.D.D.z.z.z.l.l.l.D.OXS.= # # @ = j > # O 6 H R.Z.< < < < , s.f.k.c.S.S.Q.R.L { { d g g d d d i u M l F W.S.l.k.k.k.z.z.z.z.M.M.OXW.) ....{ } { { { } ..^ ) ) V > % 1 h.c.M.M.B.dXsXdXkXsXv.w.t.a.a.t.j.j.m.N.sXsXsXsXm.                                                                                                                                                                ",
"                                                                                                                                                                                                                                                                                                                                                                                    x.sXhXhXhXsXx.                  3 g.x.x.j.j.j.j.i.m.m.L.M.j.h., ( E.] ( F 2 > # + + b Z.Z.1 < < < < < A D ) ) =.1.4.8X8X@.X.T T T @.4X! q y O.X.T f g f d { } { d T X.X.} [ M r 6 . . e R.R.J F A A < < < ; ; < f.S.A.= # # = * = * * a.m.U.L.< = j j = = @ @ 8 8 6 6 9 l l e l c V ) ) ) :.>.*.C Z C P P P P P P U *.*.*.*.....I I I U I I I I -.:.;.J K A A ; ; ; ; < < < A A A A.^.{.<.<.5X<.<.<.<.,.,.,.I I U ^.Q.Q.F.F.G.%X%X%XQ.^.) H V B n z x x A A A A K F A.R.R.E.J n b l l j j @ + w J D.D.D.l.l.l.l.l.S.OXS.= @ @ 8 j j j j # o w _ Z.h.< , < , s.d.d.l.S.S.Q.^.,.X.{ f f T d d d i i M M l D T.Z.c.c.c.V.V.V.M.B.B.OXS.A.) [ { { T f T { { [ ^ ^ ^ _ > X     c.M.M.I.dXdXdXsXn.j.j.j.j.j.j.n.m.B.N.sXsXN.j.                                                                                                                                                                ",
"                                                                                                                                                                                                                                                                                                                                                                                    p.P.sXhXkXm.                    3 g.x.x.j.j.j.j.i.m.N.P.M.x.c.1 ( E.R.F < < > o O # 1 Z.A < < < < < < < 2 D _ ] 3.8.8X%.#.[ L d R @.4X@.p q O.X.f s s f f X.X.X.W E X.X.X.{ N t w 5 5 6 J R.J F A < < ; ; ; ; ; s.S.W.> # # # = = o # # # * = z k x j = @ @ @ @ 8 6 6 w w w l c M V C ) ' ;.).).6.>.| Z N P P P P P U U U ..| ..U I I U I I I I I >.^.R.J A A < ; ; y.; ; ; ; A C.A.].].).<.<.<.<.<.<.,.,.,.,.I ..>.].+X%X%X%XNXNX*X].].*.V V n n A A x z A A A A A F Z.R.R.R.n z x x j j @ # + S A.D.D.D.l.l.l.S.F.OXS.= @ 8 8 w j x x j # . l R.Z.f.< , - - r.d.f.S.S.W.Q./.$.$.&.X.O.X.T R [ i p M M l n Z.S.F.F.M.M.B.B.B.I.I.F.S.J | [ d d d d R R [ | ^ / ( ( 2       h.c.B.I.dXdXB.m.n.x.x.k.k.z.M.M.m.m.m.m.                                                                                                                                                                    ",
"                                                                                                                                                                                                                                                                                                                                                                                    p.P.sXkXP.x.                      a.x.n.j.j.i.e.i.m.N.B.B.m.c.g.h.~.Y.h.< , X X o # Z.Z.f.< ; ; ; s.< < < A _ R.2.5.9.8. .^ Z M u  .%.$.q q O.O.E s s s s E W E E W W O.X.{ N Z r 6 6 + S R.F A < < ; ; ; ; ; ; s.l.S.A # # o # # o o # # o > D G m x > @ # @ @ 8 8 8 e w w l l B V B ^ ' ;.2._.|.}.|.2.| N N P P P P P P P P | I I I U U I I I I P >.^.A.A.C.< ; ; ; ; ; ; ; A C.A.].].{.<.<.<.<.<.,.<.,.<.,.,.O.,.^.].%X%XNXNXNXNX;X(.*.V V B K A > > > A A A A A A F Z.R.R.S z x k j > > @ + j A.D.S.F.F.M.F.F.G.OXS.; = + + w k v b m b # o G T.f.f.; ; ; s.s.d.l.S.OXOX< Z #.6X%.&.X.T R d u p a a l l b Z.S.F.G.B.B.aXdXdXdXM.c.A.) [ d i p d d i R [ / ( D F 1 1           M.m.M.c.x.x.x.c.c.c.c.x.x.x.                                                                                                                                                                          ",
"                                                                                                                                                                                                                                                                                                                                                                                    3 m.sXP.x.                        a.x.n.j.j.e.e.v.n.N.P.I.m.c.g.h.W.W.h., - X X X : Z.Z.f.< - r.r.a.a.< < C.R.E.` 1.7.2.) G S l l ) 8.$.p q X.@.W s s s E s T T T E W W @.X.[ | M w e 6 % R.Z.C.< < < ; ; - - - r.d.S.Z.# # # @ # o o o o o > R.] D z > = # # @ 8 8 w j w l e l l l ) ' ;.;.;./.'.|.yXyXtX7.-.P N C P P P P P P P I I I U I I I I P P *.^.R.Z.C.< ; ; ; ; ; ; < C.Z.Q.].{.<.<.<.<.<.<.<.<.<.<.<.5X<.<.].+X*XZXCXCXNX;X{.-.P V n b A > ; ; < < < A A A F Z.A.R.Z.z z k j > > = # @ K A.S.F.F.G.G.G.$X$XS.= = @ + 8 w l l m G G % @ F D.f.s.y.r.s.s.s.f.l.F.F., X 6 N #.%.&.E R R d p a a l k > > Z.S.F.B.I.dXdXdXsXM.c.Z.A.C d i i d i i N / / ( F 1 h.h.h.                                                                                                                                                                                                              ",
"                                                                                                                                                                                                                                                                                                                                                                                      x.m.x.                          a.M.m.j.j.e.i.v.n.N.I.I.m.c.g.g.W.W.h., - X X X < S.f.f.; - r.r.r.r.s.f.Z.R.E.D 3._./._ F A z z J /.6.d q X.4XW E s s E R R E T T E W ! X.} ..C y y w o Z.Z.C.s.s.s.; ; - - - r.a.c.Z.# # O # O O O o o o > E.E.Y.A < > = # # @ 8 j j w l l l l m G ' ] /.;.3.2._.}.yXyXyXyX7.{ Z N P P P P I P P P P I I U U U I I P ;.^.A.Z.C.; ; ; ; ; ; ; f.C.A.].].<.<.<.<.<.<.<.<.<.5X5X5X5X6X).].*XNXCXNX-X{.).<.>.H B K A = ; ; ; < < < A A A Z.Z.R.R.A z z z > > > = @ 8 F D.F.G.$X$X$X$X$XS.= = 8 + + 8 l M V *.;.;.j z Z.C.d.y.r.r.r.s.d.l.S.F.d.* o . r ..$.X.X.X.T d u t l k 2 > : f.S.M.I.dXkXkXdXm.c.l.Z.J N i d R R i u V / ( F h.h.x.x.g.                                                                                                                                                                                                            ",
"                                                                                                                                                                                                                                                                                                                                                                                                                      a.m.m.j.j.j.v.v.n.N.P.I.c.c.g.c.L.M.g., * X X X f.S.k.s.r.r.t.t.r.r.d.f.S.Q.[.D /.[.E.A.< < < > F ^.).{ q f @.Q E s s R E E s s s E Q Q @.o.{ L u t e o b T.Z.f.s.y.y.- - - r.r.d.l.D.# o # # O O o o o o # E.~.@XS.f.> > = # @ j j x w l l k k ) ` ] ' ;.;.;.;.2./.'.}.tXyXuXyX8.[ i P P P P P P P P P P P P I I I L P *.^.A.C.A ; ; ; ; ; ; s.C.D.].].).<.).<.<.<.<.6.6X5XeXeXeXeXeXwX;X-XNX-X].:.,.6.:.*.G b > = ; ; ; < < < A f.< f.Z.Z.Q.Z.z z z z > > j 8 8 b A.F.$XmXmXmXmX$XS.> Y w w 8 6 w B ^ C ^ 6.:.m F D.l.d.r.r.r.d.d.l.S.F.f.* # o . . t  .$.@.} { / Z m b 2 : : * < c.I.dXkXkXN.n.j.c.Z.A.| [ R R / N m m V D 1 h.c.m.M.M.x.a.                                                                                                                                                                                                        ",
"                                                                                                                                                                                                                                                                                                                                                                                                                      , m.m.n.j.j.v.v.N.P.P.U.x.x.x.c.L.M.x.a.* * * * h.c.f.r.r.r.t.t.r.r.a.c.W.!.[.2 R.[.Q.S.f.s.< < A.].(.[ q g @.W E R s E s s s E E E Q Q @.$.{ L d L u . = T.S.l.d.s.y.- - r.r.t.d.l.D.> # # # O O o o o o o F ~.@X$XOXZ.< > @ > > j x j l k l l G ' /././.3.;.3.=.=.6.`.tXtXyXyXuXyX5.{ u L P P P P P P P P P P P P P L Z ^.Q.A.Z.s.; ; ; ; y.s.C.D.Q.].{.).<.).<.6.6.`.6XeXrXrXrXrXyXuXpX<X].].).>.U :.2.>.H K < ; ; ; ; ; < < f.f.< f.C.Z.W.A.A z z z > z j j w % J S.$XmXmXmXmX$Xl.= Y w 8 + + w l B M Z -.:.C D Z.S.f.y.y.r.d.d.k.D.F.l.* X o o o o + i #.#. .| / V b > : : , - a.x.M.I.B.n.j.a.d.l.D.` | [ [ / V m m n 1 h.g.c.m.N.P.P.m.g.                                                                                                                                                                                                      ",
"                                                                                                                                                                                                                                                                                                                                                                                                                        x.m.n.j.n.n.n.N.P.U.L.a.g.x.x.L.M.c.a.- * X * c.c.d.r.r.t.t.t.r.t.k.c.W.!.!.: T.#X+XS.f.d.s.s.D.Q.].| q g O.W Q E s s s s s s E E Q Q @.&.T { d { [ + $ A S.D.f.s.s.r.r.r.r.t.y.l.D.< # # @ O O o o o o o # 1 OXMXVXMXS.A > > > > k x k k n ' _ ' ] 3./.(.;.) =.2.6.6.8.8.5.6XyX0XyX9Xo.L P P P P P P P P P P P P L L P C ^.R.A.C.s.; ; y.y.f.C.D.A.].{.).).).<.).`.wXwXeXrXrXyXrXuXuXuXuX).>.,.U P N -.>.` F A < ; ; ; ; < < f.s.s.< f.D.D.Q.Z.A z z z k x x j @ z Z.OXmXmXCXNX$Xs.= 8 w 8 6 w e l c M N ..4.*.M J D.l.d.y.y.d.d.l.S.F.c.* X o o o o o o w N  .-.=.^ F 2 < , - a.r.t.t.a.j.a.t.r.d.l.S.R.) N i / / V b 2 2 g.g.x.m.N.P.sXsXP.x.                                                                                                                                                                                                    ",
"                                                                                                                                                                                                                                                                                                                                                                                                                        x.M.V.n.n.n.m.N.P.L.x.3 p.x.x.L.L.m.a.- * X * c.c.d.r.r.t.t.t.t.k.l.S.OXQ.~.* h.#XOXF.k.d.d.d.D.Q.].| q q X.W Q E s s s s s s R R Q Q ! @.X.X.{ X.o.r $ @ A.D.f.d.s.r.r.r.r.t.t.d.D.A # # # O O O O o o o o # f.L.BXSXBXW.< > > > k k k b n ) ` ` ] /.(./.;.] 3.2.1.-.#.#.5.$.6X9X9X9X9X9X4.{ P N C P P P P P P P P P L Z C ^.Q.A.D.C.s.y.s.C.D.D.Q.].^.).).).).`.`.wXeXeXyXyXuXuXuXrXwX<.I t u L P t M ;.R.A.Z.s.; ; ; ; ; < s.f.s.< f.D.D.Q.A.b z z b z z k j > = A W.$XmXCXNXF.< 8 w 8 8 8 e l l M Z N L  . .M m Z.C.f.d.d.d.k.l.S.F.c.* # # o o o o o o O r C ;._ F F < , , r.r.r.t.t.t.t.r.r.r.f.D.Q.[.C N / V V b 2 , a.g.x.m.m.P.sXsXkXdXB.                                                                                                                                                                                                  ",
"                                                                                                                                                                                                                                                                                                                                                                                                                        g.M.M.n.n.m.N.P.P.L.  X 3 x.x.L.L.M.a.- * X * c.c.j.t.t.t.t.t.d.k.c.F.L.W.Y.X h.%X$XM.z.j.k.d.S.+XE. .g q { X.W E s f f f T s R R E Q ! @.&.X.E X.%.t . o A A.C.f.d.r.r.t.t.t.t.z.D.< # # # # O o o o o o o # = * d.L.gXL.1 > > z z z b n n n ' ` ` ;.;.] ;.=.3.1.4.8.4.$.$.#.%.4X4X4X8X9X9X9X$.{ L P C P P P P P P P P P Z H ].Q.D.D.D.D.D.D.F.F.+X].^.).).).).).`.wXwXeXyXuXuXuXeX<.I h 0 y y P Z t e B ^.R.Z.C.< ; ; ; ; ; ; ; y.s.s.C.D.Q.Q.F n b b z z z z j > > A OX$X$XOXf.= 8 8 6 8 w r B V C Z M N ....Z r D Z.D.l.l.l.l.c.F.F.c.* # o o o o o o o # O O w G ( Z.h.s.a.a.r.r.r.r.t.t.r.r.r.d.S.S.!.R.B M m b 2 : , a.a.x.m.M.P.sXkXhXhXkXdXL.                                                                                                                                                                                              ",
"                                                                                                                                                                                                                                                                                                                                                                                                                        g.B.B.N.m.N.N.P.P.L.      x.x.c.L.M.x.- * X - c.c.j.j.u.u.t.t.d.z.M.M.M.L.S.X < %X$XM.V.j.j.k.F.+X].4.f q f X.W T s g f d s s R R T W ~ @.&.W W O.4XL . o # Z.S.D.d.t.t.t.u.u.d.l.D.> # O # # O o o o o o O O # # # * * * = > z n n V m / ^ ^ ' _ ] ' ' ;.=.=.2.1.-.4.8.#.$.$.@.4X4X4X4X4X4X8X8X4X$.{ P P P P P P P P H P C N U ].Q.Q.F.F.F.G.%X+X+X].^.).).).)._._.`.`.wXwXyXyXwX,.I y 0 0 0 0 t c c 9 6 n R.A.Z.s.; ; ; ; ; ; y.y.s.s.f.D.D.Q.Z.S b b z z z z z z > > A Z.D.C.> = 8 e e w 6 e M V C Z Z N [ [ L a B A.D.S.F.F.F.F.F.S.l.* o o o o o o o O @ @ O o # z F Z.h.f.a.a.r.r.t.t.r.r.r.r.d.S.S.Z.T.n l l 2 2 , , t.a.a.j.M.B.sXjXzXzXzXzXhXI.                                                                                                                                                                                            ",
"                                                                                                                                                                                                                                                                                                                                                                                                                        g.M.B.N.N.N.aXdXP.M.      x.x.x.L.M.x., * X - S.M.z.j.u.u.u.u.z.c.F.M.B.L.h.* , $X$XI.V.V.z.l.F.+X].,.T q g X.X.W f d R d R R R T R R W &.&.O.O.@.4XX.4 5 O < D.D.l.d.d.u.u.u.z.l.D.> # O O + O O o o o O O O # @ O # o # # # # z _ ' _ ] ] ' ] ' /.] ) ] =.=.6.8.-.4.4.$.X.&.O.@.@.4X4X4X4X4X8X8X8X4X$.} L P P P P H H H H C V ` ^.Q.+X%X%X%XNX%X+X].^.).).).).).)._._.`.`.`.`.).U y 0 0 0 0 0 0 e e e 9 6 S R.Z.C.f.s.; ; ; y.y.y.y.y.d.l.D.Q.A.A n b z z z z z > > > > z z z > 8 e l M t c M Z C M M M u L i i u a G D.F.F.G.G.G.G.OXQ.J m w + . . o O O O @ + O # O % S Z.Z.c.d.a.d.j.t.t.t.t.t.k.F.F.Q.!.F > > > : , , t.t.a.j.V.B.P.kXzXcXcXcXzXjXI.                                                                                                                                                                                          ",
"                                                                                                                                                                                                                                                                                                                                                                                                                        , M.I.dXaXaXsXsXP.c.      g.c.g.M.L.c.a.* X * c.M.V.n.j.j.j.V.M.F.M.m.B.I.c.* - OX$XI.B.M.V.M.OX%X].,.E g p X.&.W T R R R d d R T R R T X.&.&.@.@.4XO.r 6 5 @ Z.S.D.l.z.z.z.V.V.F.S.> # O O @ O O o o o o O O O @ O O O @ # # o o z _ ` /./././.;././.;.=.-.1.1.1.-.#.X.X.X.X.@.W ! ! 4X4X3X4X4X4X4X8X8X9X%.} L N H U *.U U H H H R.Q.+X%XNXNXNXNX#X].^.^.^././.).).).).).).).).:.U y 0 0 0 0 0 7 7 7 7 6 6 6 J R.A.C.f.; ; ; y.y.y.y.y.d.l.D.Q.A.A z b b z z > > > > # = z z k j l l M B M M M B B B M Z L [ L d u r B R.OXOXOXOX$X$XF.A.` >.-.*.C t 6 . . O + + O + O # + j J Z.l.l.k.k.j.k.j.d.z.c.G.$XOX+Xh.> > : : , a.t.t.t.u.j.m.B.dXhXzXcXcXzXxXdX                                                                                                                                                                                          ",
"                                                                                                                                                                                                                                                                                                                                                                                                                          x.B.dXsXsXsXdXI.c.        c.g.c.L.M.j.- * - c.M.B.B.m.m.B.M.M.M.j.m.I.I.W.* * OX$XI.B.B.B.M.$X%X].o.W s q } X.X.T T R d i i d R d d T X.$.$.&.4X4X$.y 4 6 8 j Z.S.D.l.V.V.M.B.$XS.= # + O 8 @ O O O O o O + O @ # O + + + @ O $ o j ` (.oXoX(.(.(.(.2.3.=.6.4.+. .} X.X.X.W W W ! Q Q ! ! 3X3X3X4X4X4X8X8X9X$.| P H H ) *.*.*.H J E.Q.%XNXNXNXNX+X].^.^.;.:.;.:.:.>.:.>.>.>.>.H C 9 0 0 7 7 7 7 7 6 6 6 5 5 5 J R.Z.C.s.y.y.y.y.r.r.y.d.f.D.S.W.A A z z z > > = = = * X # S G B M M C M M t M M c t t Z u { ..d p a y J Q.%X%XmX$X%X+XF m Z ..4.4.,.-.Z r + . . O + + 6 6 w e G Z.Z.c.c.z.z.z.z.V.M.I.I.$XS.A 2 > , , , r.t.t.t.t.u.j.M.I.dXhXzXzXxXhXdXM.                                                                                                                                                                                        ",
"                                                                                                                                                                                                                                                                                                                                                                                                                          g.B.dXsXsXdXdXP.c.        g.g.g.L.M.x.a.* - c.I.B.B.B.I.I.B.$Xj.j.N.I.I.L.: 3 c.mXdXdXB.B.$XmX*X[.#.W s q { o.} { [ d i i i i p p p d { #.$.@.@.4X4Xd r e r 8 K S.S.F.G.G.I.mX$XS.= @ 8 + 8 8 O O O O O O + + # @ O + + + + + . # o @ G [.XX(.(._._.2.2.=.6.4.4.o.X.X.X.W W Q ! ! W Q Q ! Q Q Q ! 3X4X4X4X4X9X6X4.| H H ` ` ` R.R.R.E.+X%XNXNX*X+XR.R.` *.>.*.*.*.*.*.H H H H K K e 9 9 9 6 6 5 5 6 6 5 5 6 5 + K A.Z.C.s.s.y.y.y.y.y.d.l.D.D.W.A < z A > = = # # # = # $ # B G B C C C B Z M r e t Z N p N d i u p y B R.+X%XNXmX%X+XJ l e Z [ .. . .} } { M r 5 5 6 6 6 w r t B D Z.S.c.M.M.M.B.I.dXdX$XS.F 1 1 , , a.r.t.t.w.t.u.j.V.B.P.dXkXkXhXkXkXdXM.                                                                                                                                                                                      ",
"                                                                                                                                                                                                                                                                                                                                                                                                                          a.M.I.sXsXdXdXU.c.          , g.L.L.M.k.- - c.I.dXdXdXdXdXI.M.j.n.N.I.I.L., * g.&XmXdXdXdXmXNX*X[.#.Q R p u  . .} [ L i N N V p p N N | 1.+.$.%.%.4XX.u t y e c R.W.$X$XmXMXMX$XC.= 8 5 5 8 8 + + O O O O + + @ 8 O O + + O + O @ O o o > R..XoX'. X_.2.=.=.1.4.#.@.@.X.W W Q Q Q Q Q Q Q Q Q Q Q ! @.@.@.4X4X9X9X8.:.) ` R.R.R.R.R.R.R.+X%X%X+XQ.R.J _ J H H H H H H G G G S B K l 7 6 6 6 6 6 5 6 6 6 5 6 5 5 O x R.Z.C.l.l.d.y.y.y.z.l.D.S.Q.f.* # > = # # # # # # # # o o m H *.) V B Z C t r y u L u u u p p d R N _ Q.$XmXmX%X[.:.^ t a Z [ L L f f X.X.{ u a r e e c r e e M V J W.S.F.G.$XmXdXdX$XW.F 1 h.a.a.a.r.t.t.t.t.j.j.M.B.I.P.I.sXkXkXkXdXm.                                                                                                                                                                                      ",
"                                                                                                                                                                                                                                                                                                                                                                                                                            x.P.dXsXkXdXU.g.          : , c.L.I.M.j.a.x.I.fXfXfXdXdXI.n.j.n.N.I.I.L.g.* , &XMXfXMXMXBXCX*X[.@.Q T g p -.1...| [ N N C V V / / / | =.3.1.%.%.8X#.[ N t t Z ;.Q.OXmXmXBXVX%XA 8 6 6 5 8 8 + + O O O O + + O @ @ o + @ + @ O O + O o o o n (.XXXX|._.3.2.8.#.$.@.X.X.W W W Q Q Q Q Q E Q Q Q Q W X.W O.@.$.5.5.7.`./.` D D _ _ J J A.T.W.Q.R.R.J J J G J G G G G S S S S n n x x 9 6 6 6 6 6 6 6 6 5 5 6 5 5 5 O A R.D.D.l.l.d.z.z.l.l.F.OXOX< X $ @ = # O @ # o o # # @ # # B ;.' ) ^ Z Z N u t u L i d u p p g d [ N _ +X$X+X].:.,.-.| M t u d d d g f E X.X.{ Z r r M t e y t i | ) A.S.G.$XdXdXdX$XW.T.h.h.g.d.a.a.a.a.a.a.j.V.B.B.dXdXI.I.dXdXdXP.x.                                                                                                                                                                                      ",
"                                                                                                                                                                                                                                                                                                                                                                                                                            g.P.dXkXkXsXP.                a.L.I.I.M.V.V.dXfXjXBXMXI.B.n.n.n.N.dXI.I.c., , I.MXBXBXVXVXCX*X[.o.W E f p ..3.=.=.| N V V m V / / / ^ ' R.] 1.8.0.4.[ N u M P -.;.Q.$XMXBXMXF.Y 8 6 6 6 + 8 6 + O 5 O O + + O @ 8 O O @ @ @ + O @ O O O O o # S (. X|.'.6.4.4.$.@.X.W W W Q Q Q Q Q E T E W Q W T T W X.@.#.#.5.8._._.(.R.S b S S A A A F F F J J J D D D D D D D S S S S S S k x x 8 6 6 5 5 5 6 5 5 5 6 5 5 5 + O x A.D.D.D.D.l.l.c.F.G.OXOXf.X $ o # O O O o o o o o # # o # B ;.) ^ C N N u d [ L i d u p g d d d d N ) R.A.U { X.o.o. .L p d d g g g T T E E { { N t y y t u i L { ..` W.OX$X$XI.M.S.Z.h.c.c.c.k.k.k.j.j.j.V.B.B.dXdXdXI.M.M.M.M.                                                                                                                                                                                          ",
"                                                                                                                                                                                                                                                                                                                                                                                                                              m.P.sXsXsXm.                3 M.I.dXI.I.P.dXgXfXMXdXI.B.n.n.n.B.dXI.I.L.g., c.MXBXSXHXHXDXNX[. .X.T E d N 2.=.=.^ C n n b S D D D D R.R.R.] 2.8.6.-.N L L -.6.1.` A.$X&X$XC.j 8 6 6 7 5 8 8 + 5 5 5 O + + + @ @ O O + + @ @ o 8 + O O O O o o # m ^. X}.8.+.#.&.X.W W W Q Q Q Q Q E E W T T R R T } } } {  .1.2.(.(.(.!.E.( 2 > > > > > > k S S F D F F F D D S S D F S S S z k l Y 8 6 + 5 5 5 5 5 5 5 5 5 5 O O + z A.A.D.S.F.F.F.$X$X%X+X^.U c 8 o o o o o o o o o o o # o + G *.*...[ i i { L u d u g f f R d g g d i N Z u g T X.#. . .[ i i p p g s s s f T } } } [ u u i d i d { {  .' T.h.d.s.k.c.c.g.f.h.c.c.c.c.c.z.m.B.B.dXdXdXM.                                                                                                                                                                                                  ",
"                                                                                                                                                                                                                                                                                                                                                                                                                              g.P.dXsXP.x.                  x.I.dXdXkXfXkXdXdXdXdXdXB.m.n.N.B.dXI.I.I.M.g.g.I.BXSXHXJXDXNX[. .{ R T R y ] 3.' ' G S b 2 A 2 < 1 A Z.T.R.R.] (._.2.=. . .8.8.8.-.Z J A.A.j 9 7 6 7 7 5 e 8 5 5 5 6 5 5 + + # @ @ O + + + @ O @ + O O O O O o o o # k ) 6.%.%.$.X.W W W W Q Q E E E T T T T T T { { { [ / ^ =.3.(.(.!.E.!.!.R.F = # @ @ = k b z z b b F F D F F F F F F F A A k j j Y 8 5 5 6 5 5 5 5 5 5 5 5 6 5 5 + x R.Q.S.F.$X$X$XNXmX+X{.7.4.,.C 6 o . o o o o o o o o o o # Z -.4.,.[ d { d d g q g T T T p p p g d u u p p d { } } | | [ i i i g g s s s T E T } ..| | N d d i d T T } | m > , d.c.x.a.        h.c.c.c.M.M.B.dXsXI.V.                                                                                                                                                                                                  ",
"                                                                                                                                                                                                                                                                                                                                                                                                                                x.N.P.M.                    a.I.dXfXjXhXjXdXI.I.mXdXdXN.N.N.dXdXI.U.I.I.x.g.m.MXSXHXHXSXNX(.} T T } } p B R.` _ J F A < 1 < < < < f.Z.W.Y.R.E.(./.:.-.8.7.6X$.} g N K x e e e 7 7 7 6 e e 6 5 5 6 6 6 + + @ 8 8 + O + + 8 + + 8 O O O O O O O o o # # w =.5.%.&.X.W W W E W E E E T f R T T { [ [ [ / / ^ ^ ` R.R.R.Y.W.W.Q.Q.A.j # # @ # = = > > z z z S F 1 2 2 2 2 2 > = @ # @ j j 8 8 5 5 5 5 O 5 5 5 5 6 5 6 6 5 j A.S.+X%X%XNXNXNX%X^.,.} } } ..Z 7 . . o o o o o o o o o + P 8.8...L { T g g p g s R d p p p u g d g p p d R { [ [ | ..[ d d i p g s s R R R { [ | ^ ) ) N i i d R T } ..^ 2 < j.c.c.                g.c.M.M.M.M.                                                                                                                                                                                                    ",
"                                                                                                                                                                                                                                                                                                                                                                                                                                  x.x.g.                      x.dXfXjXjXjXfXI.I.mXdXdXaXN.N.sXdXI.I.dXdXm.x.x.I.CXSXHXSX*X2.+.{ { } #.{ M _ R.R.Z.F F < < < < , < < f.S.W.Z.Q.].(.2.4.8.6X6X$.X.p P P t e e e e 7 e 7 9 e 6 5 5 6 6 6 6 6 @ 8 w 8 + + 8 8 8 + 8 @ + O O O O O O # % > @ # B +.$.$.X.W W E E E T T R R R R R [ | | | / / ) G J ( T.T.Z.Z.S.S.S.Q.R.S @ # # @ @ @ > j j j > > > * # X > > = # # # @ = j j 8 8 + + O O 5 5 5 6 6 6 6 6 6 w n A.Q.%XmXNXNXmX+X^.[ T T T E E { L r . . o o o o o o o O + C 8.4.X.} T d g s T f g g p g g d g g d u p p d [ N / [ | ..[ i u p g f R R R q./ / / ) _ D ( V M p p R { [ ^ ^ F f.c.m.x.                                                                                                                                                                                                                              ",
"                                                                                                                                                                                                                                                                                                                                                                                                                                                                P.fXjXzXzXjXU.x.I.gXgXsXaXsXdXgXdXdXdXkXP.x.x.n.$XMXVXMX[.3.+... .+.+.} N G R.R.T.Z.F < < < , s.- < f.D.W.Z.W.Q.]./.8.5.6X6X4XW p ..I L p t y e e e 7 7 l 7 6 6 6 6 7 6 6 8 8 j 8 + 5 6 + 8 + 8 @ + O O O O O + @ % > k # # r [ 4.#.&.O.W E E T T R T T R [ / | ^ ^ ^ ) G G D F F F C.f.C.S.D.S.S.Q.R.z # o @ @ @ @ 8 j j > = # $ $ # = # # # # # = = = j 8 8 + + 6 5 5 6 6 6 6 6 8 l e c B R.Q.%XmXNX%X+XH d g s E E E E X.X.d t + . o o o o o o o o M 8.8.o.X.f f T E s s g g d d g g g d d i i i i i i N ^ | | N p i p i R R q.p M / V D D F F F F B i p i N N / ^ F h.c.M.j.                                                                                                                                                                                                                            ",
"                                                                                                                                                                                                                                                                                                                                                                                                                                                                x.I.jXhXjXfXL.a.I.dXfXkXkXkXfXgXdXdXdXkXdXM.c.x.M.L.$X@X(.3.^ ^ ^ =.=.[ [ ^ R.R.T.Z.< < < , r.r.r.- s.l.S.S.S.Q.]./.8.6X9X6X4XO.g o.o.L u u t 0 e t y 7 c e 7 7 7 7 7 7 9 e w w 8 5 O 6 + 8 8 8 8 + O O O O O + + % > z @ + + + y  .#.&.W W E E T T T T R [ [ ^ / ^ ) _ D S F F 1 < f.f.f.f.f.l.S.S.S.Q.J j # @ @ @ 8 @ @ @ Y j @ o # # # # + # # # # # @ j j 8 8 8 6 6 6 6 6 6 6 r c e r M V _ Q.+X%X+XR.C d g f E E E E E f E X.L r O . o o o # # o O r ,.$.X.E T R f T s g f R d d g i i i i p p u u i N N C | | i d i p p i p p m m n b 2 1 1 h.Z.Z.D M p p p V / ( F h.c.c.a.                                                                                                                                                                                                                          ",
"                                                                                                                                                                                                                                                                                                                                                                                                                                                                  m.P.fXfXI.    M.dXfXjXjXjXfXfXI.I.dXkXkXM.c.x.c.g.g.Y.;.] ^ V V _ ) ^ ..| _ T.W.Z.Z.s.< s.r.r.r.r.d.l.S.S.S.Q.#X].6.6X9X8X4XW p o.,.L L L u t t p y 7 M c 7 7 7 r r r r e w w l 6 O 6 6 6 9 6 9 6 O O O O O + @ @ > k w 8 8 5 5 w N o.&.W W E R R T T { | / / / V G D b S F 1 < < < s.s.s.f.d.l.l.S.D.S.A.F j # O @ 8 @ 8 @ @ @ w > # O + O + # # # O + @ 8 j j 8 6 6 6 w 8 7 6 e e r e c Z C C G A.J P d T E E s s E T f g g T { } L r o o o o O O O . w } $.O.E T T E T s T T R R d i i i i p a t M N N Z Z ^ =.*.[ R i i p p a m m b 2 < , , f.h.Z.Z.F m l m V V D 1 h.h.x.x.                                                                                                                                                                                                                          ",
"                                                                                                                                                                                                                                                                                                                                                                                                                                                                    x.M.L.M.    g.I.fXjXjXjXfXMXI.U.I.kXkXP.x.c.c.k.: ( R._ G S b F _ ^ ' ^ ^ Z.W.S.Z.f.s.r.r.r.r.t.r.l.S.F.S.OX+X].).6X9X4X@.Q p o.<.{ L L L p u u t 7 Z P e 7 r u y y a e e l B 8 5 6 6 6 e 6 8 6 O O O O O + @ @ + j j 8 w 6 6 5 + r d X.&.X.T T T T R [ / N Z m m z z A A < < < s.f.s.s.s.s.d.l.l.l.D.D.D.A.F j @ O @ @ @ # # @ @ % + # O O O # O + @ @ # # j j j w 8 e e 8 9 e e y t M N N L Z N L d g T E T g g s f g g d T T {  ...Z w o o o O O O . 6 { O.X.E T T s g s T T T d u p p p p M M M Z Z Z Z ^ ' ' ) / q./ p p m m k 2 : < , , < s.f.f.Z.F n m m b 2 1 g.g.x.x.,                                                                                                                                                                                                                         ",
"                                                                                                                                                                                                                                                                                                                                                                                                                                                                                  L.dXjXjXjXjXmXL.g.m.sXkXP.x.c.c.c.< Z.Y.T.F < < 1 ( F ( ' _ < Z.W.S.f.s.y.r.r.t.t.y.z.l.F.F.S.+X+X(.5.9X4X@.X.q ,.7.} L L L p u L u y c P t y y e y y e e r M H e 6 6 6 6 e e e 9 + O O O 5 + 6 8 @ + j @ l 9 6 6 + . . w { #.X.} T T T [ / C B l k k z A A 1 < < f.s.f.s.a.s.d.d.d.k.l.D.D.D.D.A.J z # # @ @ # # # @ @ @ # O O # O O + @ # o # @ j l l e c c c e r t u N N L L L d d g g f f g p q g g d d d i i i N L *.=.M # o o O O O . 6 f O.X.E E f s T R T R d i u p p u M M t M M B B V G ` ` C N N i M M m k > : < , , , , s.f.f.Z.Z.F b 2 : , , g.g.g.a.                                                                                                                                                                                                                        ",
"                                                                                                                                                                                                                                                                                                                                                                                                                                                                                  c.dXjXjXjXfXI.c.  , m.N.x.a.h.c.c.s.h.Y.T.f., , , 1 F F T.T.< , W.S.S.f.y.y.r.t.t.y.z.c.F.F.S.+X+X].8.9X8X%.X.a o.tX,.L { { .. ...L y u | Z u p t t y t e e t C c 6 6 8 7 e e e e 6 + O 5 5 O + 6 6 # > j c e 6 w + O . . 6 [ o.X.} } } ..| ^ M l b b A A 1 < < s.s.s.d.a.s.d.d.d.d.d.k.l.D.D.D.D.S.R.F > # # # @ @ @ @ # % @ O O O O O + # @ # O o # j l v V Z M t N [ N i d d T d g g g g g g g g g g i i p p u t M M C ) =.G % o o O # O O 5 L O.E E f s g g d d d i p p u M M M l l M l l m n G _ _ C M u V m m > > : : - - - - r.a.d.f.h.Z.1 2 : , , a.a.x.g.g.                                                                                                                                                                                                                      ",
"                                                                                                                                                                                                                                                                                                                                                                                                                                                                                    U.fXjXjXfXL.            : h.h.c.g.h.W.S.f., , , , , < S.W.h.- g.OXS.l.d.y.r.t.t.u.z.c.F.F.F.OX%X;X_.9X8X5.+.a  .tX8.L [ }  . .,.{ u u  ...L d u u u N u t M C C e 7 e r e M e e e 6 5 5 5 5 5 6 6 + @ j c l 6 e 5 O 5 5 . + Z  .#. . . .| ^ ^ n S S F F 1 < < s.s.s.d.s.a.d.d.d.d.y.d.z.z.l.l.D.S.S.S.Z.F = # # @ @ @ # @ w j # o o O # # + + + O O # # w v V Z C | ..L u p g T T f d g g g g g g R R d i y t t t c l m B G J ` k o # # # + O 6 d X.X.T g g g g p p p p i N M M l l l l k k b n D D _ G m l l k > > : : * - - - - r.r.d.d.c.c.c.a., , - r.t.a.x.x.x.                                                                                                                                                                                                                    ",
"                                                                                                                                                                                                                                                                                                                                                                                                                                                                                    c.I.fXfXI.c.            X 1 h.c.g.f.W.c.g.a., , , , d.S.W.S.d.a.c.F.D.l.d.r.t.t.z.z.M.G.OXF.G.%X#X[.9.9.8.-.t C tX8.{ L { L } o.o.L p 4. .} L u u u i u p u N | M r e e e Z M e t 7 6 6 6 6 6 5 6 6 + 8 l c 6 e 5 5 5 5 5 . . r  .4.4.1.=.=.) G D S F F F < f.s.s.f.d.d.a.d.d.t.t.y.y.d.z.z.l.l.S.F.F.S.D.Z.z # # @ 8 + + @ w j @ O O O O O + + + O O O O @ l C :.-. .L u p g T T f g g g g g d g d R d i t y y t l x l k A F A.R.S @ # # + 8 6 5 L $.E f g s g p p i i / N V m m k k k > > b b S F Z.Y.F > > > > : : * * - - - r.r.t.r.d.k.V.M.x.a.p.- - r.t.a.x.x.k.                                                                                                                                                                                                                  ",
"                                                                                                                                                                                                                                                                                                                                                                                                                                                                                      x.L.L.c.                2 g.c.c.g.W.c.k.a.r.r.r.r.d.c.OXOXM.j.a.c.S.S.c.d.d.z.z.V.M.$X$X$XG.%X%X#X'.7._.] m l tX7.} I I { o.o.o.{ p } 4.} { I d d d d L u N -.-.t t y y Z P t e e 7 7 7 7 7 6 6 6 6 6 l c 7 e 5 5 4 5 5 5 5 . r C 2.2.3.=.;.` _ D F Z.F 1 h.f.f.f.f.d.d.d.d.y.y.y.y.y.d.z.z.l.l.F.F.F.F.S.S.F = # 8 + + 8 8 8 l j + o O + + + + + O O O O + w C 2.-.{ d g g s s g g g g g g g d d d d L u t y e l l j > > A A F A.J = # + 8 8 6 5 u X.E T g g i p i i N V m m b b b 2 > > > 2 2 1 Z.Z.T.2 > > > : : * - - - - r.r.t.t.t.k.V.B.B.n.w.w.w.t.r.r.a.j.V.c.                                                                                                                                                                                                                ",
"                                                                                                                                                                                                                                                                                                                                                                                                                                                                                                                1 h.c.g.c.c.d.a.a.r.r.a.d.M.OX$XI.m.a.a.c.F.S.l.l.l.V.M.G.mXmX$X$XmX&X#X[.'.(.E.F @ 8.9Xo.T f X.o.O.} { u L 8.o.X.{ d d [ L L u i  .,.N u u y u P N y t r 7 7 7 7 7 7 e 6 6 w r 7 e 6 6 6 4 5 5 6 6 6 O r *.3.3.3.^.R._ T.Z.F Z.Z.f.h.f.f.f.f.d.d.d.d.y.y.d.k.z.z.k.V.M.F.F.G.$XOXOXC.= @ 8 8 6 8 8 w B B l + O + + + + O O O O O O + M :.,.{ g g g s s s g p g g d d d d [ [ N Z c l x l j > < < < < Z.Z.Z.> @ # + 6 7 6 d X.W T R R d d N p m m b z 2 2 > > > : 2 < < h.h.Z.F 2 2 > > : * - - - - r.t.u.u.u.j.V.B.I.B.j.w.t.t.t.t.t.j.V.V.m.                                                                                                                                                                                                              ",
"                                                                                                                                                                                                                                                                                                                                                                                                                                                                                                                2 h.c.h.c.c.k.a.a.t.t.t.j.M.OX$XI.P.V.j.a.F.OXOXF.F.G.$XmXmXmXmXmXMXMX*X#X[.!.~.Z.# =.6Xo.X.T O.O.O.X.O.g g 5.#.X.T f T { L L d d { 4...i N N p [ ..t u t e 0 7 7 7 7 e r 7 7 c l e 6 6 4 6 6 4 6 6 e 5 . 5 B ] ;.(.R.E.R.Y.T.Z.Z.Z.Z.Z.S.l.l.k.l.l.l.k.z.z.z.z.z.z.l.V.M.F.G.$XmX$XOXA @ 8 8 8 8 6 8 l l B B 8 o O + + + + # O O O O . e ..o.I g g s s s g g g p p p p d L N N Z M l b j j z < ; ; < < C.Z.A.z w w w e 7 4 d X.X.{ T R [ i a m m b b 2 2 > > : , , < < < h.h.Z.F 2 > : * * - - - - - t.t.u.u.j.V.B.dXkXN.e.w.t.t.t.u.j.n.m.N.m.                                                                                                                                                                                                            ",
"                                                                                                                                                                                                                                                                                                                                                                                                                                                                                                                  , S.h.c.L.c.a.a.t.t.t.d.c.OX$XI.I.B.M.x.c.L.OXOX$X$XmXMXBXBXBXBXBXVXMX@X!.!.~.S.= ^ 6X$.O.X.X.X.E T O.f p 5.%.O.f f T X.{ { d g E $.#.{ d i i .. .p p u t q 0 0 0 e e e r e c B c e 7 7 4 4 4 7 6 e e 4 4 4 w n ` R.E.E.E.R.R.T.W.W.W.W.S.S.l.D.D.D.l.l.l.l.l.z.k.l.F.F.G.$X$XmXmX$XS.z w 8 e w 8 8 w e r Z V e O O O + + # O + O O + + e { o.f d s g s g g g p p a y u i i u M M v x j j j > < ; ; ; < f.Z.A.J b w l r r y d X.X.} T [ N u M l k 2 2 2 2 , , : : , , , f.h.Z.Z.< > > : - - - - - - r.t.u.u.j.V.P.dXkXsXi.u.t.t.t.u.j.m.N.N.N.x.                                                                                                                                                                                                          ",
"                                                                                                                                                                                                                                                                                                                                                                                                                                                                                                                  : h.h.c.L.c.k.t.t.t.t.d.z.M.OXI.I.I.B.B.M.M.OXOX$XmXmXBXVXVXBXVXSXSXBXMX@X!.OXc., m $.&.X.W E E E T T f q $.$.X.s g f W X.W s g T @.4Xo.d { [ } 4.[ i L L y q 0 0 y y t e e c M M e e e 7 7 7 7 7 e t 7 4 4 7 l m S R.!.!.E.E.E.Q.Q.Q.+X+XQ.S.D.S.S.F.F.D.D.l.l.l.l.M.G.G.$X$XmXmX$XF.J j e e l e 9 e e e c C *.B + . + + # + + + + + + 6 e P } { T f f s s g g p p y p p p Z M l l k j j j = ; ; ; y.; s.f.Z.Z.J b M M c y y d } } { [ / N B m > 2 2 1 , , , , - - , , , f.h.S.< < < , , - - - - - r.t.u.j.j.m.dXdXkXaXn.u.t.r.t.u.j.m.B.dXdXN.                                                                                                                                                                                                          ",
"                                                                                                                                                                                                                                                                                                                                                                                                                                                                                                                    < h.h.OXM.k.t.t.t.u.j.c.M.OXL.I.dXdXI.I.I.I.U.$X&XmXBXVXVXVXVXHXHXVXMX@X@XOXOXs.> #.@.W E E E E E T s q O.7XE s s s T E E s g s O.4X$.T } X.T $.#.{ } } d y q q y u p t t e M C t t e 7 7 7 0 7 e M y 7 4 7 t V G _ ` E.E.E.!.!.[.!.!.#X#XQ.Q.+X+X+X+XOXS.S.D.S.S.F.G.$X$X$X$X$X$XD.S j l l r c c e r e e M -.:.H r 6 + + @ + + @ 8 5 6 e r N { { T f f T T g g p p p t u M M l x k j > z < ; ; ; ; ; y.s.f.C.Z.A.S B Z u u u L { { { [ / Z l > > > 2 , , - - - - - a.s.f.h.h.h., < < , - - r.r.r.r.t.t.j.V.B.dXdXsXm.j.j.a.t.j.j.V.B.dXdXkXdXm.                                                                                                                                                                                                        ",
"                                                                                                                                                                                                                                                                                                                                                                                                                                                                                                                      1 h.J.M.z.t.t.t.u.j.z.M.OXc.I.dXdXdXgXgXdXI.L.OX&XMXBXBXBXBXcXHXHXBX&X@XOXOXc.:  .$.@.s s s T E E s g f O.E s s s s E E s s s W @.$.X.X.O.E $.6X#.} o.{ h y y u u p u u t u P N t t y 7 7 7 7 e Z t 7 4 4 a V ' ' ' ] ' ' /.(.[.(.[.[.[.[.[.;X].[.+X+X+XQ.Q.W.OXF.F.OXOXF.F.D.C.A l e e t c M Z M r t y t L -.-.C t 6 O + + 6 8 8 6 6 9 r r u { { f R T R d g u u t y t B l l x k z > = ; ; ; ; ; ; y.r.s.d.C.A.A.V N N i L { d [ { | / Z l b > : , , : * - - - - r.a.a.f.c.h.h.f.g.a.d.a.a.a.a.d.a.k.z.V.M.I.I.B.j.k.k.k.z.x.V.M.B.dXdXdXdXn.                                                                                                                                                                                                        ",
"                                                                                                                                                                                                                                                                                                                                                                                                                                                                                                                      2 1 c.M.c.d.t.u.j.j.V.M.c., c.I.dXfXjXfXfXI.L.g.c.$X&X$XmXBXcXHXHXBX&X@XOXOXM., / %.@.E s E E E T s g g O.X.s s s s s s R E R Q ! 4X&.O.@.W @.8X5.X.{ } d h d L d p p d u u N | u y t y y 7 r t N Z y 4 4 7 Z ' ;.3./.3.3.3././.2./.(./././.(.[.{.[..X.X].Q.S.S.D.f.< A A > j 8 e l Z c M Z Z Z M Z Z t t L L N N [ N 6 O 5 6 8 e 6 6 6 w r a i { { f f f g g g u u y t M m l x z > > = ; ; ; ; ; ; ; r.t.d.l.D.Z.J C C L L f T d { | ^ C m b < < , , : - - - - - r.r.a.g.c.S.h.h.c.c.c.k.d.d.f.k.k.c.l.c.M.M.M.M.c.c.c.c.V.V.M.B.B.dXdXdXN.                                                                                                                                                                                                          ",
"                                                                                                                                                                                                                                                                                                                                                                                                                                                                                                                        < c.M.c.k.u.j.j.j.M.M.c.    L.dXkXjXjXjXdXc.  2 W.@XM.M.dXjXjXSXVXMX@XOXOXOXf.l $.@.Q E E E T T f s p { O.f s s s s s R E E Q ! @.@.W 4X4X4X4X6X5.X.$.} { I I L d g d u u L -.[ p y y r y y u P N t q 4 4 a ) 3.2./.2.3.3.2.2.1.8.1.=.......-.4.8.`.`.).S = * = # # # x x c c e c Z Z Z Z Z Z Z N L L L L N u i } $. .t 5 6 6 6 e 6 6 6 r t Z N L I f f f g g u u u t c l l j > > > ; ; ; ; ; ; ; - r.r.t.d.l.D.A._ | P L f d T T [ | ^ D F 1 < , , - - - - - - - - a.d.c.S.c.S.S.S.c.c.c.Z.S.c.c.S.S.S.c.x.g.c.c.c.c.c.V.M.M.I.I.I.dXdXm.                                                                                                                                                                                                          ",
"                                                                                                                                                                                                                                                                                                                                                                                                                                                                                                                          h.S.c.k.k.j.j.n.M.M.c.    c.I.kXjXjXjXdXM.    W.@XL.x.n.dXfXBXBXMX$XOXOXL.c.< #.4XQ Q W E T T T T p g O.T s s g s s R Q Q Q ! ! @.! @.4X4X4X4X4XX.$.$.O.{ { L I L I L d d P -.L u u u u u i [ | u y 7 q 7 Z 3._./.2.3.3.6.1.1.#.4.|  . .} } } #.8.8.8.8.M O + + @ @ 8 c C M c t M Z Z Z u u L L L L { { [ i d { $.$.o.I r 7 e e e e 6 7 r u L [ I { T T d d d u u u t l l j > > < ; ; ; ; ; ; y.r.r.t.t.t.d.l.D.A.` P L f f T R R / ^ _ J Z.h.< , - - - - - - - - a.d.c.c.c.c.h.c.c.c.S.!.[..X].R.R.Y.S.c.c.c.c.c.c.c.x.M.M.I.I.dXdXdXN.                                                                                                                                                                                                          ",
"                                                                                                                                                                                                                                                                                                                                                                                                                                                                                                                            S.c.M.V.V.n.m.B.B.c.      c.dXjXjXjXdX      h.OXOXM.k.j.N.dXgX$XOXOXOX$XL.1 ..%.@.Q W W T R f f g g O.X.s s s s s R E E E Q ! ! W Q 4X4X4X4X4XO.O.6X$.I f f I { } { L d L -.[ u u u u u i | ..N y q q q a =./._. X2.2.6.-. .} [ [ { } { { } }  . .o.4.4.M 5 O + 8 6 6 B H Z Z Z Z Z u u u d L I { { } } { T f X.X.X.&.} t r e e t y r 7 y i [ { { { { { { L N Z M c l j k z > < ; ; y.y.y.y.r.r.t.t.u.t.t.d.l.S.A.*.L d T T R R d i V J Z.Z.s., r.- r.r.- - - - r.a.k.c.c.g.g.a.g.g.c.S.Q.XXXX{.).;.R.R.T.S.c.c.c.c.M.M.B.I.dXdXkXsXm.                                                                                                                                                                                                          ",
"                                                                                                                                                                                                                                                                                                                                                                                                                                                                                                                            Z.S.M.M.M.M.B.I.I.c.        L.dXjXhXdX        W.OXM.z.j.j.n.M.OXOXOXW.OXL.c.G #.&.@.W T T { R R g q { X.f s s g s s R E R R Q ! @.Q ! 4X4X4X4X4XX.6X$.f s f { } X.X.{ L { .. .i u d d d L  .1.| t q q q r Z 2._. X_.2.2.1. .[ [ { { { T { X.} ....o.o.o.4.c O O 6 6 6 6 M *.P Z P u L L L L L I { { { } X.X.f f E X.O.@.O.d e 7 t t t y y u u d [ { { [ [ [ N M t l l x j z < < ; ; ; ; ; y.r.r.t.t.u.u.t.t.k.S.S.Q.H L I T T d d d i V Z.Z.h.d.a.r.t.t.- - - r.r.a.k.c.x.x.x.a.a.a.j.c.c.Z.^.).).<.:.;._ A.h.g.g.c.c.c.M.M.B.N.N.m.                                                                                                                                                                                                            ",
"                                                                                                                                                                                                                                                                                                                                                                                                                                                                                                                              S.F.G.B.B.I.dXI.M.          L.dXdXI.        c.$XL.M.z.j.j.j.V.M.OXc.W.$XOXZ.+.@.@.X.} [ [ N i i q d T T R s g g g d R E W W @.@.W W @.%.4X4X4XO.%.6XO.X.f f { X.X.{ T { } #.} [ d L L d { 4. .u a r r r r =.2.7.8.2.4.+.} { } } } } } } X.{ ..| } o.#.#.4.t + 5 6 6 7 6 Z <.[ L L d L d d d I f L f { O.X.T f T Q Q ! @.O.d y t t t t u u d d I { } L N ..P Z M l v b z z < ; ; ; ; ; ; y.r.r.r.t.t.t.t.t.d.M.G.OXQ.C L d f T d d d M D T.S.c.k.d.r.r.r.r.r.r.t.a.k.M.m.x.i.i.a.a.a.a.j.k.c.R.).`.)./.^.` F :                                                                                                                                                                                                                                 ",
"                                                                                                                                                                                                                                                                                                                                                                                                                                                                                                                                W.G.I.dXdXdXI.M.            L.L.x.        h.OX$XM.V.j.j.j.V.B.OXW.c.$XI.J.` #.&.o.} / / N M u a p } W T f d d g i R T R E &.%.X.T @.@.4X4X4X@.X.6X4XO.f f E X.{ T f T { } o.} [ [ d d { 4.4.N a r r r r M 3._.}.6.1.+.} { } { T T } T { [ [ ..{ { X.#.4.-.r 4 6 7 7 9 r P 4. .I L L L d f { T g d T X.X.E f R W Q E Q ! X.{ d L u u u L { I f f X.o.Z c C ) C B B S K A < < ; ; ; ; y.y.y.y.r.r.r.r.t.t.z.M.G.$XOXR.P i g T T R q.N V S Z.c.l.k.a.a.t.t.t.t.j.k.V.M.m.j.i.j.w.t.u.t.a.j.x.c.A.].{.{.^.R.R.2                                                                                                                                                                                                                                 ",
"                                                                                                                                                                                                                                                                                                                                                                                                                                                                                                                                W.OXI.dXgXgXdXc.                            J.$XOXM.j.j.j.n.M.L.OXh.L.I.$XY.;.4.+. .| / M B M t r [ } } R d i i p i R i R X.$.#.R T X.@.4X4X@.W $.6XO.E f T E X.X.X.T { X.X.X.{ L d d { 4.4./ r % w w r r ^ _. X7.4.#.o.X.E T R T T T R R { { T T } X.o.4.-.t 4 y 7 r y 7 P <.o.I I f g f { f g f f E E E g s T E s s W O.O.X.{ d u u { } { d T T X.X.d r C ) ) J J F A < < < ; < < y.y.y.y.r.y.y.r.t.d.z.M.$XmX$X+X*.L d d R [ / V V b b Z.c.l.k.j.a.u.u.j.j.n.M.M.V.j.i.j.u.t.t.u.t.j.j.c.M.S.Q.{.[.R.R.1                                                                                                                                                                                                                                 ",
"                                                                                                                                                                                                                                                                                                                                                                                                                                                                                                                                  W.$XgXfXfXdX                                OX$XG.V.j.j.n.M.B.OXH.h.U.I.OXR.3.1...^ C B m m l w N } { d i i u a p M M N [  .4.[ N [ +.%.6X$.X.X.4X&.E s E E E O.X.R T E O.X.{ { d g T o.4.^ % % % w r r a =._.}.8.5.#.X.X.W W W T R R d L d T T { [ { o.4.4.P M t t t y e I 8.} I g g f g g g f f f f f g g f T f g E E E X.X.{ d d I { T f X.X.X.O.O.I p | -.*.) J F Z.C.< f.< s.s.< < s.s.s.y.d.k.z.M.G.mXmXmX%X^.L L i i N / / V b 2 1 S.c.l.z.j.j.j.j.n.V.B.B.n.j.a.u.t.t.t.u.u.u.j.z.M.M.M.S.Q.E.R.1                                                                                                                                                                                                                                 ",
"                                                                                                                                                                                                                                                                                                                                                                                                                                                                                                                                  h.L.dXgXfXI.                                c.OX$XB.V.n.V.M.I.I.W., c.U.$XW.] 3.=.^ V n b S z % M  .} L N N t t M B m B Z ^ -.:.C Z ^ 1.8.$.@.W $.&.W E E E E W T f T T X.&.X.T T f R O.$.^ > > > @ r a t t -.7.8.%.$.X.X.X.X.X.T R R d i p L [ d L [ | -.,.6.*.M t e p u y I ,.} f f f s g g T f s f f f f f T R R T T T E X.#.o.{ [ I I { O.X.W W W O.{ p } o.} ..` R.Z.A.Z.C.C.C.C.C.C.f.f.f.l.l.S.G.$XmXfXMX$XQ.| N N N N / ' ( 2 1 , , c.c.V.V.V.V.M.B.B.B.B.m.a.t.t.t.t.t.t.u.u.t.j.c.M.B.M.M.W.Y.1                                                                                                                                                                                                                                 ",
"                                                                                                                                                                                                                                                                                                                                                                                                                                                                                                                                      L.I.I.OX                                  c.$X$XB.M.M.M.I.$XOX1   L.$XOXT.;.3.;._ S < < > > @ |  .[ N Z c l l z l b n G ` /.' m D ' /.2.$.W #.$.@.W E E E W E T T f E X.O.X.T T T X.$.1.> > > * % r Z t M 1.8.#.$.@.O.&.W W T R R d i p i i Z Z N C | *.:.:.=.Z y t L u u { o.} f f T f s s E s s s s f f s f T T T d T X.o.o. .[ L { { X.E W E Q @.@.{ g X.X.X.} -.R.R.R.A.A.A.Z.Z.Z.Z.Z.D.S.S.F.OX$XmXmXmXOXR.*.N N N / ^ G F 1 < , , , f.S.M.M.B.B.B.sXsXB.V.a.a.r.r.r.t.t.t.t.t.j.z.M.B.B.I.$XOXg.                                                                                                                                                                                                                                ",
"                                                                                                                                                                                                                                                                                                                                                                                                                                                                                                                                        c.c.h.                                  g.OX$XB.B.B.B.I.$XOXh.  h.OX$XW.E.(.(._ F < : < : = l =.| C B l l k > z z z S J R.R.A A F R.(.1.#.} $.$.X.W W E E E E T f T Q O.X.T W T X.@.#.D : - * > r Z N a N 1.4.#.@.&.@.W W W T R d p p u M M l B B V H ) ;.^.:.M c L { L L { o.} X.E E s s s s f f s f d g d { { T R R R {  .-.=.*.[ { f T E W Q Q @.@.E g X.&.X.W T [ | H *.` ` R.R.A.R.T.S.S.S.F.M.M.M.c.D.R.R.) / N C V n 2 1 , - r.r.- , c.M.B.B.sXsXdXB.M.g.a.a.a.a.d.a.t.t.t.k.z.M.B.dXdXdXI.x.                                                                                                                                                                                                                                ",
"                                                                                                                                                                                                                                                                                                                                                                                                                                                                                                                                                                                  c.$XI.I.I.dXdXmX$Xc.    h.OXOXY.E.E.R.T.1 < < ; ; = G ) C V l j > > > < < > F T.R.T.< F Q.E.E.1. .#.$.@.W W W W E T T R R Q W &.W W T W &.$.' < , , > j M ..N a N +.#.@.&.X.W W } { [ i t t r l l l n m n S G J R.^.;.C N -...L L { o.X.W Q E s s s f f s g g d T { { R [ N i N | *.` R.*...L g s W W T W @.&.T u } @.W W R d d d L N V V V n F F h.f.f., , a.f.C.Z.R.R.' ^ V n b 2 , , , - r.r.- r.a.x.M.I.I.B.B.M.c.c.k.d.d.d.d.d.d.k.k.z.M.B.dXkXkXsX                                                                                                                                                                                                                                  ",
"                                                                                                                                                                                                                                                                                                                                                                                                                                                                                                                                                                                    OXI.dXdXgXMXMXdXL.      h.L.W.Y.E.~.Y.Z.< < ; - * 2 ' ' G n > > > ; < < ; f.Z.Y.Q.< < S.Q.E.;.3...$.&.W W W W W R R R d R W @.X.T T T +.%.3.1 d.d.< > e [  .u a N  .X.X.X.X.X.} { [ N u l l x x k z z z A A J R.R.R.` | ..-.{ L { { X.O.@.W E E T s g s g d d { [ [ / / N N Z B G J R.R.R.*.N d R g g T W @.&.{ d { X.X.{ { T { { N N C V l 2 1 < < < < - - s.f.f.Z.A.R.` ) G b < < < , - r.r.r.r.t.t.j.j.n.n.n.V.M.F.S.c.c.l.c.k.k.k.c.M.B.B.dXdXkXsX                                                                                                                                                                                                                                  ",
"                                                                                                                                                                                                                                                                                                                                                                                                                                                                                                                                                                                      L.I.dXgXBXBXdXL.          h.1 T.~.Y.Z.f., , - - * F R._ F < < < ; ; ; - s.l.S.Q.h.r.k.W.Q.R./.)  .@.X.W T T T R d d i d T @.#.[ [ [ } 1.3.Y.c.c.c.f.x N -.[ u a d } X.X.X.X.} { [ N M l l j z > > < < < < C.Z.A.R.R.` =.-...L L } } X.$.@.W T T s g g d d i [ / / / / V / V n n b F Z.A.R.` C i u g R W X.@.#. .i R } } }  .[ [ N Z V l b 2 < < , , , - - - s.f.C.Z.Q.Q.R._ F F < < < , r.r.r.r.t.u.u.u.e.u.j.V.M.G.G.OXF.S.S.c.c.c.M.M.L.I.I.dXN.                                                                                                                                                                                                                                    ",
"                                                                                                                                                                                                                                                                                                                                                                                                                                                                                                                                                                                      c.OX$XdXMXBXdX$X                T.~.W.l.f.s.r.- - : T.Y.Z.< < < ; ; - - r.d.D.W.W.a.k.c.S.T.R.R.' #.@.X.T R R R R p p i R } #. ./ / / 3.(.!.OXL.L.c.Z.B -.} d p y L } } X.@.} } [ Z B l m z > > < < < < < f.C.Z.Z.Q.R.R.=.} } { o.o.L { $.X.E T T f g g u i N N / / / / D D S 2 > < < A Z.A.A.J Z i d T X.} #.4.-./ N .. .=.| ^ / V V n 2 2 < < , - r.r.- - r.y.l.D.S.W.Q.R.Y.Z.Z.f.< s.s.a.t.t.t.t.u.u.u.u.j.n.M.B.I.$X$XOXc.h.S.c.c.c.c.M.m.m.                                                                                                                                                                                                                                      ",
"                                                                                                                                                                                                                                                                                                                                                                                                                                                                                                                                                                                          OXI.gXfXgXL.                  T.W.S.l.f.a.r.- * < R.Z.C.< < < < - r.r.t.l.S.+Xl.d.l.S.Y.T.R.R.=.o.X.X.T R d / / N N N [ +.1.^ / / ` E.!.@X&X$X$XS.A P 4.} g y y L } o.#.}  .| C B n n z < < < < ; ; < s.f.f.C.D.W.Q.R.-.o.} } o.,.Z | #.X.T T T f d i i N N / ) ' ' _ D 2 < ; ; ; < < C.Z.A.A.J N [ { [ ..1.2.3.^ | | =.=.^ ) ) _ D F < < < - - r.r.r.r.t.t.y.l.S.F.OXQ.Y.Y.Z.Z.f.f.f.d.a.d.t.t.u.t.t.u.j.z.M.B.dXdXmXL.s.                                                                                                                                                                                                                                                        ",
"                                                                                                                                                                                                                                                                                                                                                                                                                                                                                                                                                                                            c.L.I.L.                      W.W.c.l.d.- - - * Z.Z.Z.f.f.< ; - r.r.t.k.D.OXOXd.l.S.W.Z.T.R._ :.#.X.{ i i N / / C V C =.=.] m D T.E.!.@XmXMXmXOXZ.m o.X.d p p a [  .-. ...| ^ V n b < < < < < ; ; , r.s.d.f.D.D.Q.Q.R.-.} { { #.-.b C  .} } { T T d i N Z C ) ' G D F 2 < ; ; ; ; ; s.C.C.D.A.R.` ) / / ' =.] ' ' C C ) ' ' _ _ F F 1 < < , r.r.r.r.t.t.t.y.k.c.F.OXOXOX~.W.W.S.S.l.l.k.k.d.d.d.t.t.t.z.z.M.B.dXdXdXI.                                                                                                                                                                                                                                                          ",
"                                                                                                                                                                                                                                                                                                                                                                                                                                                                                                                                                                                                                          h.W.W.c.l.d.s.s.; < Z.S.D.f.s.s.r.r.r.r.d.l.F.+XS.l.F.OXT.Z.Y.T.;.4.#. .N M V V V V m m ) ' ' ( 1 1 W.OX@XMXMXMX&Xc.S  .X.T g d p a / -. . ...) G n S A < < < < ; - - r.r.s.d.f.D.D.Q.Q.` { d T X.#.] b S =. .} } { [ N Z Z C ^ G D F 1 < < < ; - - ; y.y.f.D.D.S.Q.R.R._ ( ( _ _ R.R.V / ^ _ _ R.T.Z.h.f.f.s.d.y.t.r.t.t.t.y.k.c.G.$X$X$XOXW.W.W.W.S.S.S.c.c.k.k.k.k.k.l.M.M.I.dXdXdXM.                                                                                                                                                                                                                                                          ",
"                                                                                                                                                                                                                                                                                                                                                                                                                                                                                                                                                                                                                            h.W.W.S.l.d.d.d.f.s.W.S.S.f.f.y.r.r.t.d.l.F.+X+XF.$X$XW.Z.A.T._ 3.1.| C B m n D D D S G _ ` R.1 , h.OX$X&XMXBXMXL.Z.^ #.X.f g g y y N  .1.=.=.' G S A < < < ; ; ; - r.r.a.s.d.k.S.S.Q.R...{ { X.X.#.;.F A ` 3.-. . .| C C V V S A A 1 < < < ; - - y.y.y.y.l.D.F.F.OXW.Y.Z.1 1 A Z.A.A.J V G ( Y.Y.Y.W.S.l.d.k.k.d.y.y.d.z.z.z.M.B.mXmXmXOXOXW.W.W.W.W.OXW.S.S.c.c.c.S.S.F.F.L.I.I.I.                                                                                                                                                                                                                                                            ",
"                                                                                                                                                                                                                                                                                                                                                                                                                                                                                                                                                                                                                              h.W.S.S.l.l.l.k.l.c.S.S.S.f.s.y.t.d.z.l.F.$X%X%X%X%XW.F Z.T.T.R.3.] ) G S S F F F F F F T.Y.T.a.a.M.OX$X&XMXMXI.c.S +.@.T g g p p p / 1.=.] ` J J F A < < < ; ; - r.r.r.r.a.d.l.D.D.S.R.| X.X.X.@.8.^.C.C.R./.3.1.=.*.^ V n S A < < < < < < y.y.y.y.y.y.y.l.D.F.OXOXOXS.f.s.< < D.D.A.A.D F T.Y.W.W.W.S.S.c.k.k.z.z.z.z.z.M.B.I.dXfXmX$XOXOXW.W.W.W.OXOXOXOXOXW.S.S.S.S.S.L.M.                                                                                                                                                                                                                                                                ",
"                                                                                                                                                                                                                                                                                                                                                                                                                                                                                                                                                                                                                                h.W.S.S.S.S.M.F.F.S.W.S.S.l.l.k.l.z.M.G.$X%X%X&X$XW.< Z.Z.Y.R.` ] ' _ D F 2 < < < < < Z.W.W.h.a.c.OXOX$XmXMXI.W.F =.#.W R d g g d p N =.;.;.` A.A.Z.f.< s.s.; - r.r.r.r.t.r.d.l.D.D.Q.R.} X.X.W $.8.^.S.F.W.E./.3.=.=.) G F A < < < < < s.s.y.y.y.y.y.d.l.D.F.$X$X$X$XM.a.r.r.s.l.D.D.Z.Z.Z.Z.h.g.k.c.F.OXF.c.l.l.l.M.M.M.I.dXfXjXMX$XOXOXW.W.S.S.W.J.J.W.OXJ.S.W.                                                                                                                                                                                                                                                                          ",
"                                                                                                                                                                                                                                                                                                                                                                                                                                                                                                                                                                                                                                    W.OXOXF.OX$X$XOXOXOXF.S.S.c.l.M.F.$XmXNX%XmX&XW.> b Z.T.Y.Y.R.] _ F F < < < < < < < Z.W.W.k.k.F.OXOXc.$XmXOXZ.G 4.X.T R g g g p p N =.;.R.R.R.Z.C.f.f.f.s.s.r.r.r.r.t.t.t.d.l.D.S.Q.:.X.X.X.@.%.7.].OX$X&X@X!.E.R.` _ Z.Z.F C.f.f.f.s.s.y.y.y.y.y.d.l.l.F.$XmXmXmX$Xk.t.t.y.y.d.l.D.S.S.h.h.a.a.r.d.k.c.F.F.S.F.F.G.$X$XgXMXfXdXM.c.c.                                                                                                                                                                                                                                                                                                  ",
"                                                                                                                                                                                                                                                                                                                                                                                                                                                                                                                                                                                                                                      S.W.OX$XmXmXmX$XOXOXOXOXF.F.G.$XmXmXMXMXNXNXOX    F T.W.Y.Y.E.R.T.F < < < < , < , f.S.W.S.k.F.OXW.: f.L.L.h.b =.$.E R g g d d i p N =.R.R.R.T.Z.Z.f.f.f.a.r.r.t.t.t.t.t.d.l.l.S.W.R.;. .} X.$.5.6.!.MXBXBXBX&X@X~.Y.Y.T.A.Z.D.Z.C.C.f.f.f.s.y.s.l.l.F.G.$XmXVXVXmXM.j.t.y.y.y.d.l.S.S.S.f.a.a.a.r.r.r.d.k.l.c.F.F.$X$X$X$XB.m.                                                                                                                                                                                                                                                                                                        ",
"                                                                                                                                                                                                                                                                                                                                                                                                                                                                                                                                                                                                                                        1 S.OX$XmXMXMX&XOXOXOXOX$X$XmXMXMXMXNXNXNXOX      T.W.Y.Y.E.E.T.Z.C.< s., - s.r.s.l.S.OXS.c.OXW.,         > V #.X.T R g d d R L N / ` E.R.R.Y.Z.Z.f.f.d.s.r.t.t.t.t.u.u.z.z.F.F.W.R.*.[  .+.#.4.(.#XCXHXHXHXBX&X@XW.Q.Q.Q.Q.D.D.D.D.D.C.C.C.C.D.S.F.$XmXmXMXMXmXV.u.t.t.y.y.d.k.S.S.OXS.f.s.s.a.r.r.t.t.t.d.c.F.OXOXOXc.                                                                                                                                                                                                                                                                                                            ",
"                                                                                                                                                                                                                                                                                                                                                                                                                                                                                                                                                                                                                                            k.c.$X&XmX&XOXZ.S.W.OX%XmXMXCXCXNXNXNX+X        W.W.W.Y.Y.Y.T.Z.f.f.< - r.r.r.a.c.OXOXF.OXOXc.            -.$.} T T T d d / ^ / / ' R.E.R.Y.S.S.D.l.d.d.d.t.t.u.u.u.j.V.F.F.OX+XR.H C ..-.3./.[.#XSXHXHXHXVX$XM.F.OX+XQ.Q.Q.W.A.D.D.D.D.S.S.F.F.$X$XmXmXdXm.j.u.t.r.r.d.d.k.l.S.OXOXOXk.s.s.s.a.r.t.t.t.z.M.G.$X$XOX                                                                                                                                                                                                                                                                                                            ",
"                                                                                                                                                                                                                                                                                                                                                                                                                                                                                                                                                                                                                                                  M.$XOX      1 Z.OX$X&XMXNX%X%X*XW.        T.+XOXW.Y.Y.W.Z.Z.f.s.s.y.r.r.d.k.S.OXOXOX$XW.            ^ 1.#.} { [ i N i / / / / ' R.E.E.W.W.S.S.l.f.d.d.d.j.j.j.V.V.M.G.$X%X+XT.G C ) ` R.E.#X*XFXHXKXHXVXB.M.$X$X+X+X!.!.].Q.Q.Q.Q.Q.Q.+X+XOX$X$XM.V.j.a.t.t.r.r.t.d.k.k.F.G.$X$XOXl.f.s.s.a.a.y.d.z.M.G.$X$X$X$Xc.                                                                                                                                                                                                                                                                                                        ",
"                                                                                                                                                                                                                                                                                                                                                                                                                                                                                                                                                                                                                                                                        c.W.+X+X+X            Y.OXOXW.Y.W.W.S.f.f.s.; r.r.r.d.l.F.OXOX$XOX              =.4.+.[ N N N N / / V / / ^ ` E.Q.W.W.S.D.S.l.l.k.z.z.z.V.V.M.G.$XmX%XQ.J S D F Z.T.~.#X&XCXJXHXHXMXB.$XmX%X$XQ.R.E.(.[.E.R.W.S.S.W.+XOXF.c.z.k.k.d.d.d.s.y.d.k.l.F.$X$XmX$XF.l.l.f.f.d.d.k.l.M.M.$XmXmXMX$Xc.                                                                                                                                                                                                                                                                                                      ",
"                                                                                                                                                                                                                                                                                                                                                                                                                                                                                                                                                                                                                                                                                                W.OXOXW.Q.Q.W.S.f.s.s.r.r.r.d.l.F.OXOXOXOXc.            ) 1.1.| N Z B B V m m C ^ ^ ) R.Y.W.W.W.S.S.S.D.l.l.z.z.V.M.M.$XmXNXMX%XZ.F A 1 h.h.S.OX@X&XNXSXSXMX$XmXMXMXmX%XZ.  R.(.(.E.T.Z.f.f.l.S.F.F.c.c.c.k.l.k.d.d.d.l.M.G.$XNXmXmX$XS.D.D.Z.l.l.l.c.F.G.$XmXBXBXMXM.                                                                                                                                                                                                                                                                                                      ",
"                                                                                                                                                                                                                                                                                                                                                                                                                                                                                                                                                                                                                                                                                                  W.OXOXW.W.W.W.S.l.f.s.s.s.d.l.S.OXOXOXOXOX              3.3.=./ V l m b b b G n S _ _ T.f.Z.W.W.W.W.S.S.S.S.M.M.G.G.$XmXCXCX%XW.h.< f.f.h.c.c.OXOX&X&XMXmX$XmXMXCXCXNXOX      !.E.R.T.Z.f.f.f.c.S.F.F.F.c.c.c.l.l.l.c.F.$X$XNXVXCX$XQ.W.A.S.S.D.S.F.F.$X$XMXBXBXMXM.                                                                                                                                                                                                                                                                                                      ",
"                                                                                                                                                                                                                                                                                                                                                                                                                                                                                                                                                                                                                                                                                                    S.OXOXZ.T.Q.W.S.D.f.d.d.k.l.F.OX$X%XOXOXc.            ' 3.=.) ^ m n b b F F F F F F W.c.d.h.W.Q.Q.Q.Q.W.S.F.F.G.$XmXNXCXMX$XF.h.f.f.h.k.f.k.c.F.OXOX$X$X$XNXCXVXVXCX&X        Y.E.Q.W.Z.C.f.d.d.k.c.S.S.S.OXF.F.F.F.OX$X$XNXMXNX+X    Z.Z.W.S.S.OXOX$X$XmXmXgXI.                                                                                                                                                                                                                                                                                                        ",
"                                                                                                                                                                                                                                                                                                                                                                                                                                                                                                                                                                                                                                                                                                            : Z.W.W.S.D.l.l.l.c.F.$X&X&X@XOXW.              ;.;.' ' n b b 2 1 1 1 < 1 Z.S.S.d.d.S.W.E.^.R.R.Q.W.F.OX$X$XNXNXmXOXS.h.s.f.f.f.a.a.k.k.c.F.F.OXOX%XMXCXVXVXMXL.        Y.Y.Q.Q.W.S.S.l.k.k.a.k.c.OXOXOXOXOXOX+X+X+X+X                S.Z.S.OXOXL.M.m.                                                                                                                                                                                                                                                                                                          ",
"                                                                                                                                                                                                                                                                                                                                                                                                                                                                                                                                                                                                                                                                                                                Z.W.W.S.S.F.F.F.G.$XmXMX&XOXW.              ` E.R._ D S A 1 1 1 < , < f.Z.S.c.s.S.S.R.      T.T.Q.+X+X+X%X%X+XW.S.f.f.f.f.d.a.a.d.k.k.k.l.F.F.OX$XmXMXVXVX$X            T.Y.W.Q.W.S.S.c.k.k.c.F.$X$X&X%X+X].                                                                                                                                                                                                                                                                                                                                                ",
"                                                                                                                                                                                                                                                                                                                                                                                                                                                                                                                                                                                                                                                                                                                    W.W.OXOXOX$X$XmXMXMXMX@XOX                E.E.R.( F A < < < < , , s.f.S.W.l.D.S.Q.;.        F R.Q.+X+X!.!.Q.Y.Z.f.f.f.f.d.a.d.d.d.d.k.l.S.F.OX$X&XMXMX$X                T.Q.Q.+XW.S.S.l.S.OX$XmXMXMXNXQ.                                                                                                                                                                                                                                                                                                                                                ",
"                                                                                                                                                                                                                                                                                                                                                                                                                                                                                                                                                                                                                                                                                                                      Z.W.OXOX$XmXMXMXCXMX&XOX                  R.R.T.F A < < < < , ; s.d.S.F.F.D.F.S.R.;.          Z.W.Q.!.[.!.~.Y.Z.Z.f.f.d.d.d.d.d.t.d.l.l.F.+X%X%X&X$XS.                    Z.Q.Q.Q.Q.S.F.OX%XMXMXVXMX%X                                                                                                                                                                                                                                                                                                                                                ",
"                                                                                                                                                                                                                                                                                                                                                                                                                                                                                                                                                                                                                                                                                                                          c.OXOX&XmXMXMXMX$XOX                  ( E.Y.Z.Z.f.f.f.s.s.a.s.s.f.D.OXF.F.F.Q.R.                T.E.E.!.Q.W.W.S.Z.l.d.d.d.d.y.d.d.l.S.OX&X&X&X@XW.                        Z.Z.W.Q.+X+X%XNXNXMXMX%XA.                                                                                                                                                                                                                                                                                                                                              ",
"                                                                                                                                                                                                                                                                                                                                                                                                                                                                                                                                                                                                                                                                                                                              c.c.OX$X&X@XW.S.                    R.Y.Y.Z.f.s.f.s.s.r.a.s.d.l.F.F.OX$X%X+XZ.                  T.Y.!.Q.Q.W.S.D.l.l.k.k.d.f.l.D.S.$X%XNXNXNX%X                                  A.Q.+X+X+X+XQ.                                                                                                                                                                                                                                                                                                                                                ",
"                                                                                                                                                                                                                                                                                                                                                                                                                                                                                                                                                                                                                                                                                                                                      c.W.h.h.                      Y.~.S.Z.f.f.f.s.r.t.y.y.s.D.F.OX$XmX$XOX                        T.Q.Q.Q.W.S.S.S.S.D.D.D.F.F.OX%XMXMXCXNXOX                                                                                                                                                                                                                                                                                                                                                                                              ",
"                                                                                                                                                                                                                                                                                                                                                                                                                                                                                                                                                                                                                                                                                                                                                                      Y.W.S.Z.f.f.s.r.r.t.y.s.l.S.OXmXmXmX%XW.                          T.W.W.W.W.W.S.S.S.OXOXOX$XmXMXCXCXmXM.                                                                                                                                                                                                                                                                                                                                                                                              ",
"                                                                                                                                                                                                                                                                                                                                                                                                                                                                                                                                                                                                                                                                                                                                                                      F Y.W.S.Z.f.f.y.r.t.y.d.l.S.OX&XMXVXMXOX                                Z.W.W.W.W.W.OXOX%X%X&X$X&X$XM.                                                                                                                                                                                                                                                                                                                                                                                                ",
"                                                                                                                                                                                                                                                                                                                                                                                                                                                                                                                                                                                                                                                                                                                                                                        R.Y.W.Z.D.f.d.s.t.y.d.l.F.OXOXMXVXMX$X                                      Z.Z.Z.S.S.OXOXF.M.c.                                                                                                                                                                                                                                                                                                                                                                                                    ",
"                                                                                                                                                                                                                                                                                                                                                                                                                                                                                                                                                                                                                                                                                                                                                                          R.R.W.D.D.f.s.y.d.k.l.F.OXOX$X&X&XOX                                                                                                                                                                                                                                                                                                                                                                                                                                                              ",
"                                                                                                                                                                                                                                                                                                                                                                                                                                                                                                                                                                                                                                                                                                                                                                              R.Q.D.C.s.d.d.l.l.F.OX%XOXOXS.                                                                                                                                                                                                                                                                                                                                                                                                                                                                ",
"                                                                                                                                                                                                                                                                                                                                                                                                                                                                                                                                                                                                                                                                                                                                                                                R.R.A.Z.C.l.D.F.F.%X%X%XW.                                                                                                                                                                                                                                                                                                                                                                                                                                                                  ",
"                                                                                                                                                                                                                                                                                                                                                                                                                                                                                                                                                                                                                                                                                                                                                                                  R.R.A.D.S.F.OX$X%XNX&XOX                                                                                                                                                                                                                                                                                                                                                                                                                                                                  ",
"                                                                                                                                                                                                                                                                                                                                                                                                                                                                                                                                                                                                                                                                                                                                                                                      A.S.Q.+X%X$XmXNXNX%X                                                                                                                                                                                                                                                                                                                                                                                                                                                                  ",
"                                                                                                                                                                                                                                                                                                                                                                                                                                                                                                                                                                                                                                                                                                                                                                                        A.Q.+X%XmXNXNXNX&XZ.                                                                                                                                                                                                                                                                                                                                                                                                                                                                ",
"                                                                                                                                                                                                                                                                                                                                                                                                                                                                                                                                                                                                                                                                                                                                                                                            W.OX%XNXMXmXOXh.                                                                                                                                                                                                                                                                                                                                                                                                                                                                ",
"                                                                                                                                                                                                                                                                                                                                                                                                                                                                                                                                                                                                                                                                                                                                                                                              h.c.M.M.M.c.                                                                                                                                                                                                                                                                                                                                                                                                                                                                  ",
"                                                                                                                                                                                                                                                                                                                                                                                                                                                                                                                                                                                                                                                                                                                                                                                                                                                                                                                                                                                                                                                                                                                                                                                                                                                                            ",
"                                                                                                                                                                                                                                                                                                                                                                                                                                                                                                                                                                                                                                                                                                                                                                                                                                                                                                                                                                                                                                                                                                                                                                                                                                                                            ",
"                                                                                                                                                                                                                                                                                                                                                                                                                                                                                                                                                                                                                                                                                                                                                                                                                                                                                                                                                                                                                                                                                                                                                                                                                                                                            ",
"                                                                                                                                                                                                                                                                                                                                                                                                                                                                                                                                                                                                                                                                                                                                                                                                                                                                                                                                                                                                                                                                                                                                                                                                                                                                            ",
"                                                                                                                                                                                                                                                                                                                                                                                                                                                                                                                                                                                                                                                                                                                                                                                                                                                                                                                                                                                                                                                                                                                                                                                                                                                                            ",
"                                                                                                                                                                                                                                                                                                                                                                                                                                                                                                                                                                                                                                                                                                                                                                                                                                                                                                                                                                                                                                                                                                                                                                                                                                                                            ",
"                                                                                                                                                                                                                                                                                                                                                                                                                                                                                                                                                                                                                                                                                                                                                                                                                                                                                                                                                                                                                                                                                                                                                                                                                                                                            ",
"                                                                                                                                                                                                                                                                                                                                                                                                                                                                                                                                                                                                                                                                                                                                                                                                                                                                                                                                                                                                                                                                                                                                                                                                                                                                            ",
"                                                                                                                                                                                                                                                                                                                                                                                                                                                                                                                                                                                                                                                                                                                                                                                                                                                                                                                                                                                                                                                                                                                                                                                                                                                                            ",
"                                                                                                                                                                                                                                                                                                                                                                                                                                                                                                                                                                                                                                                                                                                                                                                                                                                                                                                                                                                                                                                                                                                                                                                                                                                                            ",
"                                                                                                                                                                                                                                                                                                                                                                                                                                                                                                                                                                                                                                                                                                                                                                                                                                                                                                                                                                                                                                                                                                                                                                                                                                                                            ",
"                                                                                                                                                                                                                                                                                                                                                                                                                                                                                                                                                                                                                                                                                                                                                                                                                                                                                                                                                                                                                                                                                                                                                                                                                                                                            ",
"                                                                                                                                                                                                                                                                                                                                                                                                                                                                                                                                                                                                                                                                                                                                                                                                                                                                                                                                                                                                                                                                                                                                                                                                                                                                            ",
"                                                                                                                                                                                                                                                                                                                                                                                                                                                                                                                                                                                                                                                                                                                                                                                                                                                                                                                                                                                                                                                                                                                                                                                                                                                                            ",
"                                                                                                                                                                                                                                                                                                                                                                                                                                                                                                                                                                                                                                                                                                                                                                                                                                                                                                                                                                                                                                                                                                                                                                                                                                                                            ",
"                                                                                                                                                                                                                                                                                                                                                                                                                                                                                                                                                                                                                                                                                                                                                                                                                                                                                                                                                                                                                                                                                                                                                                                                                                                                            ",
"                                                                                                                                                                                                                                                                                                                                                                                                                                                                                                                                                                                                                                                                                                                                                                                                                                                                                                                                                                                                                                                                                                                                                                                                                                                                            ",
"                                                                                                                                                                                                                                                                                                                                                                                                                                                                                                                                                                                                                                                                                                                                                                                                                                                                                                                                                                                                                                                                                                                                                                                                                                                                            ",
"                                                                                                                                                                                                                                                                                                                                                                                                                                                                                                                                                                                                                                                                                                                                                                                                                                                                                                                                                                                                                                                                                                                                                                                                                                                                            ",
"                                                                                                                                                                                                                                                                                                                                                                                                                                                                                                                                                                                                                                                                                                                                                                                                                                                                                                                                                                                                                                                                                                                                                                                                                                                                            ",
"                                                                                                                                                                                                                                                                                                                                                                                                                                                                                                                                                                                                                                                                                                                                                                                                                                                                                                                                                                                                                                                                                                                                                                                                                                                                            ",
"                                                                                                                                                                                                                                                                                                                                                                                                                                                                                                                                                                                                                                                                                                                                                                                                                                                                                                                                                                                                                                                                                                                                                                                                                                                                            ",
"                                                                                                                                                                                                                                                                                                                                                                                                                                                                                                                                                                                                                                                                                                                                                                                                                                                                                                                                                                                                                                                                                                                                                                                                                                                                            ",
"                                                                                                                                                                                                                                                                                                                                                                                                                                                                                                                                                                                                                                                                                                                                                                                                                                                                                                                                                                                                                                                                                                                                                                                                                                                                            ",
"                                                                                                                                                                                                                                                                                                                                                                                                                                                                                                                                                                                                                                                                                                                                                                                                                                                                                                                                                                                                                                                                                                                                                                                                                                                                            ",
"                                                                                                                                                                                                                                                                                                                                                                                                                                                                                                                                                                                                                                                                                                                                                                                                                                                                                                                                                                                                                                                                                                                                                                                                                                                                            ",
"                                                                                                                                                                                                                                                                                                                                                                                                                                                                                                                                                                                                                                                                                                                                                                                                                                                                                                                                                                                                                                                                                                                                                                                                                                                                            ",
"                                                                                                                                                                                                                                                                                                                                                                                                                                                                                                                                                                                                                                                                                                                                                                                                                                                                                                                                                                                                                                                                                                                                                                                                                                                                            ",
"                                                                                                                                                                                                                                                                                                                                                                                                                                                                                                                                                                                                                                                                                                                                                                                                                                                                                                                                                                                                                                                                                                                                                                                                                                                                            ",
"                                                                                                                                                                                                                                                                                                                                                                                                                                                                                                                                                                                                                                                                                                                                                                                                                                                                                                                                                                                                                                                                                                                                                                                                                                                                            ",
"                                                                                                                                                                                                                                                                                                                                                                                                                                                                                                                                                                                                                                                                                                                                                                                                                                                                                                                                                                                                                                                                                                                                                                                                                                                                            ",
"                                                                                                                                                                                                                                                                                                                                                                                                                                                                                                                                                                                                                                                                                                                                                                                                                                                                                                                                                                                                                                                                                                                                                                                                                                                                            ",
"                                                                                                                                                                                                                                                                                                                                                                                                                                                                                                                                                                                                                                                                                                                                                                                                                                                                                                                                                                                                                                                                                                                                                                                                                                                                            ",
"                                                                                                                                                                                                                                                                                                                                                                                                                                                                                                                                                                                                                                                                                                                                                                                                                                                                                                                                                                                                                                                                                                                                                                                                                                                                            ",
"                                                                                                                                                                                                                                                                                                                                                                                                                                                                                                                                                                                                                                                                                                                                                                                                                                                                                                                                                                                                                                                                                                                                                                                                                                                                            ",
"                                                                                                                                                                                                                                                                                                                                                                                                                                                                                                                                                                                                                                                                                                                                                                                                                                                                                                                                                                                                                                                                                                                                                                                                                                                                            ",
"                                                                                                                                                                                                                                                                                                                                                                                                                                                                                                                                                                                                                                                                                                                                                                                                                                                                                                                                                                                                                                                                                                                                                                                                                                                                            ",
"                                                                                                                                                                                                                                                                                                                                                                                                                                                                                                                                                                                                                                                                                                                                                                                                                                                                                                                                                                                                                                                                                                                                                                                                                                                                            ",
"                                                                                                                                                                                                                                                                                                                                                                                                                                                                                                                                                                                                                                                                                                                                                                                                                                                                                                                                                                                                                                                                                                                                                                                                                                                                            ",
"                                                                                                                                                                                                                                                                                                                                                                                                                                                                                                                                                                                                                                                                                                                                                                                                                                                                                                                                                                                                                                                                                                                                                                                                                                                                            ",
"                                                                                                                                                                                                                                                                                                                                                                                                                                                                                                                                                                                                                                                                                                                                                                                                                                                                                                                                                                                                                                                                                                                                                                                                                                                                            ",
"                                                                                                                                                                                                                                                                                                                                                                                                                                                                                                                                                                                                                                                                                                                                                                                                                                                                                                                                                                                                                                                                                                                                                                                                                                                                            ",
"                                                                                                                                                                                                                                                                                                                                                                                                                                                                                                                                                                                                                                                                                                                                                                                                                                                                                                                                                                                                                                                                                                                                                                                                                                                                            ",
"                                                                                                                                                                                                                                                                                                                                                                                                                                                                                                                                                                                                                                                                                                                                                                                                                                                                                                                                                                                                                                                                                                                                                                                                                                                                            ",
"                                                                                                                                                                                                                                                                                                                                                                                                                                                                                                                                                                                                                                                                                                                                                                                                                                                                                                                                                                                                                                                                                                                                                                                                                                                                            ",
"                                                                                                                                                                                                                                                                                                                                                                                                                                                                                                                                                                                                                                                                                                                                                                                                                                                                                                                                                                                                                                                                                                                                                                                                                                                                            ",
"                                                                                                                                                                                                                                                                                                                                                                                                                                                                                                                                                                                                                                                                                                                                                                                                                                                                                                                                                                                                                                                                                                                                                                                                                                                                            ",
"                                                                                                                                                                                                                                                                                                                                                                                                                                                                                                                                                                                                                                                                                                                                                                                                                                                                                                                                                                                                                                                                                                                                                                                                                                                                            ",
"                                                                                                                                                                                                                                                                                                                                                                                                                                                                                                                                                                                                                                                                                                                                                                                                                                                                                                                                                                                                                                                                                                                                                                                                                                                                            ",
"                                                                                                                                                                                                                                                                                                                                                                                                                                                                                                                                                                                                                                                                                                                                                                                                                                                                                                                                                                                                                                                                                                                                                                                                                                                                            ",
"                                                                                                                                                                                                                                                                                                                                                                                                                                                                                                                                                                                                                                                                                                                                                                                                                                                                                                                                                                                                                                                                                                                                                                                                                                                                            ",
"                                                                                                                                                                                                                                                                                                                                                                                                                                                                                                                                                                                                                                                                                                                                                                                                                                                                                                                                                                                                                                                                                                                                                                                                                                                                            ",
"                                                                                                                                                                                                                                                                                                                                                                                                                                                                                                                                                                                                                                                                                                                                                                                                                                                                                                                                                                                                                                                                                                                                                                                                                                                                            ",
"                                                                                                                                                                                                                                                                                                                                                                                                                                                                                                                                                                                                                                                                                                                                                                                                                                                                                                                                                                                                                                                                                                                                                                                                                                                                            ",
"                                                                                                                                                                                                                                                                                                                                                                                                                                                                                                                                                                                                                                                                                                                                                                                                                                                                                                                                                                                                                                                                                                                                                                                                                                                                            ",
"                                                                                                                                                                                                                                                                                                                                                                                                                                                                                                                                                                                                                                                                                                                                                                                                                                                                                                                                                                                                                                                                                                                                                                                                                                                                            ",
"                                                                                                                                                                                                                                                                                                                                                                                                                                                                                                                                                                                                                                                                                                                                                                                                                                                                                                                                                                                                                                                                                                                                                                                                                                                                            ",
"                                                                                                                                                                                                                                                                                                                                                                                                                                                                                                                                                                                                                                                                                                                                                                                                                                                                                                                                                                                                                                                                                                                                                                                                                                                                            ",
"                                                                                                                                                                                                                                                                                                                                                                                                                                                                                                                                                                                                                                                                                                                                                                                                                                                                                                                                                                                                                                                                                                                                                                                                                                                                            ",
"                                                                                                                                                                                                                                                                                                                                                                                                                                                                                                                                                                                                                                                                                                                                                                                                                                                                                                                                                                                                                                                                                                                                                                                                                                                                            ",
"                                                                                                                                                                                                                                                                                                                                                                                                                                                                                                                                                                                                                                                                                                                                                                                                                                                                                                                                                                                                                                                                                                                                                                                                                                                                            ",
"                                                                                                                                                                                                                                                                                                                                                                                                                                                                                                                                                                                                                                                                                                                                                                                                                                                                                                                                                                                                                                                                                                                                                                                                                                                                            ",
"                                                                                                                                                                                                                                                                                                                                                                                                                                                                                                                                                                                                                                                                                                                                                                                                                                                                                                                                                                                                                                                                                                                                                                                                                                                                            ",
"                                                                                                                                                                                                                                                                                                                                                                                                                                                                                                                                                                                                                                                                                                                                                                                                                                                                                                                                                                                                                                                                                                                                                                                                                                                                            ",
"                                                                                                                                                                                                                                                                                                                                                                                                                                                                                                                                                                                                                                                                                                                                                                                                                                                                                                                                                                                                                                                                                                                                                                                                                                                                            ",
"                                                                                                                                                                                                                                                                                                                                                                                                                                                                                                                                                                                                                                                                                                                                                                                                                                                                                                                                                                                                                                                                                                                                                                                                                                                                            ",
"                                                                                                                                                                                                                                                                                                                                                                                                                                                                                                                                                                                                                                                                                                                                                                                                                                                                                                                                                                                                                                                                                                                                                                                                                                                                            ",
"                                                                                                                                                                                                                                                                                                                                                                                                                                                                                                                                                                                                                                                                                                                                                                                                                                                                                                                                                                                                                                                                                                                                                                                                                                                                            ",
"                                                                                                                                                                                                                                                                                                                                                                                                                                                                                                                                                                                                                                                                                                                                                                                                                                                                                                                                                                                                                                                                                                                                                                                                                                                                            ",
"                                                                                                                                                                                                                                                                                                                                                                                                                                                                                                                                                                                                                                                                                                                                                                                                                                                                                                                                                                                                                                                                                                                                                                                                                                                                            ",
"                                                                                                                                                                                                                                                                                                                                                                                                                                                                                                                                                                                                                                                                                                                                                                                                                                                                                                                                                                                                                                                                                                                                                                                                                                                                            ",
"                                                                                                                                                                                                                                                                                                                                                                                                                                                                                                                                                                                                                                                                                                                                                                                                                                                                                                                                                                                                                                                                                                                                                                                                                                                                            ",
"                                                                                                                                                                                                                                                                                                                                                                                                                                                                                                                                                                                                                                                                                                                                                                                                                                                                                                                                                                                                                                                                                                                                                                                                                                                                            ",
"                                                                                                                                                                                                                                                                                                                                                                                                                                                                                                                                                                                                                                                                                                                                                                                                                                                                                                                                                                                                                                                                                                                                                                                                                                                                            ",
"                                                                                                                                                                                                                                                                                                                                                                                                                                                                                                                                                                                                                                                                                                                                                                                                                                                                                                                                                                                                                                                                                                                                                                                                                                                                            ",
"                                                                                                                                                                                                                                                                                                                                                                                                                                                                                                                                                                                                                                                                                                                                                                                                                                                                                                                                                                                                                                                                                                                                                                                                                                                                            ",
"                                                                                                                                                                                                                                                                                                                                                                                                                                                                                                                                                                                                                                                                                                                                                                                                                                                                                                                                                                                                                                                                                                                                                                                                                                                                            ",
"                                                                                                                                                                                                                                                                                                                                                                                                                                                                                                                                                                                                                                                                                                                                                                                                                                                                                                                                                                                                                                                                                                                                                                                                                                                                            ",
"                                                                                                                                                                                                                                                                                                                                                                                                                                                                                                                                                                                                                                                                                                                                                                                                                                                                                                                                                                                                                                                                                                                                                                                                                                                                            ",
"                                                                                                                                                                                                                                                                                                                                                                                                                                                                                                                                                                                                                                                                                                                                                                                                                                                                                                                                                                                                                                                                                                                                                                                                                                                                            ",
"                                                                                                                                                                                                                                                                                                                                                                                                                                                                                                                                                                                                                                                                                                                                                                                                                                                                                                                                                                                                                                                                                                                                                                                                                                                                            ",
"                                                                                                                                                                                                                                                                                                                                                                                                                                                                                                                                                                                                                                                                                                                                                                                                                                                                                                                                                                                                                                                                                                                                                                                                                                                                            ",
"                                                                                                                                                                                                                                                                                                                                                                                                                                                                                                                                                                                                                                                                                                                                                                                                                                                                                                                                                                                                                                                                                                                                                                                                                                                                            ",
"                                                                                                                                                                                                                                                                                                                                                                                                                                                                                                                                                                                                                                                                                                                                                                                                                                                                                                                                                                                                                                                                                                                                                                                                                                                                            ",
"                                                                                                                                                                                                                                                                                                                                                                                                                                                                                                                                                                                                                                                                                                                                                                                                                                                                                                                                                                                                                                                                                                                                                                                                                                                                            ",
"                                                                                                                                                                                                                                                                                                                                                                                                                                                                                                                                                                                                                                                                                                                                                                                                                                                                                                                                                                                                                                                                                                                                                                                                                                                                            ",
"                                                                                                                                                                                                                                                                                                                                                                                                                                                                                                                                                                                                                                                                                                                                                                                                                                                                                                                                                                                                                                                                                                                                                                                                                                                                            ",
"                                                                                                                                                                                                                                                                                                                                                                                                                                                                                                                                                                                                                                                                                                                                                                                                                                                                                                                                                                                                                                                                                                                                                                                                                                                                            ",
"                                                                                                                                                                                                                                                                                                                                                                                                                                                                                                                                                                                                                                                                                                                                                                                                                                                                                                                                                                                                                                                                                                                                                                                                                                                                            ",
"                                                                                                                                                                                                                                                                                                                                                                                                                                                                                                                                                                                                                                                                                                                                                                                                                                                                                                                                                                                                                                                                                                                                                                                                                                                                            ",
"                                                                                                                                                                                                                                                                                                                                                                                                                                                                                                                                                                                                                                                                                                                                                                                                                                                                                                                                                                                                                                                                                                                                                                                                                                                                            ",
"                                                                                                                                                                                                                                                                                                                                                                                                                                                                                                                                                                                                                                                                                                                                                                                                                                                                                                                                                                                                                                                                                                                                                                                                                                                                            ",
"                                                                                                                                                                                                                                                                                                                                                                                                                                                                                                                                                                                                                                                                                                                                                                                                                                                                                                                                                                                                                                                                                                                                                                                                                                                                            ",
"                                                                                                                                                                                                                                                                                                                                                                                                                                                                                                                                                                                                                                                                                                                                                                                                                                                                                                                                                                                                                                                                                                                                                                                                                                                                            ",
"                                                                                                                                                                                                                                                                                                                                                                                                                                                                                                                                                                                                                                                                                                                                                                                                                                                                                                                                                                                                                                                                                                                                                                                                                                                                            ",
"                                                                                                                                                                                                                                                                                                                                                                                                                                                                                                                                                                                                                                                                                                                                                                                                                                                                                                                                                                                                                                                                                                                                                                                                                                                                            ",
"                                                                                                                                                                                                                                                                                                                                                                                                                                                                                                                                                                                                                                                                                                                                                                                                                                                                                                                                                                                                                                                                                                                                                                                                                                                                            "
};
